;FLAVOR:Marlin
;TIME:5506
;Filament used: 3.20654m
;Layer height: 0.2
;MINX:95.73
;MINY:57.7
;MINZ:0.2
;MAXX:139.27
;MAXY:177.3
;MAXZ:10.6
;Generated with Cura_SteamEngine 4.8.0
M140 S60
M105
M190 S60
M104 S200
M105
M109 S200
M82 ;absolute extrusion mode
; Ender 3 Custom Start G-code
G92 E0 ; Reset Extruder
G28 ; Home all axes
G1 Z2.0 F3000 ; Move Z Axis up little to prevent scratching of Heat Bed
G1 X0.1 Y20 Z0.3 F5000.0 ; Move to start position
G1 X0.1 Y200.0 Z0.3 F1500.0 E15 ; Draw the first line
G1 X0.4 Y200.0 Z0.3 F5000.0 ; Move to side a little
G1 X0.4 Y20 Z0.3 F1500.0 E30 ; Draw the second line
G92 E0 ; Reset Extruder
G1 Z2.0 F3000 ; Move Z Axis up little to prevent scratching of Heat Bed
G1 X5 Y20 Z0.3 F5000.0 ; Move over to prevent blob squish
G92 E0
G92 E0
G1 F2700 E-5
;LAYER_COUNT:53
;LAYER:0
M107
G0 F6000 X97.135 Y62.443 Z0.2
;TYPE:SKIRT
G1 F2700 E0
G1 F1200 X97.626 Y61.707 E0.02943
G1 X98.181 Y61.017 E0.05888
G1 X98.796 Y60.38 E0.08833
G1 X99.466 Y59.802 E0.11776
G1 X100.185 Y59.286 E0.14719
G1 X100.948 Y58.837 E0.17664
G1 X101.749 Y58.459 E0.2061
G1 X102.58 Y58.155 E0.23553
G1 X103.435 Y57.927 E0.26496
G1 X104.308 Y57.777 E0.29442
G1 X105.53 Y57.7 E0.33515
G1 X129.47 Y57.7 E1.13139
G1 X130.354 Y57.74 E1.16083
G1 X131.231 Y57.86 E1.19027
G1 X132.094 Y58.058 E1.21972
G1 X132.935 Y58.333 E1.24915
G1 X133.748 Y58.683 E1.27859
G1 X134.527 Y59.105 E1.30805
G1 X135.263 Y59.596 E1.33748
G1 X135.953 Y60.151 E1.36693
G1 X136.59 Y60.766 E1.39638
G1 X137.168 Y61.436 E1.42581
G1 X137.684 Y62.155 E1.45525
G1 X138.133 Y62.918 E1.48469
G1 X138.511 Y63.719 E1.51415
G1 X138.815 Y64.55 E1.54358
G1 X139.043 Y65.405 E1.57301
G1 X139.193 Y66.278 E1.60247
G1 X139.27 Y67.5 E1.6432
G1 X139.27 Y167.5 E4.96921
G1 X139.23 Y168.384 E4.99864
G1 X139.11 Y169.261 E5.02809
G1 X138.912 Y170.124 E5.05753
G1 X138.637 Y170.965 E5.08696
G1 X138.287 Y171.778 E5.1164
G1 X137.865 Y172.557 E5.14587
G1 X137.374 Y173.293 E5.1753
G1 X136.819 Y173.983 E5.20475
G1 X136.204 Y174.62 E5.2342
G1 X135.534 Y175.198 E5.26363
G1 X134.815 Y175.714 E5.29307
G1 X134.052 Y176.163 E5.32251
G1 X133.251 Y176.541 E5.35197
G1 X132.42 Y176.845 E5.3814
G1 X131.565 Y177.073 E5.41083
G1 X130.692 Y177.223 E5.44029
G1 X129.47 Y177.3 E5.48102
G1 X105.53 Y177.3 E6.27727
G1 X104.646 Y177.26 E6.3067
G1 X103.769 Y177.14 E6.33614
G1 X102.906 Y176.942 E6.36559
G1 X102.065 Y176.667 E6.39502
G1 X101.252 Y176.317 E6.42446
G1 X100.473 Y175.895 E6.45392
G1 X99.737 Y175.404 E6.48335
G1 X99.047 Y174.849 E6.5128
G1 X98.41 Y174.234 E6.54225
G1 X97.832 Y173.564 E6.57168
G1 X97.316 Y172.845 E6.60112
G1 X96.867 Y172.082 E6.63056
G1 X96.489 Y171.281 E6.66002
G1 X96.185 Y170.45 E6.68945
G1 X95.957 Y169.595 E6.71888
G1 X95.807 Y168.722 E6.74835
G1 X95.73 Y167.5 E6.78907
G1 X95.73 Y67.5 E10.11508
G1 X95.77 Y66.616 E10.14452
G1 X95.89 Y65.739 E10.17396
G1 X96.088 Y64.876 E10.20341
G1 X96.363 Y64.035 E10.23284
G1 X96.713 Y63.222 E10.26227
G1 X97.135 Y62.443 E10.29174
G0 F6000 X97.534 Y62.558
G1 F1200 X98.023 Y61.843 E10.32055
G1 X98.576 Y61.175 E10.3494
G1 X99.189 Y60.561 E10.37825
G1 X99.855 Y60.006 E10.40709
G1 X100.569 Y59.516 E10.43589
G1 X101.326 Y59.092 E10.46475
G1 X102.119 Y58.741 E10.49359
G1 X102.94 Y58.464 E10.52241
G1 X103.784 Y58.264 E10.55126
G1 X104.642 Y58.142 E10.58008
G1 X105.53 Y58.1 E10.60965
G1 X129.47 Y58.1 E11.4059
G1 X130.336 Y58.14 E11.43473
G1 X131.195 Y58.26 E11.46358
G1 X132.039 Y58.458 E11.49241
G1 X132.861 Y58.733 E11.52124
G1 X133.654 Y59.083 E11.55007
G1 X134.412 Y59.504 E11.57891
G1 X135.127 Y59.993 E11.60772
G1 X135.795 Y60.546 E11.63657
G1 X136.409 Y61.159 E11.66542
G1 X136.964 Y61.825 E11.69426
G1 X137.454 Y62.539 E11.72306
G1 X137.878 Y63.296 E11.75192
G1 X138.229 Y64.089 E11.78076
G1 X138.506 Y64.91 E11.80958
G1 X138.706 Y65.754 E11.83843
G1 X138.828 Y66.612 E11.86725
G1 X138.87 Y67.5 E11.89682
G1 X138.87 Y167.5 E15.22284
G1 X138.83 Y168.366 E15.25167
G1 X138.71 Y169.225 E15.28052
G1 X138.512 Y170.069 E15.30935
G1 X138.237 Y170.891 E15.33818
G1 X137.887 Y171.684 E15.36701
G1 X137.466 Y172.442 E15.39585
G1 X136.977 Y173.157 E15.42466
G1 X136.424 Y173.825 E15.4535
G1 X135.811 Y174.439 E15.48236
G1 X135.145 Y174.994 E15.51119
G1 X134.431 Y175.484 E15.54
G1 X133.674 Y175.908 E15.56886
G1 X132.881 Y176.259 E15.5977
G1 X132.06 Y176.536 E15.62652
G1 X131.216 Y176.736 E15.65537
G1 X130.358 Y176.858 E15.68419
G1 X129.47 Y176.9 E15.71376
G1 X105.53 Y176.9 E16.51001
G1 X104.664 Y176.86 E16.53884
G1 X103.805 Y176.74 E16.56769
G1 X102.961 Y176.542 E16.59652
G1 X102.139 Y176.267 E16.62535
G1 X101.346 Y175.917 E16.65418
G1 X100.588 Y175.496 E16.68302
G1 X99.873 Y175.007 E16.71183
G1 X99.205 Y174.454 E16.74067
G1 X98.591 Y173.841 E16.76953
G1 X98.036 Y173.175 E16.79837
G1 X97.546 Y172.461 E16.82717
G1 X97.122 Y171.704 E16.85603
G1 X96.771 Y170.911 E16.88487
G1 X96.494 Y170.09 E16.91369
G1 X96.294 Y169.246 E16.94254
G1 X96.172 Y168.388 E16.97136
G1 X96.13 Y167.5 E17.00093
G1 X96.13 Y67.5 E20.32694
G1 X96.17 Y66.634 E20.35578
G1 X96.29 Y65.775 E20.38463
G1 X96.488 Y64.931 E20.41346
G1 X96.763 Y64.109 E20.44229
G1 X97.113 Y63.316 E20.47112
G1 X97.534 Y62.558 E20.49996
G0 F6000 X97.932 Y62.676
G1 F1200 X98.42 Y61.982 E20.52817
G1 X98.971 Y61.337 E20.55639
G1 X99.581 Y60.747 E20.58462
G1 X100.243 Y60.217 E20.61282
G1 X100.952 Y59.751 E20.64104
G1 X101.702 Y59.355 E20.66925
G1 X102.486 Y59.03 E20.69748
G1 X103.297 Y58.781 E20.72569
G1 X104.128 Y58.61 E20.75391
G1 X104.971 Y58.517 E20.78212
G1 X105.53 Y58.5 E20.80072
G1 X129.47 Y58.5 E21.59697
G1 X130.317 Y58.54 E21.62517
G1 X131.157 Y58.66 E21.65339
G1 X131.982 Y58.858 E21.68161
G1 X132.785 Y59.133 E21.70984
G1 X133.558 Y59.482 E21.73805
G1 X134.294 Y59.902 E21.76624
G1 X134.988 Y60.39 E21.79445
G1 X135.633 Y60.941 E21.82267
G1 X136.223 Y61.551 E21.8509
G1 X136.753 Y62.213 E21.8791
G1 X137.219 Y62.922 E21.90732
G1 X137.615 Y63.672 E21.93553
G1 X137.94 Y64.456 E21.96376
G1 X138.189 Y65.267 E21.99197
G1 X138.36 Y66.098 E22.02019
G1 X138.453 Y66.941 E22.0484
G1 X138.47 Y67.5 E22.067
G1 X138.47 Y167.5 E25.39301
G1 X138.43 Y168.347 E25.42122
G1 X138.31 Y169.187 E25.44944
G1 X138.112 Y170.012 E25.47766
G1 X137.837 Y170.815 E25.50589
G1 X137.488 Y171.588 E25.5341
G1 X137.068 Y172.324 E25.56228
G1 X136.58 Y173.018 E25.5905
G1 X136.029 Y173.663 E25.61871
G1 X135.419 Y174.253 E25.64694
G1 X134.757 Y174.783 E25.67515
G1 X134.048 Y175.249 E25.70337
G1 X133.298 Y175.645 E25.73157
G1 X132.514 Y175.97 E25.7598
G1 X131.703 Y176.219 E25.78802
G1 X130.872 Y176.39 E25.81624
G1 X130.029 Y176.483 E25.84445
G1 X129.47 Y176.5 E25.86305
G1 X105.53 Y176.5 E26.65929
G1 X104.683 Y176.46 E26.6875
G1 X103.843 Y176.34 E26.71572
G1 X103.018 Y176.142 E26.74394
G1 X102.215 Y175.867 E26.77217
G1 X101.442 Y175.518 E26.80038
G1 X100.706 Y175.098 E26.82856
G1 X100.012 Y174.61 E26.85678
G1 X99.367 Y174.059 E26.88499
G1 X98.777 Y173.449 E26.91322
G1 X98.247 Y172.787 E26.94143
G1 X97.781 Y172.078 E26.96965
G1 X97.385 Y171.328 E26.99785
G1 X97.06 Y170.544 E27.02608
G1 X96.811 Y169.733 E27.0543
G1 X96.64 Y168.902 E27.08252
G1 X96.547 Y168.059 E27.11072
G1 X96.53 Y167.5 E27.12933
G1 X96.53 Y67.5 E30.45534
G1 X96.57 Y66.653 E30.48354
G1 X96.69 Y65.813 E30.51176
G1 X96.888 Y64.988 E30.53998
G1 X97.163 Y64.185 E30.56821
G1 X97.512 Y63.412 E30.59642
G1 X97.932 Y62.676 E30.62461
G0 F6000 X98.331 Y62.796
G1 F1200 X98.817 Y62.125 E30.65216
G1 X99.366 Y61.503 E30.67976
G1 X99.972 Y60.937 E30.70734
G1 X100.63 Y60.432 E30.73492
G1 X101.333 Y59.993 E30.76249
G1 X102.076 Y59.624 E30.79008
G1 X102.851 Y59.328 E30.81768
G1 X103.65 Y59.108 E30.84524
G1 X104.467 Y58.966 E30.87282
G1 X105.53 Y58.9 E30.90824
G1 X129.47 Y58.9 E31.70449
G1 X130.298 Y58.94 E31.73206
G1 X131.119 Y59.06 E31.75966
G1 X131.924 Y59.258 E31.78723
G1 X132.706 Y59.532 E31.81479
G1 X133.459 Y59.881 E31.8424
G1 X134.174 Y60.301 E31.86998
G1 X134.845 Y60.787 E31.89753
G1 X135.467 Y61.336 E31.92513
G1 X136.033 Y61.942 E31.95271
G1 X136.538 Y62.6 E31.98029
G1 X136.977 Y63.303 E32.00786
G1 X137.346 Y64.046 E32.03545
G1 X137.642 Y64.821 E32.06305
G1 X137.862 Y65.62 E32.09061
G1 X138.004 Y66.437 E32.11819
G1 X138.07 Y67.5 E32.15361
G1 X138.07 Y167.5 E35.47963
G1 X138.03 Y168.328 E35.5072
G1 X137.91 Y169.149 E35.5348
G1 X137.712 Y169.954 E35.56237
G1 X137.438 Y170.736 E35.58993
G1 X137.089 Y171.489 E35.61753
G1 X136.669 Y172.204 E35.64511
G1 X136.183 Y172.875 E35.67267
G1 X135.634 Y173.497 E35.70026
G1 X135.028 Y174.063 E35.72784
G1 X134.37 Y174.568 E35.75543
G1 X133.667 Y175.007 E35.783
G1 X132.924 Y175.376 E35.81059
G1 X132.149 Y175.672 E35.83818
G1 X131.35 Y175.892 E35.86574
G1 X130.533 Y176.034 E35.89333
G1 X129.47 Y176.1 E35.92875
G1 X105.53 Y176.1 E36.725
G1 X104.702 Y176.06 E36.75257
G1 X103.881 Y175.94 E36.78017
G1 X103.076 Y175.742 E36.80774
G1 X102.294 Y175.468 E36.8353
G1 X101.541 Y175.119 E36.8629
G1 X100.826 Y174.699 E36.89048
G1 X100.155 Y174.213 E36.91804
G1 X99.533 Y173.664 E36.94563
G1 X98.967 Y173.058 E36.97321
G1 X98.462 Y172.4 E37.0008
G1 X98.023 Y171.697 E37.02837
G1 X97.654 Y170.954 E37.05596
G1 X97.358 Y170.179 E37.08355
G1 X97.138 Y169.38 E37.11111
G1 X96.996 Y168.563 E37.1387
G1 X96.93 Y167.5 E37.17412
G1 X96.93 Y67.5 E40.50013
G1 X96.97 Y66.672 E40.5277
G1 X97.09 Y65.851 E40.5553
G1 X97.288 Y65.046 E40.58287
G1 X97.562 Y64.264 E40.61043
G1 X97.911 Y63.511 E40.63804
G1 X98.331 Y62.796 E40.66562
G0 F6000 X98.31 Y63.613
G1 F1200 X98.729 Y62.919 E40.69258
G1 X99.214 Y62.271 E40.7195
G1 X99.76 Y61.674 E40.74641
G1 X100.363 Y61.133 E40.77335
G1 X101.016 Y60.654 E40.80029
G1 X101.713 Y60.243 E40.8272
G1 X102.447 Y59.901 E40.85414
G1 X103.212 Y59.635 E40.88107
G1 X103.999 Y59.444 E40.90801
G1 X104.801 Y59.332 E40.93494
G1 X105.53 Y59.3 E40.95921
G1 X129.47 Y59.3 E41.75546
G1 X130.279 Y59.34 E41.7824
G1 X131.08 Y59.46 E41.80934
G1 X131.865 Y59.657 E41.83626
G1 X132.626 Y59.932 E41.86317
G1 X133.357 Y60.28 E41.8901
G1 X134.051 Y60.699 E41.91706
G1 X134.699 Y61.184 E41.94398
G1 X135.296 Y61.73 E41.97089
G1 X135.837 Y62.333 E41.99784
G1 X136.316 Y62.986 E42.02477
G1 X136.727 Y63.683 E42.05168
G1 X137.069 Y64.417 E42.07862
G1 X137.335 Y65.182 E42.10555
G1 X137.526 Y65.969 E42.13249
G1 X137.638 Y66.771 E42.15942
G1 X137.67 Y67.5 E42.18369
G1 X137.67 Y167.5 E45.50971
G1 X137.63 Y168.309 E45.53665
G1 X137.51 Y169.11 E45.56359
G1 X137.313 Y169.895 E45.59051
G1 X137.038 Y170.656 E45.61742
G1 X136.69 Y171.387 E45.64435
G1 X136.271 Y172.081 E45.67131
G1 X135.786 Y172.729 E45.69823
G1 X135.24 Y173.326 E45.72514
G1 X134.637 Y173.867 E45.75208
G1 X133.984 Y174.346 E45.77902
G1 X133.287 Y174.757 E45.80593
G1 X132.553 Y175.099 E45.83286
G1 X131.788 Y175.365 E45.8598
G1 X131.001 Y175.556 E45.88674
G1 X130.199 Y175.668 E45.91367
G1 X129.47 Y175.7 E45.93794
G1 X105.53 Y175.7 E46.73419
G1 X104.721 Y175.66 E46.76113
G1 X103.92 Y175.54 E46.78807
G1 X103.135 Y175.343 E46.81499
G1 X102.374 Y175.068 E46.8419
G1 X101.643 Y174.72 E46.86883
G1 X100.949 Y174.301 E46.89579
G1 X100.301 Y173.816 E46.92271
G1 X99.704 Y173.27 E46.94962
G1 X99.163 Y172.667 E46.97656
G1 X98.684 Y172.014 E47.0035
G1 X98.273 Y171.317 E47.03041
G1 X97.931 Y170.583 E47.05735
G1 X97.665 Y169.818 E47.08428
G1 X97.474 Y169.031 E47.11122
G1 X97.362 Y168.229 E47.13815
G1 X97.33 Y167.5 E47.16242
G1 X97.33 Y67.5 E50.48844
G1 X97.37 Y66.691 E50.51538
G1 X97.49 Y65.89 E50.54232
G1 X97.687 Y65.105 E50.56923
G1 X97.962 Y64.344 E50.59615
G1 X98.31 Y63.613 E50.62307
G0 F6000 X98.709 Y63.717
G1 F1200 X99.127 Y63.046 E50.64937
G1 X99.61 Y62.422 E50.67561
G1 X100.153 Y61.849 E50.70187
G1 X100.752 Y61.334 E50.72814
G1 X101.4 Y60.883 E50.7544
G1 X102.091 Y60.499 E50.7807
G1 X102.816 Y60.187 E50.80695
G1 X103.569 Y59.95 E50.8332
G1 X104.343 Y59.791 E50.85948
G1 X105.128 Y59.71 E50.88573
G1 X105.53 Y59.7 E50.89911
G1 X129.47 Y59.7 E51.69535
G1 X130.259 Y59.74 E51.72163
G1 X131.039 Y59.859 E51.74787
G1 X131.804 Y60.057 E51.77416
G1 X132.544 Y60.331 E51.8004
G1 X133.253 Y60.679 E51.82667
G1 X133.924 Y61.097 E51.85296
G1 X134.548 Y61.58 E51.87921
G1 X135.121 Y62.123 E51.90547
G1 X135.636 Y62.722 E51.93174
G1 X136.087 Y63.37 E51.958
G1 X136.471 Y64.061 E51.98429
G1 X136.783 Y64.786 E52.01054
G1 X137.02 Y65.539 E52.0368
G1 X137.179 Y66.313 E52.06308
G1 X137.26 Y67.098 E52.08933
G1 X137.27 Y67.5 E52.1027
G1 X137.27 Y167.5 E55.42872
G1 X137.23 Y168.289 E55.45499
G1 X137.111 Y169.069 E55.48123
G1 X136.913 Y169.834 E55.50752
G1 X136.639 Y170.574 E55.53376
G1 X136.291 Y171.283 E55.56003
G1 X135.873 Y171.954 E55.58633
G1 X135.39 Y172.578 E55.61257
G1 X134.847 Y173.151 E55.63883
G1 X134.248 Y173.666 E55.6651
G1 X133.6 Y174.117 E55.69136
G1 X132.909 Y174.501 E55.71765
G1 X132.184 Y174.813 E55.7439
G1 X131.431 Y175.05 E55.77016
G1 X130.657 Y175.209 E55.79644
G1 X129.872 Y175.29 E55.82269
G1 X129.47 Y175.3 E55.83606
G1 X105.53 Y175.3 E56.63231
G1 X104.741 Y175.26 E56.65859
G1 X103.961 Y175.141 E56.68483
G1 X103.196 Y174.943 E56.71111
G1 X102.456 Y174.669 E56.73736
G1 X101.747 Y174.321 E56.76363
G1 X101.076 Y173.903 E56.78992
G1 X100.452 Y173.42 E56.81617
G1 X99.879 Y172.877 E56.84242
G1 X99.364 Y172.278 E56.8687
G1 X98.913 Y171.63 E56.89495
G1 X98.529 Y170.939 E56.92125
G1 X98.217 Y170.214 E56.9475
G1 X97.98 Y169.461 E56.97376
G1 X97.821 Y168.687 E57.00004
G1 X97.74 Y167.902 E57.02628
G1 X97.73 Y167.5 E57.03966
G1 X97.73 Y67.5 E60.36567
G1 X97.77 Y66.711 E60.39195
G1 X97.889 Y65.931 E60.41819
G1 X98.087 Y65.166 E60.44447
G1 X98.361 Y64.426 E60.47072
G1 X98.709 Y63.717 E60.49699
G0 F6000 X99.108 Y63.824
G1 F1200 X99.524 Y63.177 E60.52257
G1 X100.005 Y62.577 E60.54815
G1 X100.546 Y62.03 E60.57374
G1 X101.141 Y61.542 E60.59933
G1 X101.783 Y61.119 E60.6249
G1 X102.466 Y60.764 E60.65051
G1 X103.181 Y60.483 E60.67606
G1 X103.923 Y60.277 E60.70167
G1 X104.681 Y60.149 E60.72724
G1 X105.53 Y60.1 E60.75552
G1 X129.47 Y60.1 E61.55177
G1 X130.238 Y60.14 E61.57735
G1 X130.998 Y60.259 E61.60293
G1 X131.741 Y60.457 E61.62851
G1 X132.46 Y60.731 E61.6541
G1 X133.146 Y61.078 E61.67967
G1 X133.793 Y61.494 E61.70525
G1 X134.393 Y61.975 E61.73083
G1 X134.94 Y62.516 E61.75642
G1 X135.428 Y63.111 E61.78201
G1 X135.851 Y63.753 E61.80758
G1 X136.206 Y64.436 E61.83319
G1 X136.487 Y65.151 E61.85874
G1 X136.693 Y65.893 E61.88435
G1 X136.821 Y66.651 E61.90992
G1 X136.87 Y67.5 E61.9382
G1 X136.87 Y167.5 E65.26422
G1 X136.83 Y168.268 E65.2898
G1 X136.711 Y169.028 E65.31538
G1 X136.513 Y169.771 E65.34096
G1 X136.239 Y170.49 E65.36655
G1 X135.892 Y171.176 E65.39212
G1 X135.476 Y171.823 E65.4177
G1 X134.995 Y172.423 E65.44328
G1 X134.454 Y172.97 E65.46887
G1 X133.859 Y173.458 E65.49446
G1 X133.217 Y173.881 E65.52003
G1 X132.534 Y174.236 E65.54563
G1 X131.819 Y174.517 E65.57119
G1 X131.077 Y174.723 E65.5968
G1 X130.319 Y174.851 E65.62237
G1 X129.47 Y174.9 E65.65065
G1 X105.53 Y174.9 E66.4469
G1 X104.762 Y174.86 E66.47248
G1 X104.002 Y174.741 E66.49806
G1 X103.259 Y174.543 E66.52364
G1 X102.54 Y174.269 E66.54923
G1 X101.854 Y173.922 E66.5748
G1 X101.207 Y173.506 E66.60038
G1 X100.607 Y173.025 E66.62596
G1 X100.06 Y172.484 E66.65155
G1 X99.572 Y171.889 E66.67714
G1 X99.149 Y171.247 E66.70271
G1 X98.794 Y170.564 E66.72832
G1 X98.513 Y169.849 E66.75387
G1 X98.307 Y169.107 E66.77948
G1 X98.179 Y168.349 E66.80505
G1 X98.13 Y167.5 E66.83333
G1 X98.13 Y67.5 E70.15935
G1 X98.17 Y66.732 E70.18492
G1 X98.289 Y65.972 E70.21051
G1 X98.487 Y65.229 E70.23608
G1 X98.761 Y64.51 E70.26168
G1 X99.108 Y63.824 E70.28725
G0 F6000 X99.507 Y63.934
G1 F1200 X99.922 Y63.311 E70.31214
G1 X100.401 Y62.737 E70.33701
G1 X100.938 Y62.216 E70.36189
G1 X101.528 Y61.757 E70.38676
G1 X102.164 Y61.362 E70.41166
G1 X102.838 Y61.038 E70.43653
G1 X103.543 Y60.788 E70.46141
G1 X104.271 Y60.614 E70.48631
G1 X105.013 Y60.519 E70.51119
G1 X105.53 Y60.5 E70.52839
G1 X129.47 Y60.5 E71.32464
G1 X130.217 Y60.54 E71.34952
G1 X130.955 Y60.659 E71.37438
G1 X131.677 Y60.857 E71.39928
G1 X132.373 Y61.13 E71.42415
G1 X133.036 Y61.477 E71.44904
G1 X133.659 Y61.892 E71.47394
G1 X134.233 Y62.371 E71.4988
G1 X134.754 Y62.908 E71.52369
G1 X135.213 Y63.498 E71.54855
G1 X135.608 Y64.134 E71.57345
G1 X135.932 Y64.808 E71.59833
G1 X136.182 Y65.513 E71.6232
