;FLAVOR:Marlin
;TIME:1849
;Filament used: 1.22182m
;Layer height: 0.2
;MINX:17.7
;MINY:47.121
;MINZ:0.2
;MAXX:217.296
;MAXY:64.721
;MAXZ:3
;Generated with Cura_SteamEngine 4.8.0
M140 S63
M105
M190 S63
M104 S205
M105
M109 S205
M82 ;absolute extrusion mode
; Ender 3 Custom Start G-code
G92 E0 ; Reset Extruder
G28 ; Home all axes
G1 Z2.0 F3000 ; Move Z Axis up little to prevent scratching of Heat Bed
G1 X0.1 Y20 Z0.3 F5000.0 ; Move to start position
G1 X0.1 Y200.0 Z0.3 F1500.0 E15 ; Draw the first line
G1 X0.4 Y200.0 Z0.3 F5000.0 ; Move to side a little
G1 X0.4 Y20 Z0.3 F1500.0 E30 ; Draw the second line
G92 E0 ; Reset Extruder
G1 Z2.0 F3000 ; Move Z Axis up little to prevent scratching of Heat Bed
G1 X5 Y20 Z0.3 F5000.0 ; Move over to prevent blob squish
G92 E0
G92 E0
G1 F2700 E-5
;LAYER_COUNT:15
;LAYER:0
M107
G0 F6000 X21.262 Y47.57 Z0.2
;TYPE:SKIRT
G1 F2700 E0
G1 F1200 X21.904 Y47.345 E0.02263
G1 X22.569 Y47.196 E0.04529
G1 X23.5 Y47.121 E0.07636
G1 X203.5 Y47.121 E6.06318
G1 X204.18 Y47.161 E6.08584
G1 X204.85 Y47.28 E6.10847
G1 X205.537 Y47.49 E6.13237
G1 X213.537 Y50.49 E6.41654
G1 X214.159 Y50.766 E6.43917
G1 X214.745 Y51.113 E6.46182
G1 X215.286 Y51.527 E6.48448
G1 X215.775 Y52.001 E6.50713
G1 X216.205 Y52.529 E6.52978
G1 X216.57 Y53.103 E6.55241
G1 X216.865 Y53.717 E6.57506
G1 X217.086 Y54.361 E6.59771
G1 X217.231 Y55.026 E6.62035
G1 X217.296 Y55.704 E6.643
G1 X217.281 Y56.385 E6.66565
G1 X217.187 Y57.059 E6.68829
G1 X217.015 Y57.718 E6.71094
G1 X216.766 Y58.352 E6.7336
G1 X216.445 Y58.952 E6.75623
G1 X216.056 Y59.511 E6.77888
G1 X215.604 Y60.02 E6.80152
G1 X215.095 Y60.472 E6.82416
G1 X214.537 Y60.862 E6.84681
G1 X213.937 Y61.184 E6.86945
G1 X213.537 Y61.352 E6.88388
G1 X205.537 Y64.352 E7.16806
G1 X204.886 Y64.553 E7.19072
G1 X204.216 Y64.677 E7.21338
G1 X203.5 Y64.721 E7.23724
G1 X23.5 Y64.721 E13.22407
G1 X22.82 Y64.681 E13.24672
G1 X22.15 Y64.562 E13.26935
G1 X21.498 Y64.365 E13.29201
G1 X20.874 Y64.093 E13.31465
G1 X20.286 Y63.749 E13.33731
G1 X19.742 Y63.339 E13.35996
G1 X19.251 Y62.868 E13.38259
G1 X18.817 Y62.343 E13.40525
G1 X18.448 Y61.771 E13.42789
G1 X18.149 Y61.159 E13.45054
G1 X17.924 Y60.517 E13.47317
G1 X17.775 Y59.852 E13.49584
G1 X17.7 Y58.921 E13.5269
G1 X17.7 Y52.921 E13.72646
G1 X17.74 Y52.241 E13.74912
G1 X17.859 Y51.571 E13.77175
G1 X18.056 Y50.919 E13.7944
G1 X18.328 Y50.295 E13.81705
G1 X18.672 Y49.707 E13.8397
G1 X19.082 Y49.163 E13.86236
G1 X19.553 Y48.672 E13.88499
G1 X20.078 Y48.238 E13.90765
G1 X20.65 Y47.869 E13.93029
G1 X21.262 Y47.57 E13.95294
G0 F6000 X21.631 Y47.855
G1 F1200 X22.26 Y47.665 E13.97479
G1 X22.907 Y47.554 E13.99663
G1 X23.5 Y47.521 E14.01638
G1 X203.5 Y47.521 E20.00321
G1 X204.156 Y47.561 E20.02507
G1 X204.802 Y47.68 E20.04691
G1 X205.396 Y47.865 E20.06761
G1 X213.396 Y50.865 E20.35178
G1 X213.996 Y51.132 E20.37362
G1 X214.559 Y51.471 E20.39548
G1 X215.077 Y51.875 E20.41733
G1 X215.542 Y52.34 E20.4392
G1 X215.947 Y52.857 E20.46105
G1 X216.286 Y53.42 E20.4829
G1 X216.554 Y54.019 E20.50473
G1 X216.748 Y54.647 E20.52659
G1 X216.863 Y55.294 E20.54845
G1 X216.9 Y55.95 E20.5703
G1 X216.856 Y56.605 E20.59214
G1 X216.734 Y57.251 E20.614
G1 X216.534 Y57.876 E20.63583
G1 X216.259 Y58.473 E20.65769
G1 X215.914 Y59.032 E20.67954
G1 X215.503 Y59.545 E20.7014
G1 X215.034 Y60.004 E20.72323
G1 X214.511 Y60.403 E20.74511
G1 X213.945 Y60.736 E20.76695
G1 X213.396 Y60.977 E20.78689
G1 X205.396 Y63.977 E21.07106
G1 X204.768 Y64.17 E21.09292
G1 X204.121 Y64.285 E21.11477
G1 X203.5 Y64.321 E21.13546
G1 X23.5 Y64.321 E27.12229
G1 X22.844 Y64.281 E27.14414
G1 X22.198 Y64.162 E27.16599
G1 X21.571 Y63.965 E27.18785
G1 X20.973 Y63.693 E27.2097
G1 X20.412 Y63.351 E27.23155
G1 X19.897 Y62.943 E27.25341
G1 X19.435 Y62.476 E27.27526
G1 X19.034 Y61.956 E27.2971
G1 X18.698 Y61.392 E27.31893
G1 X18.434 Y60.79 E27.3408
G1 X18.244 Y60.161 E27.36265
G1 X18.133 Y59.514 E27.38448
G1 X18.1 Y58.921 E27.40424
G1 X18.1 Y52.921 E27.6038
G1 X18.14 Y52.265 E27.62566
G1 X18.259 Y51.619 E27.6475
G1 X18.456 Y50.992 E27.66936
G1 X18.728 Y50.394 E27.69121
G1 X19.07 Y49.833 E27.71307
G1 X19.478 Y49.318 E27.73492
G1 X19.945 Y48.856 E27.75677
G1 X20.465 Y48.455 E27.77861
G1 X21.029 Y48.119 E27.80045
G1 X21.631 Y47.855 E27.82231
G0 F6000 X21.406 Y48.381
G1 F1200 X21.995 Y48.153 E27.84332
G1 X22.609 Y48.001 E27.86435
G1 X23.5 Y47.921 E27.89411
G1 X203.5 Y47.921 E33.88093
G1 X204.131 Y47.961 E33.90196
G1 X204.752 Y48.08 E33.92299
G1 X205.256 Y48.239 E33.94057
G1 X213.256 Y51.239 E34.22474
G1 X213.832 Y51.498 E34.24575
G1 X214.372 Y51.828 E34.2668
G1 X214.865 Y52.223 E34.28781
G1 X215.305 Y52.677 E34.30884
G1 X215.684 Y53.183 E34.32986
G1 X215.996 Y53.733 E34.3509
G1 X216.236 Y54.318 E34.37193
G1 X216.4 Y54.928 E34.39294
G1 X216.487 Y55.554 E34.41396
G1 X216.493 Y56.186 E34.43498
G1 X216.42 Y56.814 E34.45601
G1 X216.268 Y57.428 E34.47704
G1 X216.039 Y58.017 E34.49806
G1 X215.739 Y58.573 E34.51908
G1 X215.37 Y59.087 E34.54012
G1 X214.94 Y59.55 E34.56114
G1 X214.454 Y59.955 E34.58218
G1 X213.922 Y60.295 E34.60318
G1 X213.256 Y60.603 E34.62758
G1 X205.256 Y63.603 E34.91176
G1 X204.651 Y63.787 E34.93279
G1 X204.028 Y63.893 E34.95381
G1 X203.5 Y63.921 E34.97139
G1 X23.5 Y63.921 E40.95822
G1 X22.869 Y63.881 E40.97925
G1 X22.248 Y63.762 E41.00028
G1 X21.648 Y63.565 E41.02128
G1 X21.076 Y63.294 E41.04234
G1 X20.544 Y62.954 E41.06333
G1 X20.059 Y62.548 E41.08437
G1 X19.629 Y62.085 E41.10539
G1 X19.26 Y61.571 E41.12643
G1 X18.96 Y61.015 E41.14745
G1 X18.732 Y60.426 E41.16845
G1 X18.58 Y59.812 E41.18949
G1 X18.5 Y58.921 E41.21924
G1 X18.5 Y52.921 E41.41881
G1 X18.54 Y52.29 E41.43983
G1 X18.659 Y51.669 E41.46087
G1 X18.856 Y51.069 E41.48187
G1 X19.127 Y50.497 E41.50292
G1 X19.467 Y49.965 E41.52392
G1 X19.873 Y49.48 E41.54496
G1 X20.336 Y49.05 E41.56597
G1 X20.85 Y48.681 E41.58702
G1 X21.406 Y48.381 E41.60803
G0 F6000 X21.778 Y48.655
G1 F1200 X22.354 Y48.466 E41.62819
G1 X22.95 Y48.354 E41.64836
G1 X23.5 Y48.321 E41.66669
G1 X203.5 Y48.321 E47.65351
G1 X204.105 Y48.361 E47.67368
G1 X204.699 Y48.48 E47.69383
G1 X205.115 Y48.614 E47.70837
G1 X213.115 Y51.614 E47.99254
G1 X213.668 Y51.864 E48.01273
G1 X214.182 Y52.184 E48.03286
G1 X214.651 Y52.569 E48.05305
G1 X215.064 Y53.013 E48.07321
G1 X215.416 Y53.507 E48.09339
G1 X215.699 Y54.043 E48.11355
G1 X215.91 Y54.611 E48.1337
G1 X216.044 Y55.203 E48.15389
G1 X216.099 Y55.806 E48.17403
G1 X216.074 Y56.412 E48.1942
G1 X215.969 Y57.009 E48.21436
G1 X215.787 Y57.588 E48.23455
G1 X215.531 Y58.137 E48.2547
G1 X215.204 Y58.648 E48.27488
G1 X214.814 Y59.112 E48.29504
G1 X214.365 Y59.52 E48.31521
G1 X213.867 Y59.865 E48.33536
G1 X213.115 Y60.228 E48.36314
G1 X205.115 Y63.228 E48.64731
G1 X204.535 Y63.403 E48.66746
G1 X203.936 Y63.5 E48.68764
G1 X203.5 Y63.521 E48.70216
G1 X23.5 Y63.521 E54.68899
G1 X22.895 Y63.481 E54.70915
G1 X22.301 Y63.362 E54.7293
G1 X21.727 Y63.166 E54.74948
G1 X21.184 Y62.895 E54.76966
G1 X20.681 Y62.556 E54.78983
G1 X20.228 Y62.154 E54.80998
G1 X19.831 Y61.696 E54.83014
G1 X19.498 Y61.189 E54.85031
G1 X19.234 Y60.643 E54.87048
G1 X19.045 Y60.067 E54.89065
G1 X18.933 Y59.471 E54.91082
G1 X18.9 Y58.921 E54.92914
G1 X18.9 Y52.921 E55.1287
G1 X18.94 Y52.316 E55.14887
G1 X19.059 Y51.722 E55.16902
G1 X19.255 Y51.148 E55.18919
G1 X19.526 Y50.605 E55.20938
G1 X19.865 Y50.102 E55.22955
G1 X20.267 Y49.649 E55.2497
G1 X20.725 Y49.252 E55.26986
G1 X21.232 Y48.919 E55.29003
G1 X21.778 Y48.655 E55.3102
G0 F6000 X22.145 Y48.945
G1 F1200 X22.705 Y48.797 E55.32947
G1 X23.5 Y48.721 E55.35603
G1 X203.5 Y48.721 E61.34285
G1 X204.078 Y48.761 E61.36212
G1 X204.645 Y48.88 E61.38139
G1 X204.975 Y48.988 E61.39294
G1 X212.975 Y51.988 E61.67712
G1 X213.502 Y52.229 E61.69639
G1 X213.991 Y52.539 E61.71565
G1 X214.432 Y52.914 E61.7349
G1 X214.818 Y53.346 E61.75417
G1 X215.141 Y53.827 E61.77344
G1 X215.394 Y54.348 E61.7927
G1 X215.574 Y54.899 E61.81198
G1 X215.676 Y55.47 E61.83128
G1 X215.698 Y56.048 E61.85051
G1 X215.641 Y56.625 E61.8698
G1 X215.504 Y57.188 E61.88907
G1 X215.292 Y57.727 E61.90833
G1 X215.007 Y58.231 E61.92759
G1 X214.656 Y58.692 E61.94686
G1 X214.245 Y59.1 E61.96613
G1 X213.781 Y59.447 E61.9854
G1 X213.274 Y59.728 E62.00468
G1 X212.975 Y59.854 E62.01547
G1 X204.975 Y62.854 E62.29964
G1 X204.42 Y63.019 E62.3189
G1 X203.847 Y63.107 E62.33818
G1 X203.5 Y63.121 E62.34973
G1 X23.5 Y63.121 E68.33656
G1 X22.922 Y63.081 E68.35583
G1 X22.355 Y62.962 E68.3751
G1 X21.81 Y62.766 E68.39436
G1 X21.297 Y62.497 E68.41363
G1 X20.826 Y62.16 E68.43289
G1 X20.406 Y61.761 E68.45216
G1 X20.044 Y61.308 E68.47144
G1 X19.749 Y60.81 E68.49069
G1 X19.524 Y60.276 E68.50997
G1 X19.376 Y59.716 E68.52923
G1 X19.3 Y58.921 E68.5558
G1 X19.3 Y52.921 E68.75536
G1 X19.34 Y52.343 E68.77463
G1 X19.459 Y51.776 E68.7939
G1 X19.655 Y51.231 E68.81316
G1 X19.924 Y50.718 E68.83243
G1 X20.261 Y50.247 E68.85169
G1 X20.66 Y49.827 E68.87096
G1 X21.113 Y49.465 E68.89024
G1 X21.611 Y49.17 E68.90949
G1 X22.145 Y48.945 E68.92877
G0 F6000 X21.986 Y49.436
G1 F1200 X22.506 Y49.253 E68.9471
G1 X23.047 Y49.148 E68.96543
G1 X23.5 Y49.121 E68.98052
G1 X203.5 Y49.121 E74.96735
G1 X204.05 Y49.161 E74.98569
G1 X204.834 Y49.363 E75.01262
G1 X212.834 Y52.363 E75.29679
G1 X213.335 Y52.593 E75.31513
G1 X213.797 Y52.894 E75.33347
G1 X214.21 Y53.258 E75.35178
G1 X214.567 Y53.678 E75.37011
G1 X214.859 Y54.145 E75.38843
G1 X215.081 Y54.649 E75.40675
G1 X215.227 Y55.18 E75.42506
G1 X215.295 Y55.727 E75.4434
G1 X215.283 Y56.278 E75.46173
G1 X215.192 Y56.821 E75.48004
G1 X215.023 Y57.346 E75.49838
G1 X214.78 Y57.84 E75.5167
G1 X214.468 Y58.295 E75.53505
G1 X214.093 Y58.699 E75.55338
G1 X213.664 Y59.045 E75.57171
G1 X213.19 Y59.325 E75.59002
G1 X212.834 Y59.479 E75.60292
G1 X204.834 Y62.479 E75.8871
G1 X204.306 Y62.635 E75.90541
G1 X203.5 Y62.721 E75.93237
G1 X23.5 Y62.721 E81.91919
G1 X22.95 Y62.681 E81.93753
G1 X22.412 Y62.562 E81.95586
G1 X21.897 Y62.366 E81.97419
G1 X21.416 Y62.098 E81.9925
G1 X20.978 Y61.764 E82.01082
G1 X20.594 Y61.369 E82.02914
G1 X20.27 Y60.923 E82.04748
G1 X20.015 Y60.435 E82.06579
G1 X19.832 Y59.915 E82.08413
G1 X19.727 Y59.374 E82.10246
G1 X19.7 Y58.921 E82.11755
G1 X19.7 Y52.921 E82.31711
G1 X19.74 Y52.371 E82.33545
G1 X19.859 Y51.833 E82.35378
G1 X20.055 Y51.318 E82.37211
G1 X20.323 Y50.837 E82.39042
G1 X20.657 Y50.399 E82.40874
G1 X21.052 Y50.015 E82.42706
G1 X21.498 Y49.691 E82.4454
G1 X21.986 Y49.436 E82.46371
G0 F6000 X22.355 Y49.719
G1 F1200 X22.858 Y49.582 E82.48105
G1 X23.5 Y49.521 E82.5025
G1 X203.5 Y49.521 E88.48932
G1 X204.02 Y49.561 E88.50667
G1 X204.694 Y49.737 E88.52984
G1 X212.694 Y52.737 E88.81401
G1 X213.166 Y52.957 E88.83134
G1 X213.6 Y53.247 E88.8487
G1 X213.984 Y53.599 E88.86602
G1 X214.309 Y54.006 E88.88335
G1 X214.569 Y54.458 E88.90069
G1 X214.757 Y54.944 E88.91802
G1 X214.868 Y55.453 E88.93535
G1 X214.9 Y55.973 E88.95268
G1 X214.852 Y56.492 E88.97001
G1 X214.725 Y56.998 E88.98736
G1 X214.522 Y57.478 E89.0047
G1 X214.249 Y57.922 E89.02203
G1 X213.911 Y58.318 E89.03935
G1 X213.516 Y58.659 E89.0567
G1 X213.074 Y58.935 E89.07404
G1 X212.694 Y59.105 E89.08788
G1 X204.694 Y62.105 E89.37206
G1 X204.193 Y62.25 E89.3894
G1 X203.5 Y62.321 E89.41257
G1 X23.5 Y62.321 E95.3994
G1 X22.98 Y62.281 E95.41674
G1 X22.473 Y62.162 E95.43407
G1 X21.99 Y61.967 E95.45139
G1 X21.542 Y61.701 E95.46872
G1 X21.14 Y61.369 E95.48606
G1 X20.794 Y60.979 E95.5034
G1 X20.511 Y60.541 E95.52075
G1 X20.298 Y60.066 E95.53806
G1 X20.161 Y59.563 E95.5554
G1 X20.1 Y58.921 E95.57685
G1 X20.1 Y52.921 E95.77641
G1 X20.14 Y52.401 E95.79376
G1 X20.259 Y51.894 E95.81108
G1 X20.454 Y51.411 E95.8284
G1 X20.72 Y50.963 E95.84573
G1 X21.052 Y50.561 E95.86307
G1 X21.442 Y50.215 E95.88041
G1 X21.88 Y49.932 E95.89776
G1 X22.355 Y49.719 E95.91507
G0 F6000 X22.257 Y50.191
G1 F1200 X22.717 Y50.025 E95.93134
G1 X23.198 Y49.936 E95.9476
G1 X23.5 Y49.921 E95.95766
G1 X203.5 Y49.921 E101.94449
G1 X203.988 Y49.961 E101.96077
G1 X204.553 Y50.112 E101.98022
G1 X212.553 Y53.112 E102.2644
G1 X212.996 Y53.321 E102.28069
G1 X213.399 Y53.599 E102.29697
G1 X213.751 Y53.938 E102.31323
G1 X214.044 Y54.331 E102.32953
G1 X214.269 Y54.766 E102.34582
G1 X214.42 Y55.231 E102.36208
G1 X214.493 Y55.715 E102.37836
G1 X214.487 Y56.205 E102.39466
G1 X214.401 Y56.687 E102.41094
G1 X214.238 Y57.148 E102.42721
G1 X214.002 Y57.577 E102.44349
G1 X213.699 Y57.962 E102.45979
G1 X213.338 Y58.292 E102.47606
G1 X212.928 Y58.559 E102.49233
G1 X212.553 Y58.73 E102.50604
G1 X204.553 Y61.73 E102.79021
G1 X204.083 Y61.864 E102.80647
G1 X203.5 Y61.921 E102.82595
G1 X23.5 Y61.921 E108.81277
G1 X23.012 Y61.881 E108.82906
G1 X22.537 Y61.762 E108.84535
G1 X22.088 Y61.568 E108.86161
G1 X21.676 Y61.303 E108.87791
G1 X21.313 Y60.975 E108.89418
G1 X21.008 Y60.592 E108.91046
G1 X20.77 Y60.164 E108.92675
G1 X20.604 Y59.704 E108.94302
G1 X20.515 Y59.223 E108.95929
G1 X20.5 Y58.921 E108.96934
G1 X20.5 Y52.921 E109.16891
G1 X20.54 Y52.433 E109.18519
G1 X20.659 Y51.958 E109.20148
G1 X20.853 Y51.509 E109.21775
G1 X21.118 Y51.097 E109.23404
G1 X21.446 Y50.734 E109.25031
G1 X21.829 Y50.429 E109.2666
G1 X22.257 Y50.191 E109.28288
G0 F6000 X22.627 Y50.472
G1 F1200 X23.068 Y50.357 E109.29804
G1 X23.5 Y50.321 E109.31246
G1 X203.5 Y50.321 E115.29928
G1 X203.954 Y50.361 E115.31444
G1 X204.413 Y50.487 E115.33027
G1 X212.413 Y53.487 E115.61445
G1 X212.824 Y53.683 E115.62959
G1 X213.194 Y53.949 E115.64475
G1 X213.512 Y54.275 E115.6599
G1 X213.769 Y54.651 E115.67504
G1 X213.956 Y55.067 E115.69021
G1 X214.067 Y55.509 E115.70537
G1 X214.1 Y55.963 E115.72051
G1 X214.052 Y56.416 E115.73566
G1 X213.927 Y56.854 E115.75081
G1 X213.726 Y57.264 E115.766
G1 X213.458 Y57.632 E115.78114
G1 X213.129 Y57.947 E115.79629
G1 X212.75 Y58.201 E115.81147
G1 X212.413 Y58.355 E115.82379
G1 X204.413 Y61.355 E116.10796
G1 X203.974 Y61.477 E116.12312
G1 X203.5 Y61.521 E116.13895
G1 X23.5 Y61.521 E122.12578
G1 X23.046 Y61.481 E122.14093
G1 X22.606 Y61.363 E122.15609
G1 X22.194 Y61.169 E122.17123
G1 X21.821 Y60.906 E122.18641
G1 X21.5 Y60.583 E122.20156
G1 X21.241 Y60.208 E122.21672
G1 X21.051 Y59.794 E122.23187
G1 X20.936 Y59.353 E122.24703
G1 X20.9 Y58.921 E122.26144
G1 X20.9 Y52.921 E122.461
G1 X20.94 Y52.467 E122.47616
G1 X21.058 Y52.027 E122.49131
G1 X21.252 Y51.615 E122.50646
G1 X21.515 Y51.242 E122.52164
G1 X21.838 Y50.921 E122.53679
G1 X22.213 Y50.662 E122.55194
G1 X22.627 Y50.472 E122.5671
G0 F6000 X22.59 Y50.918
G1 F1200 X22.987 Y50.782 E122.58105
G1 X23.5 Y50.721 E122.59824
G1 X203.5 Y50.721 E128.58506
G1 X203.917 Y50.761 E128.59899
G1 X204.272 Y50.861 E128.61126
G1 X212.272 Y53.861 E128.89543
G1 X212.649 Y54.045 E128.90939
G1 X212.984 Y54.297 E128.92333
G1 X213.265 Y54.608 E128.93727
G1 X213.482 Y54.966 E128.95119
G1 X213.627 Y55.359 E128.96513
G1 X213.695 Y55.773 E128.97908
G1 X213.683 Y56.192 E128.99302
G1 X213.592 Y56.601 E129.00696
G1 X213.426 Y56.985 E129.02087
G1 X213.189 Y57.331 E129.03482
G1 X212.891 Y57.626 E129.04877
G1 X212.542 Y57.858 E129.06271
G1 X212.272 Y57.981 E129.07258
G1 X204.272 Y60.981 E129.35675
G1 X203.868 Y61.09 E129.37067
G1 X203.5 Y61.121 E129.38295
G1 X23.5 Y61.121 E135.36978
G1 X23.083 Y61.081 E135.38371
G1 X22.681 Y60.963 E135.39764
G1 X22.309 Y60.77 E135.41158
G1 X21.98 Y60.511 E135.42551
G1 X21.706 Y60.194 E135.43944
G1 X21.497 Y59.831 E135.45338
G1 X21.361 Y59.434 E135.46733
G1 X21.3 Y58.921 E135.48452
G1 X21.3 Y52.921 E135.68408
G1 X21.34 Y52.504 E135.69801
G1 X21.458 Y52.102 E135.71194
G1 X21.651 Y51.73 E135.72588
G1 X21.91 Y51.401 E135.73981
G1 X22.227 Y51.127 E135.75375
G1 X22.59 Y50.918 E135.76768
G0 F6000 X22.959 Y51.204
G1 F1200 X23.5 Y51.121 E135.78588
G1 X203.5 Y51.121 E141.77271
G1 X203.877 Y51.161 E141.78532
G1 X204.132 Y51.236 E141.79416
G1 X212.132 Y54.236 E142.07833
G1 X212.471 Y54.405 E142.09093
G1 X212.767 Y54.642 E142.10354
G1 X213.006 Y54.936 E142.11614
G1 X213.179 Y55.273 E142.12874
G1 X213.278 Y55.639 E142.14135
G1 X213.297 Y56.017 E142.15394
G1 X213.237 Y56.391 E142.16654
G1 X213.1 Y56.745 E142.17917
G1 X212.893 Y57.062 E142.19176
G1 X212.623 Y57.328 E142.20436
G1 X212.132 Y57.606 E142.22313
G1 X204.132 Y60.606 E142.50731
G1 X203.765 Y60.701 E142.51991
