;FLAVOR:Marlin
;TIME:2703
;Filament used: 1.59831m
;Layer height: 0.2
;MINX:77.28
;MINY:102.319
;MINZ:0.2
;MAXX:157.718
;MAXY:132.682
;MAXZ:24
;Generated with Cura_SteamEngine 4.8.0
M140 S50
M105
M190 S50
M104 S200
M105
M109 S200
M82 ;absolute extrusion mode
; Ender 3 Custom Start G-code
G92 E0 ; Reset Extruder
G28 ; Home all axes
G1 Z2.0 F3000 ; Move Z Axis up little to prevent scratching of Heat Bed
G1 X0.1 Y20 Z0.3 F5000.0 ; Move to start position
G1 X0.1 Y200.0 Z0.3 F1500.0 E15 ; Draw the first line
G1 X0.4 Y200.0 Z0.3 F5000.0 ; Move to side a little
G1 X0.4 Y20 Z0.3 F1500.0 E30 ; Draw the second line
G92 E0 ; Reset Extruder
G1 Z2.0 F3000 ; Move Z Axis up little to prevent scratching of Heat Bed
G1 X5 Y20 Z0.3 F5000.0 ; Move over to prevent blob squish
G92 E0
G92 E0
G1 F2700 E-5
;LAYER_COUNT:120
;LAYER:0
M107
G0 F6000 X82.978 Y105.653 Z0.2
;TYPE:SKIRT
G1 F2700 E0
G1 F1200 X84.177 Y104.781 E0.04931
G1 X84.717 Y104.422 E0.07088
G1 X84.773 Y104.388 E0.07306
G1 X85.663 Y103.923 E0.10645
G1 X87.034 Y103.316 E0.15632
G1 X87.772 Y103.033 E0.18261
G1 X88.365 Y102.865 E0.20311
G1 X88.654 Y102.798 E0.21298
G1 X90.108 Y102.489 E0.26242
G1 X90.887 Y102.365 E0.28866
G1 X91.734 Y102.319 E0.31687
G1 X93.253 Y102.32 E0.36739
G1 X93.571 Y102.326 E0.37797
G1 X94.358 Y102.393 E0.40424
G1 X94.954 Y102.498 E0.42437
G1 X96.431 Y102.817 E0.47463
G1 X97.079 Y102.986 E0.4969
G1 X98.008 Y103.333 E0.52988
G1 X99.4 Y103.957 E0.58062
G1 X100.103 Y104.317 E0.60689
G1 X100.797 Y104.767 E0.6344
G1 X102.066 Y105.69 E0.68659
G1 X102.68 Y106.186 E0.71284
G1 X103.279 Y106.783 E0.74097
G1 X104.311 Y107.931 E0.79231
G1 X104.808 Y108.545 E0.81859
G1 X105.271 Y109.257 E0.84684
G1 X106.043 Y110.599 E0.89833
G1 X106.402 Y111.302 E0.92458
G1 X106.703 Y112.086 E0.95251
G1 X107.183 Y113.569 E1.00436
G1 X107.388 Y114.332 E1.03064
G1 X107.521 Y115.169 E1.05882
G1 X107.677 Y116.679 E1.10931
G1 X107.718 Y117.468 E1.13559
G1 X107.674 Y118.312 E1.1637
G1 X107.502 Y119.917 E1.21739
G1 X107.378 Y120.697 E1.24366
G1 X107.161 Y121.506 E1.27152
G1 X106.695 Y122.934 E1.32148
G1 X106.412 Y123.671 E1.34774
G1 X106.043 Y124.399 E1.37488
G1 X105.264 Y125.755 E1.4269
G1 X104.837 Y126.419 E1.45315
G1 X104.287 Y127.101 E1.48229
G1 X103.25 Y128.248 E1.53372
G1 X102.691 Y128.806 E1.55999
G1 X102.046 Y129.329 E1.58761
G1 X100.784 Y130.245 E1.63948
G1 X100.122 Y130.676 E1.66575
G1 X99.363 Y131.064 E1.6941
G1 X97.953 Y131.689 E1.7454
G1 X96.976 Y132.046 E1.78
G1 X96.385 Y132.196 E1.80028
G1 X94.941 Y132.502 E1.84937
G1 X94.502 Y132.582 E1.86421
G1 X93.717 Y132.668 E1.89048
G1 X93.246 Y132.682 E1.90615
G1 X91.738 Y132.68 E1.95631
G1 X91.231 Y132.663 E1.97318
G1 X90.446 Y132.576 E1.99945
G1 X90.057 Y132.502 E2.01262
G1 X88.561 Y132.18 E2.06351
G1 X87.798 Y131.975 E2.08979
G1 X87.007 Y131.671 E2.11798
G1 X85.584 Y131.032 E2.16986
G1 X84.881 Y130.672 E2.19613
G1 X84.2 Y130.23 E2.22313
G1 X82.948 Y129.322 E2.27457
G1 X82.113 Y128.623 E2.31079
G1 X81.697 Y128.194 E2.33067
G1 X80.706 Y127.091 E2.37998
G1 X80.095 Y126.318 E2.41276
G1 X79.734 Y125.751 E2.43511
G1 X78.963 Y124.415 E2.48642
G1 X78.604 Y123.712 E2.51267
G1 X78.299 Y122.922 E2.54084
G1 X77.811 Y121.417 E2.59346
G1 X77.606 Y120.654 E2.61974
G1 X77.472 Y119.806 E2.64829
G1 X77.321 Y118.332 E2.69757
G1 X77.28 Y117.537 E2.72405
G1 X77.28 Y117.484 E2.72581
G1 X77.325 Y116.646 E2.75372
G1 X77.491 Y115.11 E2.80511
G1 X77.616 Y114.33 E2.83138
G1 X77.832 Y113.524 E2.85914
G1 X78.316 Y112.044 E2.91093
G1 X78.599 Y111.306 E2.93722
G1 X78.979 Y110.561 E2.96503
G1 X79.751 Y109.227 E3.01629
G1 X80.181 Y108.565 E3.04255
G1 X80.706 Y107.914 E3.07037
G1 X81.738 Y106.768 E3.12166
G1 X82.504 Y106.027 E3.15711
G1 X82.978 Y105.653 E3.17719
G0 F6000 X83.214 Y105.976
G1 F1200 X84.413 Y105.104 E3.2265
G1 X84.925 Y104.764 E3.24694
G1 X84.981 Y104.73 E3.24912
G1 X85.825 Y104.289 E3.28079
G1 X87.196 Y103.682 E3.33066
G1 X87.915 Y103.407 E3.35626
G1 X88.458 Y103.254 E3.37503
G1 X88.737 Y103.19 E3.38455
G1 X90.191 Y102.881 E3.43399
G1 X90.95 Y102.76 E3.45955
G1 X91.734 Y102.719 E3.48566
G1 X93.253 Y102.72 E3.53619
G1 X93.558 Y102.726 E3.54633
G1 X94.324 Y102.792 E3.5719
G1 X94.869 Y102.889 E3.59032
G1 X96.346 Y103.208 E3.64057
G1 X96.963 Y103.369 E3.66178
G1 X97.844 Y103.698 E3.69306
G1 X99.236 Y104.322 E3.7438
G1 X99.921 Y104.673 E3.7694
G1 X100.562 Y105.091 E3.79485
G1 X101.831 Y106.014 E3.84704
G1 X102.428 Y106.498 E3.8726
G1 X102.981 Y107.051 E3.89861
G1 X104.013 Y108.199 E3.94996
G1 X104.497 Y108.797 E3.97555
G1 X104.924 Y109.456 E4.00166
G1 X105.696 Y110.798 E4.05316
G1 X106.045 Y111.484 E4.07876
G1 X106.322 Y112.209 E4.10457
G1 X106.802 Y113.692 E4.15641
G1 X107.001 Y114.435 E4.182
G1 X107.123 Y115.211 E4.20812
G1 X107.279 Y116.721 E4.25861
G1 X107.318 Y117.489 E4.28419
G1 X107.276 Y118.27 E4.3102
G1 X107.104 Y119.875 E4.36389
G1 X106.982 Y120.634 E4.38946
G1 X106.781 Y121.382 E4.41522
G1 X106.315 Y122.81 E4.46518
G1 X106.039 Y123.528 E4.49077
G1 X105.697 Y124.2 E4.51585
G1 X104.918 Y125.556 E4.56786
G1 X104.5 Y126.202 E4.59345
G1 X103.99 Y126.833 E4.62044
G1 X102.953 Y127.98 E4.67187
G1 X102.408 Y128.523 E4.69745
G1 X101.811 Y129.006 E4.72299
G1 X100.549 Y129.922 E4.77486
G1 X99.904 Y130.341 E4.80044
G1 X99.201 Y130.698 E4.82667
G1 X97.791 Y131.323 E4.87796
G1 X96.864 Y131.662 E4.91079
G1 X96.302 Y131.804 E4.93007
G1 X94.858 Y132.11 E4.97917
G1 X94.506 Y132.176 E4.99108
G1 X94.438 Y132.187 E4.99337
G1 X93.673 Y132.27 E5.01896
G1 X93.246 Y132.282 E5.03317
G1 X91.738 Y132.28 E5.08333
G1 X91.255 Y132.264 E5.0994
G1 X90.141 Y132.111 E5.1368
G1 X88.645 Y131.789 E5.1877
G1 X87.902 Y131.589 E5.21329
G1 X87.171 Y131.306 E5.23936
G1 X85.748 Y130.667 E5.29124
G1 X85.063 Y130.315 E5.31686
G1 X84.434 Y129.906 E5.34181
G1 X83.182 Y128.998 E5.39325
G1 X82.39 Y128.335 E5.42761
G1 X81.994 Y127.927 E5.44652
G1 X81.003 Y126.824 E5.49583
G1 X80.424 Y126.09 E5.52693
G1 X80.081 Y125.551 E5.54818
G1 X79.31 Y124.215 E5.59948
G1 X78.96 Y123.53 E5.62507
G1 X78.68 Y122.798 E5.65113
G1 X78.192 Y121.293 E5.70376
G1 X77.993 Y120.55 E5.72934
G1 X77.87 Y119.765 E5.75577
G1 X77.719 Y118.291 E5.80505
G1 X77.68 Y117.537 E5.83016
G1 X77.68 Y117.484 E5.83192
G1 X77.723 Y116.689 E5.8584
G1 X77.889 Y115.153 E5.90979
G1 X78.011 Y114.394 E5.93536
G1 X78.213 Y113.648 E5.96106
G1 X78.697 Y112.168 E6.01285
G1 X78.973 Y111.45 E6.03844
G1 X79.325 Y110.761 E6.06417
G1 X80.097 Y109.427 E6.11543
G1 X80.517 Y108.783 E6.14101
G1 X81.003 Y108.182 E6.16671
G1 X82.035 Y107.036 E6.21801
G1 X82.762 Y106.332 E6.25167
G1 X83.214 Y105.976 E6.2708
G0 F6000 X83.449 Y106.3
G1 F1200 X84.648 Y105.428 E6.32011
G1 X85.132 Y105.105 E6.33947
G1 X85.188 Y105.071 E6.34165
G1 X85.987 Y104.654 E6.37162
G1 X87.358 Y104.047 E6.42149
G1 X88.057 Y103.781 E6.44637
G1 X88.552 Y103.643 E6.46346
G1 X88.82 Y103.581 E6.47261
G1 X90.274 Y103.272 E6.52205
G1 X91.013 Y103.156 E6.54693
G1 X91.734 Y103.119 E6.57094
G1 X93.253 Y103.12 E6.62146
G1 X93.544 Y103.126 E6.63114
G1 X94.289 Y103.191 E6.65602
G1 X94.785 Y103.28 E6.67278
G1 X96.262 Y103.599 E6.72303
G1 X96.847 Y103.752 E6.74315
G1 X97.68 Y104.063 E6.77272
G1 X99.072 Y104.687 E6.82346
G1 X99.738 Y105.029 E6.84836
G1 X100.326 Y105.414 E6.87173
G1 X101.595 Y106.337 E6.92392
G1 X102.176 Y106.809 E6.94882
G1 X102.684 Y107.318 E6.97274
G1 X103.716 Y108.466 E7.02408
G1 X104.185 Y109.049 E7.04897
G1 X104.578 Y109.656 E7.07302
G1 X105.35 Y110.998 E7.12451
G1 X105.687 Y111.665 E7.14937
G1 X105.942 Y112.332 E7.17312
G1 X106.422 Y113.815 E7.22496
G1 X106.614 Y114.538 E7.24984
G1 X106.725 Y115.252 E7.27388
G1 X106.881 Y116.762 E7.32437
G1 X106.918 Y117.509 E7.34924
G1 X106.878 Y118.227 E7.37316
G1 X106.706 Y119.832 E7.42685
G1 X106.587 Y120.57 E7.45171
G1 X106.401 Y121.258 E7.47542
G1 X105.935 Y122.686 E7.52538
G1 X105.665 Y123.383 E7.55024
G1 X105.35 Y124.001 E7.57331
G1 X104.571 Y125.357 E7.62532
G1 X104.164 Y125.985 E7.65021
G1 X103.693 Y126.564 E7.67504
G1 X102.656 Y127.711 E7.72647
G1 X102.126 Y128.239 E7.75135
G1 X101.576 Y128.682 E7.77484
G1 X100.314 Y129.598 E7.8267
G1 X99.686 Y130.004 E7.85158
G1 X99.039 Y130.332 E7.8757
G1 X97.629 Y130.957 E7.927
G1 X96.752 Y131.278 E7.95806
G1 X96.219 Y131.413 E7.97635
G1 X94.775 Y131.719 E8.02544
G1 X94.374 Y131.792 E8.039
G1 X93.63 Y131.872 E8.06389
G1 X93.247 Y131.882 E8.07663
G1 X91.739 Y131.88 E8.12679
G1 X91.279 Y131.864 E8.1421
G1 X90.225 Y131.72 E8.17748
G1 X88.729 Y131.398 E8.22837
G1 X88.007 Y131.202 E8.25326
G1 X87.334 Y130.941 E8.27727
G1 X85.911 Y130.302 E8.32915
G1 X85.246 Y129.959 E8.35403
G1 X84.669 Y129.583 E8.37694
G1 X83.417 Y128.675 E8.42838
G1 X82.668 Y128.047 E8.46089
G1 X82.292 Y127.659 E8.47886
G1 X81.301 Y126.556 E8.52818
G1 X80.753 Y125.862 E8.55759
G1 X80.427 Y125.351 E8.57775
G1 X79.656 Y124.015 E8.62905
G1 X79.317 Y123.348 E8.65394
G1 X79.06 Y122.675 E8.6779
G1 X78.572 Y121.17 E8.73052
G1 X78.38 Y120.447 E8.7554
G1 X78.267 Y119.724 E8.77974
G1 X78.116 Y118.25 E8.82902
G1 X78.08 Y117.537 E8.85277
G1 X78.08 Y117.484 E8.85453
G1 X78.121 Y116.732 E8.87958
G1 X78.287 Y115.196 E8.93097
G1 X78.407 Y114.457 E8.95587
G1 X78.593 Y113.772 E8.97947
G1 X79.077 Y112.292 E9.03127
G1 X79.347 Y111.595 E9.05613
G1 X79.671 Y110.962 E9.07978
G1 X80.443 Y109.628 E9.13104
G1 X80.852 Y109.001 E9.15594
G1 X81.3 Y108.45 E9.17956
G1 X82.332 Y107.304 E9.23085
G1 X83.02 Y106.638 E9.2627
G1 X83.449 Y106.3 E9.28087
G0 F6000 X83.684 Y106.623
G1 F1200 X84.883 Y105.751 E9.33018
G1 X85.34 Y105.447 E9.34843
G1 X85.396 Y105.413 E9.35061
G1 X86.149 Y105.02 E9.37886
G1 X87.52 Y104.413 E9.42873
G1 X88.199 Y104.156 E9.45288
G1 X88.646 Y104.032 E9.46831
G1 X88.903 Y103.972 E9.47708
G1 X90.357 Y103.663 E9.52652
G1 X91.075 Y103.552 E9.55069
G1 X91.733 Y103.519 E9.5726
G1 X93.252 Y103.52 E9.62312
G1 X93.531 Y103.526 E9.6324
G1 X94.254 Y103.59 E9.65655
G1 X94.7 Y103.671 E9.67162
G1 X96.177 Y103.99 E9.72188
G1 X96.731 Y104.135 E9.74093
G1 X97.517 Y104.428 E9.76883
G1 X98.909 Y105.052 E9.81956
G1 X99.554 Y105.386 E9.84372
G1 X100.091 Y105.738 E9.86508
G1 X101.36 Y106.661 E9.91727
G1 X101.923 Y107.119 E9.94141
G1 X102.386 Y107.586 E9.96328
G1 X103.418 Y108.734 E10.01462
G1 X103.873 Y109.3 E10.03878
G1 X104.231 Y109.855 E10.06074
G1 X105.003 Y111.197 E10.11224
G1 X105.33 Y111.846 E10.13641
G1 X105.561 Y112.456 E10.1581
G1 X106.041 Y113.939 E10.20995
G1 X106.227 Y114.641 E10.2341
G1 X106.327 Y115.293 E10.25604
G1 X106.483 Y116.803 E10.30653
G1 X106.518 Y117.528 E10.33067
G1 X106.48 Y118.184 E10.35253
G1 X106.308 Y119.789 E10.40622
G1 X106.191 Y120.506 E10.43038
G1 X106.02 Y121.134 E10.45203
G1 X105.554 Y122.562 E10.50199
G1 X105.291 Y123.239 E10.52614
G1 X105.003 Y123.802 E10.54718
G1 X104.224 Y125.158 E10.59919
G1 X103.828 Y125.767 E10.62335
G1 X103.397 Y126.296 E10.64605
G1 X102.36 Y127.443 E10.69748
G1 X101.844 Y127.954 E10.72163
G1 X101.341 Y128.358 E10.74309
G1 X100.079 Y129.274 E10.79495
G1 X99.468 Y129.668 E10.81913
G1 X98.877 Y129.967 E10.84116
G1 X97.467 Y130.592 E10.89246
G1 X96.64 Y130.894 E10.92174
G1 X96.136 Y131.022 E10.93904
G1 X94.692 Y131.328 E10.98813
G1 X94.31 Y131.397 E11.00104
G1 X93.247 Y131.482 E11.03651
G1 X91.739 Y131.48 E11.08667
G1 X91.303 Y131.465 E11.10118
G1 X90.309 Y131.329 E11.13455
G1 X88.813 Y131.007 E11.18544
G1 X88.113 Y130.816 E11.20958
G1 X87.498 Y130.576 E11.23153
G1 X86.075 Y129.937 E11.28342
G1 X85.43 Y129.603 E11.30757
G1 X84.904 Y129.259 E11.32848
G1 X83.652 Y128.351 E11.37992
G1 X82.946 Y127.759 E11.41056
G1 X82.589 Y127.392 E11.42759
G1 X81.598 Y126.289 E11.47691
G1 X81.082 Y125.635 E11.50462
G1 X80.774 Y125.151 E11.5237
G1 X80.003 Y123.815 E11.575
G1 X79.675 Y123.167 E11.59916
G1 X79.441 Y122.552 E11.62104
G1 X78.953 Y121.047 E11.67367
G1 X78.767 Y120.344 E11.69785
G1 X78.665 Y119.684 E11.72007
G1 X78.514 Y118.21 E11.76935
G1 X78.48 Y117.537 E11.79176
G1 X78.48 Y117.484 E11.79352
G1 X78.518 Y116.775 E11.81714
G1 X78.684 Y115.239 E11.86852
G1 X78.802 Y114.522 E11.89269
G1 X78.973 Y113.897 E11.91424
G1 X79.457 Y112.417 E11.96603
G1 X79.72 Y111.74 E11.99019
G1 X80.018 Y111.162 E12.01182
G1 X80.79 Y109.828 E12.06308
G1 X81.187 Y109.22 E12.08723
G1 X81.598 Y108.717 E12.10884
G1 X82.63 Y107.571 E12.16013
G1 X83.278 Y106.944 E12.19012
G1 X83.684 Y106.623 E12.20734
G0 F6000 X83.919 Y106.947
G1 F1200 X85.118 Y106.075 E12.25665
G1 X85.547 Y105.789 E12.2738
G1 X85.603 Y105.755 E12.27597
G1 X86.311 Y105.386 E12.30253
G1 X87.682 Y104.779 E12.3524
G1 X88.341 Y104.531 E12.37582
G1 X88.74 Y104.421 E12.38958
G1 X88.986 Y104.363 E12.39799
G1 X90.44 Y104.054 E12.44743
G1 X91.136 Y103.947 E12.47085
G1 X91.733 Y103.919 E12.49073
G1 X93.252 Y103.92 E12.54125
G1 X93.517 Y103.926 E12.55007
G1 X94.218 Y103.989 E12.57348
G1 X94.616 Y104.062 E12.58693
G1 X96.093 Y104.381 E12.63719
G1 X96.615 Y104.517 E12.65513
G1 X97.353 Y104.793 E12.68134
G1 X98.745 Y105.417 E12.73208
G1 X99.37 Y105.741 E12.75549
G1 X99.856 Y106.061 E12.77485
G1 X101.125 Y106.984 E12.82704
G1 X101.67 Y107.43 E12.85046
G1 X102.089 Y107.853 E12.87026
G1 X103.121 Y109.001 E12.9216
G1 X103.561 Y109.551 E12.94503
G1 X103.884 Y110.054 E12.96491
G1 X104.656 Y111.396 E13.01641
G1 X104.972 Y112.026 E13.03985
G1 X105.181 Y112.579 E13.05951
G1 X105.661 Y114.062 E13.11136
G1 X105.839 Y114.743 E13.13477
G1 X105.929 Y115.334 E13.15465
G1 X106.085 Y116.844 E13.20514
G1 X106.118 Y117.547 E13.22855
G1 X106.083 Y118.142 E13.24837
G1 X105.911 Y119.747 E13.30206
G1 X105.796 Y120.441 E13.32546
G1 X105.64 Y121.009 E13.34505
G1 X105.174 Y122.437 E13.39501
G1 X104.918 Y123.093 E13.41843
G1 X104.656 Y123.602 E13.43747
G1 X103.877 Y124.958 E13.48948
G1 X103.492 Y125.548 E13.51292
G1 X103.1 Y126.028 E13.53353
G1 X102.063 Y127.175 E13.58496
G1 X101.562 Y127.67 E13.60838
G1 X101.106 Y128.035 E13.62781
G1 X99.844 Y128.951 E13.67968
G1 X99.252 Y129.331 E13.70307
G1 X98.714 Y129.601 E13.72309
G1 X97.304 Y130.226 E13.77439
G1 X96.528 Y130.51 E13.80188
G1 X96.053 Y130.63 E13.81817
G1 X94.609 Y130.936 E13.86726
G1 X94.246 Y131.002 E13.87954
G1 X93.248 Y131.082 E13.91284
G1 X91.74 Y131.08 E13.96299
G1 X91.327 Y131.066 E13.97674
G1 X90.393 Y130.938 E14.00809
G1 X88.897 Y130.616 E14.05899
G1 X88.219 Y130.429 E14.08238
G1 X87.662 Y130.211 E14.10227
G1 X86.239 Y129.572 E14.15416
G1 X85.614 Y129.248 E14.17757
G1 X85.139 Y128.935 E14.19649
G1 X83.887 Y128.027 E14.24793
G1 X83.223 Y127.471 E14.27674
G1 X82.887 Y127.125 E14.29278
G1 X81.896 Y126.022 E14.3421
G1 X81.41 Y125.407 E14.36817
G1 X81.12 Y124.951 E14.38614
G1 X80.349 Y123.615 E14.43745
G1 X80.032 Y122.986 E14.46087
G1 X79.821 Y122.428 E14.48071
G1 X79.333 Y120.923 E14.53334
G1 X79.155 Y120.242 E14.55675
G1 X79.063 Y119.643 E14.5769
G1 X78.912 Y118.169 E14.62619
G1 X78.88 Y117.537 E14.64723
G1 X78.88 Y117.484 E14.649
G1 X78.916 Y116.818 E14.67118
G1 X79.082 Y115.282 E14.72256
G1 X79.197 Y114.587 E14.74599
G1 X79.353 Y114.021 E14.76552
G1 X79.837 Y112.541 E14.81731
G1 X80.094 Y111.885 E14.84075
G1 X80.364 Y111.363 E14.86029
G1 X81.136 Y110.029 E14.91156
G1 X81.522 Y109.44 E14.93498
G1 X81.895 Y108.985 E14.95455
G1 X82.927 Y107.839 E15.00584
G1 X83.536 Y107.249 E15.03404
G1 X83.919 Y106.947 E15.05026
G0 F6000 X84.155 Y107.27
G1 F1200 X85.354 Y106.398 E15.09957
G1 X85.755 Y106.131 E15.1156
G1 X85.811 Y106.097 E15.11778
G1 X86.473 Y105.752 E15.14261
G1 X87.844 Y105.145 E15.19247
G1 X88.482 Y104.906 E15.21513
G1 X88.833 Y104.809 E15.22725
G1 X89.069 Y104.755 E15.2353
G1 X90.523 Y104.446 E15.28474
G1 X91.196 Y104.343 E15.30738
G1 X91.733 Y104.319 E15.32526
G1 X93.252 Y104.32 E15.37578
G1 X93.503 Y104.325 E15.38413
G1 X94.181 Y104.388 E15.40678
G1 X94.531 Y104.453 E15.41862
G1 X96.008 Y104.772 E15.46888
G1 X96.499 Y104.9 E15.48576
G1 X97.19 Y105.158 E15.51029
G1 X98.582 Y105.782 E15.56103
G1 X99.185 Y106.097 E15.58365
G1 X99.621 Y106.384 E15.60101
G1 X100.89 Y107.307 E15.65321
G1 X101.416 Y107.74 E15.67587
G1 X101.791 Y108.12 E15.69362
G1 X102.823 Y109.268 E15.74496
G1 X103.248 Y109.801 E15.76764
G1 X103.537 Y110.254 E15.78551
G1 X104.309 Y111.596 E15.837
G1 X104.614 Y112.205 E15.85966
G1 X104.8 Y112.702 E15.87731
G1 X105.28 Y114.185 E15.92915
G1 X105.451 Y114.844 E15.9518
G1 X105.531 Y115.375 E15.96966
G1 X105.687 Y116.885 E16.02015
