;FLAVOR:Marlin
;TIME:4518
;Filament used: 2.08161m
;Layer height: 0.2
;MINX:85.952
;MINY:85.955
;MINZ:0.2
;MAXX:149.046
;MAXY:149.046
;MAXZ:5.2
;Generated with Cura_SteamEngine 4.8.0
M140 S63
M105
M190 S63
M104 S205
M105
M109 S205
M82 ;absolute extrusion mode
; Ender 3 Custom Start G-code
G92 E0 ; Reset Extruder
G28 ; Home all axes
G1 Z2.0 F3000 ; Move Z Axis up little to prevent scratching of Heat Bed
G1 X0.1 Y20 Z0.3 F5000.0 ; Move to start position
G1 X0.1 Y200.0 Z0.3 F1500.0 E15 ; Draw the first line
G1 X0.4 Y200.0 Z0.3 F5000.0 ; Move to side a little
G1 X0.4 Y20 Z0.3 F1500.0 E30 ; Draw the second line
G92 E0 ; Reset Extruder
G1 Z2.0 F3000 ; Move Z Axis up little to prevent scratching of Heat Bed
G1 X5 Y20 Z0.3 F5000.0 ; Move over to prevent blob squish
G92 E0
G92 E0
G1 F2700 E-5
;LAYER_COUNT:25
;LAYER:0
M107
G1 F300 Z0.4
G0 F6000 X94.689 Y95.709 Z0.4
;TYPE:SKIRT
G1 F300 Z0.2
G1 F2700 E0
G1 F1200 X95.726 Y94.672 E0.04878
G1 X96.089 Y94.331 E0.06534
G1 X97.229 Y93.328 E0.11585
G1 X97.605 Y93.017 E0.13207
G1 X98.718 Y92.155 E0.1789
G1 X98.935 Y91.993 E0.1879
G1 X99.231 Y91.784 E0.19996
G1 X100.408 Y90.985 E0.24727
G1 X100.818 Y90.724 E0.26344
G1 X102.086 Y89.974 E0.31244
G1 X102.524 Y89.734 E0.32905
G1 X103.876 Y89.047 E0.37949
G1 X104.313 Y88.842 E0.39554
G1 X105.661 Y88.259 E0.44439
G1 X106.122 Y88.076 E0.46089
G1 X107.546 Y87.565 E0.51121
G1 X108.008 Y87.416 E0.52735
G1 X109.428 Y87.004 E0.57653
G1 X109.899 Y86.883 E0.5927
G1 X111.348 Y86.559 E0.64209
G1 X111.835 Y86.466 E0.65858
G1 X113.338 Y86.229 E0.70919
G1 X113.823 Y86.168 E0.72544
G1 X115.28 Y86.031 E0.77412
G1 X115.774 Y86.001 E0.79058
G1 X117.294 Y85.955 E0.84116
G1 X117.776 Y85.955 E0.85719
G1 X119.236 Y86.001 E0.90577
G1 X119.721 Y86.031 E0.92193
G1 X121.177 Y86.168 E0.97057
G1 X121.537 Y86.21 E0.98263
G1 X121.737 Y86.239 E0.98935
G1 X123.173 Y86.467 E1.03771
G1 X123.65 Y86.558 E1.05386
G1 X125.092 Y86.88 E1.103
G1 X125.561 Y87.001 E1.11911
G1 X126.946 Y87.402 E1.16707
G1 X127.3 Y87.513 E1.17941
G1 X127.657 Y87.637 E1.19198
G1 X128.902 Y88.086 E1.236
G1 X129.355 Y88.265 E1.2522
G1 X130.711 Y88.852 E1.30135
G1 X131.158 Y89.062 E1.31777
G1 X132.51 Y89.752 E1.36826
G1 X132.938 Y89.988 E1.38451
G1 X134.208 Y90.74 E1.4336
G1 X134.621 Y91.003 E1.44989
G1 X135.847 Y91.837 E1.49921
G1 X136.245 Y92.126 E1.51556
G1 X137.446 Y93.059 E1.56615
G1 X137.824 Y93.373 E1.58249
G1 X138.937 Y94.356 E1.63188
G1 X139.292 Y94.689 E1.64807
G1 X140.338 Y95.736 E1.69729
G1 X140.672 Y96.092 E1.71353
G1 X141.651 Y97.203 E1.76278
G1 X141.965 Y97.583 E1.77918
G1 X142.886 Y98.772 E1.8292
G1 X143.17 Y99.163 E1.84527
G1 X144.003 Y100.388 E1.89454
G1 X144.271 Y100.811 E1.9112
G1 X145.042 Y102.118 E1.96167
G1 X145.276 Y102.544 E1.97784
G1 X145.945 Y103.859 E2.02691
G1 X146.151 Y104.298 E2.04304
G1 X146.74 Y105.659 E2.09236
G1 X146.922 Y106.118 E2.10878
G1 X147.431 Y107.534 E2.15883
G1 X147.584 Y108.007 E2.17536
G1 X148.002 Y109.453 E2.22543
G1 X148.121 Y109.916 E2.24133
G1 X148.441 Y111.346 E2.29007
G1 X148.534 Y111.835 E2.30662
G1 X148.77 Y113.333 E2.35706
G1 X148.831 Y113.823 E2.37348
G1 X148.969 Y115.303 E2.42292
G1 X148.999 Y115.778 E2.43875
G1 X149.046 Y117.25 E2.48774
G1 X149.046 Y117.745 E2.5042
G1 X148.999 Y119.236 E2.55382
G1 X148.969 Y119.719 E2.56991
G1 X148.829 Y121.21 E2.61972
G1 X148.766 Y121.708 E2.63642
G1 X148.532 Y123.177 E2.68589
G1 X148.441 Y123.653 E2.70201
G1 X148.115 Y125.11 E2.75167
G1 X147.993 Y125.583 E2.76791
G1 X147.575 Y127.022 E2.81775
G1 X147.424 Y127.488 E2.83405
G1 X146.921 Y128.885 E2.88343
G1 X146.741 Y129.34 E2.89971
G1 X146.144 Y130.72 E2.94972
G1 X145.935 Y131.164 E2.96604
G1 X145.262 Y132.485 E3.01535
G1 X145.022 Y132.921 E3.0319
G1 X144.255 Y134.215 E3.08193
G1 X143.995 Y134.624 E3.09805
G1 X143.16 Y135.852 E3.14744
G1 X142.871 Y136.25 E3.1638
G1 X141.95 Y137.436 E3.21375
G1 X141.639 Y137.811 E3.22995
G1 X140.661 Y138.92 E3.27913
G1 X140.326 Y139.276 E3.29539
G1 X139.274 Y140.328 E3.34487
G1 X138.91 Y140.671 E3.36151
G1 X137.775 Y141.669 E3.41177
G1 X137.404 Y141.975 E3.42777
G1 X136.241 Y142.877 E3.47672
G1 X135.842 Y143.166 E3.49311
G1 X134.593 Y144.014 E3.54332
G1 X134.185 Y144.274 E3.55941
G1 X132.916 Y145.025 E3.60845
G1 X132.479 Y145.264 E3.62502
G1 X131.142 Y145.944 E3.67491
G1 X130.705 Y146.15 E3.69098
G1 X129.342 Y146.74 E3.74038
G1 X128.886 Y146.921 E3.7567
G1 X127.481 Y147.427 E3.80636
G1 X127.011 Y147.579 E3.82279
G1 X125.58 Y147.994 E3.87235
G1 X125.108 Y148.115 E3.88856
G1 X123.734 Y148.422 E3.93538
G1 X123.385 Y148.493 E3.94723
G1 X123.105 Y148.543 E3.95669
G1 X121.684 Y148.768 E4.00454
G1 X121.187 Y148.83 E4.0212
G1 X119.683 Y148.97 E4.07144
G1 X119.206 Y149 E4.08733
G1 X117.746 Y149.046 E4.13592
G1 X117.254 Y149.046 E4.15228
G1 X115.764 Y148.999 E4.20186
G1 X115.279 Y148.969 E4.21803
G1 X113.812 Y148.831 E4.26703
G1 X113.325 Y148.769 E4.28336
G1 X111.832 Y148.533 E4.33364
G1 X111.343 Y148.44 E4.35019
G1 X109.863 Y148.108 E4.40064
G1 X109.394 Y147.987 E4.41675
G1 X107.986 Y147.578 E4.46552
G1 X107.519 Y147.427 E4.48184
G1 X106.114 Y146.921 E4.53151
G1 X105.661 Y146.741 E4.54772
G1 X104.285 Y146.146 E4.59758
G1 X103.835 Y145.934 E4.61413
G1 X102.493 Y145.249 E4.66424
G1 X102.062 Y145.012 E4.6806
G1 X100.785 Y144.255 E4.72998
G1 X100.37 Y143.991 E4.74634
G1 X99.127 Y143.144 E4.79636
G1 X98.736 Y142.859 E4.81246
G1 X97.565 Y141.95 E4.86176
G1 X97.19 Y141.64 E4.87794
G1 X96.083 Y140.664 E4.92703
G1 X95.726 Y140.328 E4.94334
G1 X94.671 Y139.273 E4.99296
G1 X94.334 Y138.915 E5.00931
G1 X93.348 Y137.796 E5.05892
G1 X93.035 Y137.418 E5.07524
G1 X92.121 Y136.239 E5.12486
G1 X91.836 Y135.846 E5.141
G1 X90.997 Y134.612 E5.19064
G1 X90.73 Y134.191 E5.20722
G1 X89.956 Y132.88 E5.25785
G1 X89.721 Y132.452 E5.27409
G1 X89.058 Y131.149 E5.32272
G1 X88.848 Y130.701 E5.33917
G1 X88.249 Y129.312 E5.38949
G1 X88.073 Y128.867 E5.4054
G1 X87.574 Y127.482 E5.45437
G1 X87.419 Y127.004 E5.47108
G1 X86.999 Y125.551 E5.52138
G1 X86.88 Y125.085 E5.53738
G1 X86.557 Y123.639 E5.58666
G1 X86.464 Y123.152 E5.60315
G1 X86.231 Y121.672 E5.65298
G1 X86.17 Y121.189 E5.66917
G1 X86.031 Y119.71 E5.71858
G1 X86.001 Y119.227 E5.73468
G1 X85.956 Y117.804 E5.78203
G1 X85.952 Y117.435 E5.7943
G1 X85.956 Y117.189 E5.80249
G1 X86.001 Y115.764 E5.84991
G1 X86.031 Y115.279 E5.86607
G1 X86.171 Y113.792 E5.91575
G1 X86.234 Y113.299 E5.93228
G1 X86.468 Y111.826 E5.98188
G1 X86.559 Y111.347 E5.9981
G1 X86.885 Y109.89 E6.04776
G1 X87.006 Y109.419 E6.06393
G1 X87.425 Y107.975 E6.11394
G1 X87.579 Y107.503 E6.13045
G1 X88.081 Y106.111 E6.17967
G1 X88.259 Y105.66 E6.1958
G1 X88.852 Y104.289 E6.24548
G1 X89.06 Y103.848 E6.2617
G1 X89.736 Y102.52 E6.31126
G1 X89.975 Y102.085 E6.32777
G1 X90.735 Y100.801 E6.37739
G1 X90.997 Y100.388 E6.39366
G1 X91.836 Y99.154 E6.44329
G1 X92.125 Y98.757 E6.45962
G1 X93.052 Y97.563 E6.5099
G1 X93.367 Y97.182 E6.52634
G1 X94.358 Y96.06 E6.57613
G1 X94.689 Y95.709 E6.59218
G0 F6000 X94.971 Y95.991
G1 F1200 X96.008 Y94.954 E6.64096
G1 X96.353 Y94.631 E6.65668
G1 X97.493 Y93.628 E6.70718
G1 X97.85 Y93.333 E6.72258
G1 X98.963 Y92.471 E6.7694
G1 X99.287 Y92.233 E6.78278
G1 X99.456 Y92.114 E6.78965
G1 X100.633 Y91.315 E6.83697
G1 X101.022 Y91.069 E6.85227
G1 X102.29 Y90.319 E6.90127
G1 X102.705 Y90.091 E6.91702
G1 X104.057 Y89.404 E6.96746
G1 X104.472 Y89.209 E6.98271
G1 X105.82 Y88.626 E7.03156
G1 X106.258 Y88.453 E7.04722
G1 X107.682 Y87.942 E7.09754
G1 X108.119 Y87.8 E7.11283
G1 X109.539 Y87.388 E7.162
G1 X109.986 Y87.273 E7.17735
G1 X111.435 Y86.949 E7.22674
G1 X111.897 Y86.861 E7.24238
G1 X113.4 Y86.624 E7.29299
G1 X113.86 Y86.566 E7.30841
G1 X115.317 Y86.429 E7.35708
G1 X115.786 Y86.4 E7.37271
G1 X117.306 Y86.354 E7.42329
G1 X117.763 Y86.355 E7.43849
G1 X119.223 Y86.401 E7.48707
G1 X119.683 Y86.43 E7.5024
G1 X121.139 Y86.567 E7.55105
G1 X121.485 Y86.607 E7.56263
G1 X121.674 Y86.635 E7.56898
G1 X123.11 Y86.863 E7.61734
G1 X123.563 Y86.949 E7.63268
G1 X125.005 Y87.271 E7.68182
G1 X125.45 Y87.385 E7.6971
G1 X126.835 Y87.786 E7.74506
G1 X127.171 Y87.892 E7.75678
G1 X127.521 Y88.013 E7.76909
G1 X128.766 Y88.462 E7.81311
G1 X129.196 Y88.632 E7.82849
G1 X130.552 Y89.219 E7.87764
G1 X130.976 Y89.419 E7.89323
G1 X132.328 Y90.109 E7.94372
G1 X132.734 Y90.333 E7.95914
G1 X134.004 Y91.085 E8.00823
G1 X134.396 Y91.333 E8.02366
G1 X135.622 Y92.167 E8.07297
G1 X136 Y92.442 E8.08852
G1 X137.201 Y93.375 E8.1391
G1 X137.56 Y93.673 E8.15462
G1 X138.673 Y94.656 E8.20401
G1 X139.009 Y94.972 E8.21935
G1 X140.055 Y96.019 E8.26858
G1 X140.372 Y96.357 E8.28399
G1 X141.351 Y97.468 E8.33324
G1 X141.649 Y97.828 E8.34878
G1 X142.57 Y99.017 E8.39881
G1 X142.839 Y99.388 E8.41405
G1 X143.672 Y100.613 E8.46332
G1 X143.927 Y101.014 E8.47913
G1 X144.698 Y102.321 E8.5296
G1 X144.92 Y102.726 E8.54496
G1 X145.589 Y104.041 E8.59403
G1 X145.784 Y104.457 E8.60931
G1 X146.373 Y105.818 E8.65863
G1 X146.546 Y106.254 E8.67424
G1 X147.055 Y107.67 E8.72428
G1 X147.2 Y108.118 E8.73994
G1 X147.618 Y109.564 E8.79001
G1 X147.73 Y110.003 E8.80508
G1 X148.05 Y111.433 E8.85381
G1 X148.139 Y111.897 E8.86953
G1 X148.375 Y113.395 E8.91997
G1 X148.433 Y113.86 E8.93555
G1 X148.571 Y115.34 E8.98499
G1 X148.599 Y115.791 E9.00002
G1 X148.646 Y117.263 E9.049
G1 X148.646 Y117.732 E9.0646
G1 X148.599 Y119.223 E9.11422
G1 X148.571 Y119.682 E9.12951
G1 X148.431 Y121.173 E9.17932
G1 X148.371 Y121.645 E9.19515
G1 X148.137 Y123.114 E9.24462
G1 X148.05 Y123.566 E9.25993
G1 X147.724 Y125.023 E9.30959
G1 X147.609 Y125.471 E9.32497
G1 X147.191 Y126.91 E9.37481
G1 X147.047 Y127.353 E9.39031
G1 X146.544 Y128.75 E9.43969
G1 X146.374 Y129.181 E9.4551
G1 X145.777 Y130.561 E9.50511
G1 X145.579 Y130.982 E9.52059
G1 X144.906 Y132.303 E9.5699
G1 X144.678 Y132.717 E9.58562
G1 X143.911 Y134.011 E9.63565
G1 X143.664 Y134.399 E9.65094
G1 X142.829 Y135.627 E9.70034
G1 X142.555 Y136.005 E9.71586
G1 X141.634 Y137.191 E9.76581
G1 X141.339 Y137.547 E9.78118
G1 X140.361 Y138.656 E9.83036
G1 X140.044 Y138.994 E9.84578
G1 X138.992 Y140.046 E9.89526
G1 X138.645 Y140.37 E9.91105
G1 X137.51 Y141.368 E9.96132
G1 X137.159 Y141.658 E9.97646
G1 X135.996 Y142.56 E10.02541
G1 X135.618 Y142.835 E10.04096
G1 X134.369 Y143.683 E10.09117
G1 X133.981 Y143.929 E10.10645
G1 X132.712 Y144.68 E10.1555
G1 X132.298 Y144.908 E10.17122
G1 X130.961 Y145.588 E10.22111
G1 X130.546 Y145.783 E10.23636
G1 X129.183 Y146.373 E10.28576
G1 X128.75 Y146.544 E10.30124
G1 X127.345 Y147.05 E10.35091
G1 X126.899 Y147.195 E10.36651
G1 X125.468 Y147.61 E10.41606
G1 X125.021 Y147.725 E10.43141
G1 X123.647 Y148.032 E10.47824
G1 X123.308 Y148.101 E10.48975
G1 X123.042 Y148.148 E10.49873
G1 X121.621 Y148.373 E10.54658
G1 X121.15 Y148.432 E10.56237
G1 X119.646 Y148.572 E10.61261
G1 X119.193 Y148.6 E10.62771
G1 X117.733 Y148.646 E10.67629
G1 X117.267 Y148.646 E10.69179
G1 X115.777 Y148.599 E10.74137
G1 X115.317 Y148.57 E10.7567
G1 X113.85 Y148.432 E10.80571
G1 X113.388 Y148.374 E10.8212
G1 X111.895 Y148.138 E10.87147
G1 X111.43 Y148.05 E10.88721
G1 X109.95 Y147.718 E10.93766
G1 X109.506 Y147.603 E10.95291
G1 X108.098 Y147.194 E11.00168
G1 X107.655 Y147.05 E11.01717
G1 X106.25 Y146.544 E11.06684
G1 X105.82 Y146.374 E11.08222
G1 X104.444 Y145.779 E11.13208
G1 X104.017 Y145.578 E11.14778
G1 X102.675 Y144.893 E11.19789
G1 X102.266 Y144.668 E11.21342
G1 X100.989 Y143.911 E11.26279
G1 X100.595 Y143.66 E11.27833
G1 X99.352 Y142.813 E11.32836
G1 X98.981 Y142.544 E11.3436
G1 X97.81 Y141.635 E11.39291
G1 X97.454 Y141.34 E11.40828
G1 X96.347 Y140.364 E11.45737
G1 X96.008 Y140.046 E11.47283
G1 X94.953 Y138.991 E11.52245
G1 X94.634 Y138.65 E11.53798
G1 X93.648 Y137.531 E11.58759
G1 X93.352 Y137.173 E11.60304
G1 X92.438 Y135.994 E11.65266
G1 X92.166 Y135.621 E11.66801
G1 X91.327 Y134.387 E11.71764
G1 X91.075 Y133.988 E11.73334
G1 X90.301 Y132.677 E11.78397
G1 X90.078 Y132.271 E11.79938
G1 X89.415 Y130.968 E11.84801
G1 X89.215 Y130.542 E11.86366
G1 X88.616 Y129.153 E11.91397
G1 X88.449 Y128.731 E11.92906
G1 X87.95 Y127.346 E11.97803
G1 X87.803 Y126.893 E11.99387
G1 X87.383 Y125.44 E12.04417
G1 X87.27 Y124.998 E12.05935
G1 X86.947 Y123.552 E12.10863
G1 X86.859 Y123.09 E12.12427
G1 X86.626 Y121.61 E12.1741
G1 X86.568 Y121.151 E12.18949
G1 X86.429 Y119.672 E12.2389
G1 X86.401 Y119.214 E12.25416
G1 X86.356 Y117.791 E12.30151
G1 X86.352 Y117.435 E12.31335
G1 X86.356 Y117.201 E12.32114
G1 X86.401 Y115.776 E12.36856
G1 X86.43 Y115.316 E12.38389
G1 X86.57 Y113.829 E12.43356
G1 X86.629 Y113.362 E12.44922
G1 X86.863 Y111.889 E12.49883
G1 X86.95 Y111.434 E12.51423
G1 X87.276 Y109.977 E12.56389
G1 X87.39 Y109.531 E12.5792
G1 X87.809 Y108.087 E12.62921
G1 X87.955 Y107.639 E12.64488
G1 X88.457 Y106.247 E12.6941
G1 X88.626 Y105.819 E12.7094
G1 X89.219 Y104.448 E12.75909
G1 X89.416 Y104.029 E12.77449
G1 X90.092 Y102.701 E12.82405
G1 X90.319 Y102.289 E12.83969
G1 X91.079 Y101.005 E12.88932
G1 X91.327 Y100.613 E12.90475
G1 X92.166 Y99.379 E12.95438
G1 X92.441 Y99.002 E12.9699
G1 X93.368 Y97.808 E13.02018
G1 X93.667 Y97.447 E13.03577
G1 X94.658 Y96.325 E13.08556
G1 X94.971 Y95.991 E13.10078
G0 F6000 X95.254 Y96.274
G1 F1200 X96.291 Y95.237 E13.14956
G1 X96.617 Y94.932 E13.16441
G1 X97.757 Y93.929 E13.21491
G1 X98.095 Y93.65 E13.22949
G1 X99.208 Y92.788 E13.27631
G1 X99.521 Y92.557 E13.28925
G1 X99.68 Y92.445 E13.29572
G1 X100.857 Y91.646 E13.34303
G1 X101.225 Y91.413 E13.35752
G1 X102.493 Y90.663 E13.40652
G1 X102.886 Y90.447 E13.42143
G1 X104.238 Y89.76 E13.47187
G1 X104.63 Y89.576 E13.48628
G1 X105.978 Y88.993 E13.53512
G1 X106.393 Y88.829 E13.54997
G1 X107.817 Y88.318 E13.60029
G1 X108.23 Y88.184 E13.61473
G1 X109.65 Y87.772 E13.6639
G1 X110.074 Y87.664 E13.67846
G1 X111.523 Y87.34 E13.72784
G1 X111.96 Y87.256 E13.74264
G1 X113.463 Y87.019 E13.79325
G1 X113.898 Y86.965 E13.80783
G1 X115.355 Y86.828 E13.8565
G1 X115.798 Y86.8 E13.87127
G1 X117.318 Y86.754 E13.92184
G1 X117.75 Y86.754 E13.93621
G1 X119.21 Y86.8 E13.9848
G1 X119.646 Y86.828 E13.99933
G1 X121.102 Y86.965 E14.04797
G1 X121.432 Y87.004 E14.05902
G1 X121.612 Y87.03 E14.06507
G1 X123.048 Y87.258 E14.11343
G1 X123.476 Y87.339 E14.12792
G1 X124.918 Y87.661 E14.17706
G1 X125.339 Y87.769 E14.19152
G1 X126.724 Y88.17 E14.23947
G1 X127.041 Y88.27 E14.25053
G1 X127.386 Y88.389 E14.26267
G1 X128.631 Y88.838 E14.30669
G1 X129.037 Y88.999 E14.32121
G1 X130.393 Y89.586 E14.37036
G1 X130.794 Y89.775 E14.3851
G1 X132.146 Y90.465 E14.43559
G1 X132.531 Y90.677 E14.45021
G1 X133.801 Y91.429 E14.4993
G1 X134.171 Y91.664 E14.51387
G1 X135.397 Y92.498 E14.56319
G1 X135.754 Y92.758 E14.57788
G1 X136.955 Y93.691 E14.62846
G1 X137.295 Y93.972 E14.64313
G1 X138.408 Y94.955 E14.69252
G1 X138.726 Y95.255 E14.70706
G1 X139.772 Y96.302 E14.75629
G1 X140.072 Y96.621 E14.77085
G1 X141.051 Y97.732 E14.82011
G1 X141.333 Y98.073 E14.83482
G1 X142.254 Y99.262 E14.88485
G1 X142.508 Y99.613 E14.89926
G1 X143.341 Y100.838 E14.94853
G1 X143.582 Y101.217 E14.96347
G1 X144.353 Y102.524 E15.01394
G1 X144.563 Y102.907 E15.02846
G1 X145.232 Y104.222 E15.07754
G1 X145.417 Y104.616 E15.09201
G1 X146.006 Y105.977 E15.14134
G1 X146.169 Y106.389 E15.15607
G1 X146.678 Y107.805 E15.20612
G1 X146.816 Y108.229 E15.22095
G1 X147.234 Y109.675 E15.27101
G1 X147.34 Y110.09 E15.28526
G1 X147.66 Y111.52 E15.334
G1 X147.744 Y111.96 E15.3489
G1 X147.98 Y113.458 E15.39934
G1 X148.035 Y113.897 E15.41405
G1 X148.173 Y115.377 E15.46349
G1 X148.199 Y115.804 E15.47772
G1 X148.246 Y117.276 E15.5267
G1 X148.247 Y117.72 E15.54147
G1 X148.2 Y119.211 E15.59108
G1 X148.172 Y119.644 E15.60552
G1 X148.032 Y121.135 E15.65533
G1 X147.976 Y121.582 E15.67031
G1 X147.742 Y123.051 E15.71978
G1 X147.66 Y123.478 E15.73425
G1 X147.334 Y124.935 E15.7839
G1 X147.225 Y125.36 E15.7985
G1 X146.807 Y126.799 E15.84834
G1 X146.671 Y127.217 E15.86296
G1 X146.168 Y128.614 E15.91234
G1 X146.007 Y129.022 E15.92693
G1 X145.41 Y130.402 E15.97694
G1 X145.222 Y130.801 E15.99161
G1 X144.549 Y132.122 E16.04092
G1 X144.334 Y132.513 E16.05576
G1 X143.567 Y133.807 E16.10579
G1 X143.334 Y134.174 E16.12025
G1 X142.499 Y135.402 E16.16964
G1 X142.239 Y135.759 E16.18433
G1 X141.318 Y136.945 E16.23427
G1 X141.039 Y137.282 E16.24883
