;FLAVOR:Marlin
;TIME:3972
;Filament used: 1.96342m
;Layer height: 0.2
;MINX:85.954
;MINY:85.954
;MINZ:0.2
;MAXX:149.046
;MAXY:149.046
;MAXZ:4.4
;Generated with Cura_SteamEngine 4.8.0
M140 S63
M105
M190 S63
M104 S205
M105
M109 S205
M82 ;absolute extrusion mode
; Ender 3 Custom Start G-code
G92 E0 ; Reset Extruder
G28 ; Home all axes
G1 Z2.0 F3000 ; Move Z Axis up little to prevent scratching of Heat Bed
G1 X0.1 Y20 Z0.3 F5000.0 ; Move to start position
G1 X0.1 Y200.0 Z0.3 F1500.0 E15 ; Draw the first line
G1 X0.4 Y200.0 Z0.3 F5000.0 ; Move to side a little
G1 X0.4 Y20 Z0.3 F1500.0 E30 ; Draw the second line
G92 E0 ; Reset Extruder
G1 Z2.0 F3000 ; Move Z Axis up little to prevent scratching of Heat Bed
G1 X5 Y20 Z0.3 F5000.0 ; Move over to prevent blob squish
G92 E0
G92 E0
G1 F2700 E-5
;LAYER_COUNT:22
;LAYER:0
M107
G0 F6000 X94.672 Y95.726 Z0.2
;TYPE:SKIRT
G1 F2700 E0
G1 F1200 X95.726 Y94.672 E0.04958
G1 X96.088 Y94.331 E0.06612
G1 X97.221 Y93.334 E0.11631
G1 X97.596 Y93.025 E0.13248
G1 X98.761 Y92.122 E0.1815
G1 X99.155 Y91.835 E0.19771
G1 X100.406 Y90.985 E0.24802
G1 X100.821 Y90.723 E0.26434
G1 X102.088 Y89.974 E0.31329
G1 X102.517 Y89.738 E0.32958
G1 X103.854 Y89.057 E0.37948
G1 X104.301 Y88.847 E0.39591
G1 X105.602 Y88.285 E0.44305
G1 X105.883 Y88.17 E0.45315
G1 X106.219 Y88.042 E0.4651
G1 X107.54 Y87.567 E0.51179
G1 X108.01 Y87.415 E0.52822
G1 X109.433 Y87.003 E0.5775
G1 X109.899 Y86.883 E0.5935
G1 X111.347 Y86.559 E0.64285
G1 X111.826 Y86.468 E0.65907
G1 X113.299 Y86.234 E0.70868
G1 X113.792 Y86.171 E0.72521
G1 X115.279 Y86.031 E0.77488
G1 X115.765 Y86.001 E0.79108
G1 X117.263 Y85.954 E0.84093
G1 X117.75 Y85.954 E0.85712
G1 X119.134 Y85.997 E0.90318
G1 X119.419 Y86.011 E0.91267
G1 X119.813 Y86.04 E0.92581
G1 X121.166 Y86.167 E0.97101
G1 X121.513 Y86.207 E0.98263
G1 X121.747 Y86.241 E0.99049
G1 X123.138 Y86.462 E1.03734
G1 X123.456 Y86.519 E1.04808
G1 X123.74 Y86.578 E1.05773
G1 X125.082 Y86.878 E1.10347
G1 X125.549 Y86.998 E1.1195
G1 X127.007 Y87.42 E1.16999
G1 X127.481 Y87.573 E1.18655
G1 X128.886 Y88.079 E1.23622
G1 X129.339 Y88.259 E1.25243
G1 X130.708 Y88.851 E1.30204
G1 X131.158 Y89.063 E1.31859
G1 X132.508 Y89.752 E1.369
G1 X132.938 Y89.988 E1.38531
G1 X134.214 Y90.744 E1.43464
G1 X134.624 Y91.005 E1.45081
G1 X135.846 Y91.836 E1.49996
G1 X136.239 Y92.121 E1.5161
G1 X137.418 Y93.035 E1.56572
G1 X137.796 Y93.348 E1.58204
G1 X138.915 Y94.334 E1.63165
G1 X139.276 Y94.673 E1.64812
G1 X140.34 Y95.738 E1.69819
G1 X140.675 Y96.095 E1.71447
G1 X141.652 Y97.204 E1.76363
G1 X141.966 Y97.585 E1.78005
G1 X142.889 Y98.777 E1.8302
G1 X143.172 Y99.166 E1.8462
G1 X144.003 Y100.388 E1.89535
G1 X144.268 Y100.805 E1.91178
G1 X145.031 Y102.096 E1.96166
G1 X145.268 Y102.529 E1.97808
G1 X145.946 Y103.862 E2.02782
G1 X146.153 Y104.301 E2.04396
G1 X146.741 Y105.66 E2.09321
G1 X146.922 Y106.119 E2.10962
G1 X147.432 Y107.538 E2.15977
G1 X147.585 Y108.01 E2.17627
G1 X147.999 Y109.442 E2.22585
G1 X148.117 Y109.902 E2.24165
G1 X148.44 Y111.343 E2.29077
G1 X148.533 Y111.831 E2.30729
G1 X148.775 Y113.37 E2.35911
G1 X148.798 Y113.538 E2.36474
G1 X148.837 Y113.876 E2.37606
G1 X148.971 Y115.322 E2.42436
G1 X149 Y115.802 E2.44036
G1 X149.041 Y117.169 E2.48584
G1 X149.046 Y117.727 E2.5044
G1 X149.003 Y119.134 E2.55122
G1 X148.99 Y119.409 E2.56038
G1 X148.96 Y119.814 E2.57389
G1 X148.827 Y121.217 E2.62076
G1 X148.766 Y121.703 E2.63705
G1 X148.533 Y123.172 E2.68652
G1 X148.441 Y123.653 E2.70281
G1 X148.115 Y125.11 E2.75247
G1 X147.994 Y125.58 E2.76861
G1 X147.576 Y127.021 E2.81851
G1 X147.421 Y127.499 E2.83523
G1 X146.913 Y128.905 E2.88495
G1 X146.735 Y129.352 E2.90095
G1 X146.143 Y130.72 E2.95053
G1 X145.936 Y131.161 E2.96673
G1 X145.264 Y132.481 E3.016
G1 X145.023 Y132.919 E3.03262
G1 X144.25 Y134.223 E3.08304
G1 X143.986 Y134.638 E3.0994
G1 X143.15 Y135.865 E3.14878
G1 X142.868 Y136.252 E3.16471
G1 X141.964 Y137.418 E3.21378
G1 X141.651 Y137.797 E3.23013
G1 X140.661 Y138.92 E3.27992
G1 X140.325 Y139.277 E3.29623
G1 X139.274 Y140.328 E3.34567
G1 X138.911 Y140.67 E3.36225
G1 X137.773 Y141.671 E3.41266
G1 X137.399 Y141.979 E3.42878
G1 X136.239 Y142.878 E3.47759
G1 X135.846 Y143.163 E3.49374
G1 X134.609 Y144.004 E3.54349
G1 X134.196 Y144.267 E3.55977
G1 X132.915 Y145.025 E3.60928
G1 X132.481 Y145.263 E3.62574
G1 X131.143 Y145.944 E3.67568
G1 X130.697 Y146.154 E3.69207
G1 X129.349 Y146.736 E3.74091
G1 X128.984 Y146.883 E3.75399
G1 X128.767 Y146.963 E3.76169
G1 X127.482 Y147.426 E3.80712
G1 X127.011 Y147.579 E3.82359
G1 X125.58 Y147.994 E3.87314
G1 X125.103 Y148.116 E3.88952
G1 X123.626 Y148.445 E3.93985
G1 X123.152 Y148.536 E3.9559
G1 X121.69 Y148.768 E4.00514
G1 X121.198 Y148.83 E4.02163
G1 X119.805 Y148.961 E4.06817
G1 X119.55 Y148.981 E4.07667
G1 X119.203 Y149 E4.08823
G1 X117.746 Y149.046 E4.13672
G1 X117.254 Y149.046 E4.15308
G1 X115.764 Y148.999 E4.20266
G1 X115.284 Y148.969 E4.21866
G1 X113.851 Y148.835 E4.26653
G1 X113.559 Y148.802 E4.2763
G1 X113.236 Y148.757 E4.28715
G1 X111.823 Y148.532 E4.33474
G1 X111.35 Y148.441 E4.35076
G1 X109.913 Y148.12 E4.39973
G1 X109.447 Y148.001 E4.41573
G1 X108.084 Y147.607 E4.46292
G1 X107.808 Y147.522 E4.47252
G1 X107.423 Y147.392 E4.48604
G1 X106.097 Y146.914 E4.53292
G1 X105.643 Y146.734 E4.54916
G1 X104.28 Y146.144 E4.59856
G1 X103.832 Y145.933 E4.61503
G1 X102.502 Y145.254 E4.6647
G1 X102.078 Y145.021 E4.68079
G1 X100.798 Y144.264 E4.73025
G1 X100.381 Y143.999 E4.74668
G1 X99.151 Y143.162 E4.79617
G1 X98.759 Y142.877 E4.81229
G1 X97.574 Y141.958 E4.86216
G1 X97.196 Y141.645 E4.87849
G1 X96.083 Y140.664 E4.92783
G1 X95.726 Y140.328 E4.94414
G1 X94.671 Y139.273 E4.99376
G1 X94.334 Y138.915 E5.01011
G1 X93.348 Y137.796 E5.05972
G1 X93.035 Y137.418 E5.07604
G1 X92.121 Y136.239 E5.12566
G1 X91.836 Y135.846 E5.14181
G1 X90.997 Y134.612 E5.19144
G1 X90.733 Y134.196 E5.20782
G1 X89.969 Y132.904 E5.25775
G1 X89.732 Y132.473 E5.27411
G1 X89.059 Y131.151 E5.32345
G1 X88.85 Y130.705 E5.33983
G1 X88.256 Y129.33 E5.38965
G1 X88.076 Y128.877 E5.40586
G1 X87.571 Y127.473 E5.45548
G1 X87.42 Y127.006 E5.47181
G1 X87.036 Y125.682 E5.51766
G1 X86.923 Y125.257 E5.53229
G1 X86.865 Y125.017 E5.5405
G1 X86.56 Y123.656 E5.58689
G1 X86.466 Y123.163 E5.60358
G1 X86.23 Y121.664 E5.65405
G1 X86.169 Y121.179 E5.67031
G1 X86.031 Y119.706 E5.71952
G1 X86.001 Y119.226 E5.73551
G1 X85.954 Y117.749 E5.78466
G1 X85.954 Y117.255 E5.80109
G1 X86.001 Y115.764 E5.85071
G1 X86.031 Y115.279 E5.86687
G1 X86.171 Y113.792 E5.91655
G1 X86.234 Y113.299 E5.93308
G1 X86.468 Y111.826 E5.98268
G1 X86.559 Y111.347 E5.9989
G1 X86.885 Y109.89 E6.04856
G1 X87.006 Y109.419 E6.06473
G1 X87.425 Y107.975 E6.11474
G1 X87.579 Y107.503 E6.13126
G1 X88.081 Y106.111 E6.18047
G1 X88.259 Y105.661 E6.19657
G1 X88.851 Y104.292 E6.24618
G1 X89.059 Y103.85 E6.26242
G1 X89.736 Y102.52 E6.31206
G1 X89.975 Y102.085 E6.32857
G1 X90.735 Y100.801 E6.3782
G1 X90.997 Y100.388 E6.39446
G1 X91.836 Y99.154 E6.44409
G1 X92.121 Y98.761 E6.46024
G1 X93.035 Y97.582 E6.50986
G1 X93.348 Y97.204 E6.52618
G1 X94.335 Y96.084 E6.57583
G1 X94.672 Y95.726 E6.59218
G0 F6000 X94.954 Y96.008
G1 F1200 X96.008 Y94.954 E6.64176
G1 X96.352 Y94.632 E6.65743
G1 X97.485 Y93.635 E6.70763
G1 X97.841 Y93.341 E6.72299
G1 X99.006 Y92.438 E6.77201
G1 X99.38 Y92.166 E6.78739
G1 X100.631 Y91.316 E6.8377
G1 X101.024 Y91.067 E6.85317
G1 X102.291 Y90.318 E6.90212
G1 X102.698 Y90.094 E6.91758
G1 X104.035 Y89.413 E6.96748
G1 X104.459 Y89.214 E6.98306
G1 X105.76 Y88.652 E7.0302
G1 X106.027 Y88.543 E7.03979
G1 X106.354 Y88.418 E7.05143
G1 X107.675 Y87.943 E7.09812
G1 X108.121 Y87.799 E7.11371
G1 X109.544 Y87.387 E7.16298
G1 X109.986 Y87.274 E7.17816
G1 X111.434 Y86.95 E7.22751
G1 X111.889 Y86.863 E7.24292
G1 X113.362 Y86.629 E7.29252
G1 X113.829 Y86.57 E7.30818
G1 X115.316 Y86.43 E7.35785
G1 X115.778 Y86.401 E7.37325
G1 X117.276 Y86.354 E7.4231
G1 X117.738 Y86.354 E7.43847
G1 X119.122 Y86.397 E7.48452
G1 X119.392 Y86.41 E7.49351
G1 X119.776 Y86.438 E7.50632
G1 X121.129 Y86.565 E7.55151
G1 X121.462 Y86.604 E7.56267
G1 X121.684 Y86.636 E7.57013
G1 X123.075 Y86.857 E7.61697
G1 X123.377 Y86.911 E7.62717
G1 X123.652 Y86.968 E7.63652
G1 X124.994 Y87.268 E7.68225
G1 X125.437 Y87.382 E7.69747
G1 X126.895 Y87.804 E7.74795
G1 X127.345 Y87.95 E7.76369
G1 X128.75 Y88.456 E7.81335
G1 X129.18 Y88.626 E7.82873
G1 X130.549 Y89.218 E7.87834
G1 X130.976 Y89.419 E7.89404
G1 X132.326 Y90.108 E7.94445
G1 X132.734 Y90.333 E7.95995
G1 X134.01 Y91.089 E8.00928
G1 X134.399 Y91.336 E8.0246
G1 X135.621 Y92.167 E8.07375
G1 X135.994 Y92.438 E8.08909
G1 X137.173 Y93.352 E8.1387
G1 X137.531 Y93.648 E8.15415
G1 X138.65 Y94.634 E8.20376
G1 X138.993 Y94.956 E8.21941
G1 X140.057 Y96.021 E8.26948
G1 X140.375 Y96.359 E8.28491
G1 X141.352 Y97.468 E8.33407
G1 X141.65 Y97.829 E8.34964
G1 X142.573 Y99.021 E8.39978
G1 X142.841 Y99.391 E8.41498
G1 X143.672 Y100.613 E8.46413
G1 X143.924 Y101.009 E8.47974
G1 X144.687 Y102.3 E8.52962
G1 X144.912 Y102.71 E8.54517
G1 X145.59 Y104.043 E8.59491
G1 X145.786 Y104.459 E8.61021
G1 X146.374 Y105.818 E8.65946
G1 X146.546 Y106.254 E8.67505
G1 X147.056 Y107.673 E8.7252
G1 X147.201 Y108.121 E8.74086
G1 X147.615 Y109.553 E8.79044
G1 X147.727 Y109.989 E8.80541
G1 X148.05 Y111.43 E8.85453
G1 X148.138 Y111.894 E8.87024
G1 X148.379 Y113.424 E8.92175
G1 X148.402 Y113.592 E8.92739
G1 X148.438 Y113.913 E8.93814
G1 X148.572 Y115.359 E8.98644
G1 X148.601 Y115.815 E9.00163
G1 X148.642 Y117.182 E9.04712
G1 X148.647 Y117.715 E9.06485
G1 X148.604 Y119.122 E9.11167
G1 X148.591 Y119.383 E9.12036
G1 X148.562 Y119.776 E9.13347
G1 X148.429 Y121.179 E9.18034
G1 X148.371 Y121.64 E9.19579
G1 X148.138 Y123.109 E9.24526
G1 X148.05 Y123.566 E9.26074
G1 X147.724 Y125.023 E9.3104
G1 X147.61 Y125.469 E9.32571
G1 X147.192 Y126.91 E9.37562
G1 X147.045 Y127.363 E9.39146
G1 X146.537 Y128.769 E9.44118
G1 X146.368 Y129.193 E9.45636
G1 X145.776 Y130.561 E9.50594
G1 X145.58 Y130.979 E9.52129
G1 X144.908 Y132.299 E9.57056
G1 X144.679 Y132.715 E9.58635
G1 X143.906 Y134.019 E9.63677
G1 X143.655 Y134.413 E9.65231
G1 X142.819 Y135.64 E9.70169
G1 X142.552 Y136.007 E9.71679
G1 X141.648 Y137.173 E9.76586
G1 X141.351 Y137.533 E9.78138
G1 X140.361 Y138.656 E9.83117
G1 X140.043 Y138.995 E9.84663
G1 X138.992 Y140.046 E9.89607
G1 X138.646 Y140.369 E9.91181
G1 X137.508 Y141.37 E9.96222
G1 X137.154 Y141.663 E9.97751
G1 X135.994 Y142.562 E10.02632
G1 X135.622 Y142.833 E10.04162
G1 X134.385 Y143.674 E10.09138
G1 X133.992 Y143.923 E10.10685
G1 X132.711 Y144.681 E10.15636
G1 X132.3 Y144.907 E10.17196
G1 X130.962 Y145.588 E10.22189
G1 X130.538 Y145.787 E10.23747
G1 X129.19 Y146.369 E10.2863
G1 X128.844 Y146.508 E10.29871
G1 X128.631 Y146.587 E10.30626
G1 X127.346 Y147.05 E10.35169
G1 X126.899 Y147.195 E10.36732
G1 X125.468 Y147.61 E10.41688
G1 X125.016 Y147.726 E10.4324
G1 X123.539 Y148.055 E10.48273
G1 X123.09 Y148.141 E10.49793
G1 X121.628 Y148.373 E10.54717
G1 X121.161 Y148.431 E10.56282
G1 X119.638 Y148.574 E10.6137
G1 X119.52 Y148.583 E10.61763
G1 X119.191 Y148.6 E10.62859
G1 X117.734 Y148.646 E10.67707
G1 X117.267 Y148.646 E10.69261
G1 X115.777 Y148.599 E10.74219
G1 X115.321 Y148.571 E10.75738
G1 X113.888 Y148.437 E10.80525
G1 X113.612 Y148.406 E10.81449
G1 X113.299 Y148.362 E10.825
G1 X111.886 Y148.137 E10.87259
G1 X111.437 Y148.051 E10.8878
G1 X110 Y147.73 E10.93677
G1 X109.558 Y147.617 E10.95195
G1 X108.195 Y147.223 E10.99913
G1 X107.933 Y147.142 E11.00826
G1 X107.559 Y147.015 E11.02139
G1 X106.233 Y146.537 E11.06827
G1 X105.802 Y146.367 E11.08368
G1 X104.439 Y145.777 E11.13308
G1 X104.014 Y145.577 E11.1487
G1 X102.684 Y144.898 E11.19837
G1 X102.282 Y144.676 E11.21365
G1 X101.002 Y143.919 E11.26311
G1 X100.606 Y143.668 E11.2787
G1 X99.376 Y142.831 E11.32818
G1 X99.004 Y142.561 E11.34347
G1 X97.819 Y141.642 E11.39335
G1 X97.461 Y141.345 E11.40882
G1 X96.348 Y140.364 E11.45817
G1 X96.008 Y140.046 E11.47365
G1 X94.953 Y138.991 E11.52327
G1 X94.634 Y138.65 E11.5388
G1 X93.648 Y137.531 E11.58841
G1 X93.352 Y137.173 E11.60386
G1 X92.438 Y135.994 E11.65348
G1 X92.166 Y135.621 E11.66883
G1 X91.327 Y134.387 E11.71846
G1 X91.077 Y133.993 E11.73398
G1 X90.313 Y132.701 E11.7839
G1 X90.088 Y132.291 E11.79946
G1 X89.415 Y130.969 E11.8488
G1 X89.217 Y130.547 E11.8643
G1 X88.623 Y129.172 E11.91412
G1 X88.453 Y128.742 E11.9295
G1 X87.948 Y127.338 E11.97913
G1 X87.804 Y126.894 E11.99465
G1 X87.42 Y125.57 E12.0405
G1 X87.31 Y125.157 E12.05472
G1 X87.255 Y124.929 E12.06252
G1 X86.95 Y123.568 E12.10891
G1 X86.861 Y123.101 E12.12472
G1 X86.625 Y121.602 E12.17519
G1 X86.567 Y121.141 E12.19065
G1 X86.429 Y119.668 E12.23985
G1 X86.401 Y119.213 E12.25501
G1 X86.354 Y117.736 E12.30416
G1 X86.354 Y117.268 E12.31973
G1 X86.401 Y115.777 E12.36935
G1 X86.43 Y115.316 E12.38471
G1 X86.57 Y113.829 E12.43438
G1 X86.629 Y113.362 E12.45004
G1 X86.863 Y111.889 E12.49965
G1 X86.95 Y111.434 E12.51505
G1 X87.276 Y109.977 E12.56471
G1 X87.39 Y109.531 E12.58002
G1 X87.809 Y108.087 E12.63003
G1 X87.955 Y107.639 E12.6457
G1 X88.457 Y106.247 E12.69492
G1 X88.626 Y105.82 E12.7102
G1 X89.218 Y104.451 E12.7598
G1 X89.415 Y104.031 E12.77523
G1 X90.092 Y102.701 E12.82487
G1 X90.319 Y102.289 E12.84052
G1 X91.079 Y101.005 E12.89014
G1 X91.327 Y100.613 E12.90557
G1 X92.166 Y99.379 E12.9552
G1 X92.438 Y99.006 E12.97056
G1 X93.352 Y97.827 E13.02017
G1 X93.648 Y97.468 E13.03565
G1 X94.635 Y96.348 E13.0853
G1 X94.954 Y96.008 E13.10081
G0 F6000 X95.237 Y96.291
G1 F1200 X96.291 Y95.237 E13.15038
G1 X96.617 Y94.932 E13.16523
G1 X97.75 Y93.935 E13.21543
G1 X98.086 Y93.657 E13.22993
G1 X99.251 Y92.754 E13.27896
G1 X99.605 Y92.497 E13.29351
G1 X100.856 Y91.647 E13.34381
G1 X101.228 Y91.411 E13.35846
G1 X102.495 Y90.662 E13.40742
G1 X102.88 Y90.451 E13.42202
G1 X104.217 Y89.77 E13.47192
G1 X104.618 Y89.581 E13.48667
G1 X105.919 Y89.019 E13.53381
G1 X106.171 Y88.916 E13.54286
G1 X106.489 Y88.795 E13.55418
G1 X107.81 Y88.32 E13.60087
G1 X108.232 Y88.183 E13.61562
G1 X109.655 Y87.771 E13.6649
G1 X110.073 Y87.664 E13.67925
G1 X111.521 Y87.34 E13.7286
G1 X111.952 Y87.258 E13.74319
G1 X113.425 Y87.024 E13.7928
G1 X113.867 Y86.968 E13.80762
G1 X115.354 Y86.828 E13.85729
G1 X115.79 Y86.8 E13.87182
G1 X117.288 Y86.753 E13.92167
G1 X117.725 Y86.753 E13.93621
G1 X119.109 Y86.796 E13.98226
G1 X119.365 Y86.809 E13.99079
G1 X119.738 Y86.837 E14.00323
G1 X121.091 Y86.964 E14.04843
G1 X121.411 Y87.001 E14.05914
G1 X121.621 Y87.031 E14.0662
G1 X123.012 Y87.252 E14.11304
G1 X123.297 Y87.303 E14.12267
G1 X123.565 Y87.359 E14.13178
G1 X124.907 Y87.659 E14.17751
G1 X125.326 Y87.766 E14.1919
G1 X126.784 Y88.188 E14.24238
G1 X127.21 Y88.326 E14.25728
G1 X128.615 Y88.832 E14.30694
G1 X129.021 Y88.993 E14.32147
G1 X130.39 Y89.585 E14.37108
G1 X130.794 Y89.775 E14.38593
G1 X132.144 Y90.464 E14.43634
G1 X132.53 Y90.677 E14.451
G1 X133.806 Y91.433 E14.50033
G1 X134.174 Y91.667 E14.51484
G1 X135.396 Y92.498 E14.56399
G1 X135.749 Y92.754 E14.57849
G1 X136.928 Y93.668 E14.62811
G1 X137.267 Y93.948 E14.64273
G1 X138.386 Y94.934 E14.69234
G1 X138.71 Y95.239 E14.70714
G1 X139.774 Y96.304 E14.75721
G1 X140.074 Y96.624 E14.7718
G1 X141.051 Y97.733 E14.82095
G1 X141.334 Y98.074 E14.83569
G1 X142.257 Y99.266 E14.88584
G1 X142.51 Y99.616 E14.9002
G1 X143.341 Y100.838 E14.94935
G1 X143.579 Y101.212 E14.96409
G1 X144.342 Y102.503 E15.01397
G1 X144.555 Y102.892 E15.02872
G1 X145.233 Y104.225 E15.07846
G1 X145.418 Y104.618 E15.09291
G1 X146.006 Y105.977 E15.14216
G1 X146.169 Y106.389 E15.1569
G1 X146.679 Y107.808 E15.20705
G1 X146.817 Y108.232 E15.22188
G1 X147.231 Y109.664 E15.27146
G1 X147.337 Y110.077 E15.28564
G1 X147.66 Y111.518 E15.33476
G1 X147.743 Y111.956 E15.34959
G1 X147.961 Y113.335 E15.39602
G1 X148.005 Y113.647 E15.4065
G1 X148.04 Y113.95 E15.41665
G1 X148.174 Y115.396 E15.46495
G1 X148.201 Y115.827 E15.47931
G1 X148.242 Y117.194 E15.5248
G1 X148.247 Y117.703 E15.54173
G1 X148.204 Y119.11 E15.58854
G1 X148.18 Y119.539 E15.60284
G1 X148.164 Y119.739 E15.60951
G1 X148.031 Y121.142 E15.65638
G1 X147.976 Y121.578 E15.671
G1 X147.743 Y123.047 E15.72047
G1 X147.66 Y123.478 E15.73507
G1 X147.334 Y124.935 E15.78473
