;FLAVOR:Marlin
;TIME:4117
;Filament used: 1.94068m
;Layer height: 0.2
;MINX:85.954
;MINY:85.954
;MINZ:0.2
;MAXX:149.046
;MAXY:149.046
;MAXZ:4.6
;Generated with Cura_SteamEngine 4.8.0
M140 S63
M105
M190 S63
M104 S205
M105
M109 S205
M82 ;absolute extrusion mode
; Ender 3 Custom Start G-code
G92 E0 ; Reset Extruder
G28 ; Home all axes
G1 Z2.0 F3000 ; Move Z Axis up little to prevent scratching of Heat Bed
G1 X0.1 Y20 Z0.3 F5000.0 ; Move to start position
G1 X0.1 Y200.0 Z0.3 F1500.0 E15 ; Draw the first line
G1 X0.4 Y200.0 Z0.3 F5000.0 ; Move to side a little
G1 X0.4 Y20 Z0.3 F1500.0 E30 ; Draw the second line
G92 E0 ; Reset Extruder
G1 Z2.0 F3000 ; Move Z Axis up little to prevent scratching of Heat Bed
G1 X5 Y20 Z0.3 F5000.0 ; Move over to prevent blob squish
G92 E0
G92 E0
G1 F2700 E-5
;LAYER_COUNT:22
;LAYER:0
M107
G1 F300 Z0.4
G0 F6000 X94.672 Y95.726 Z0.4
;TYPE:SKIRT
G1 F300 Z0.2
G1 F2700 E0
G1 F1200 X95.726 Y94.672 E0.04958
G1 X96.09 Y94.33 E0.06619
G1 X97.227 Y93.33 E0.11655
G1 X97.599 Y93.022 E0.13261
G1 X98.76 Y92.122 E0.18147
G1 X99.16 Y91.832 E0.19791
G1 X100.416 Y90.98 E0.24838
G1 X100.822 Y90.723 E0.26437
G1 X102.084 Y89.976 E0.31314
G1 X102.521 Y89.735 E0.32974
G1 X103.868 Y89.05 E0.38
G1 X104.31 Y88.843 E0.39624
G1 X105.627 Y88.274 E0.44395
G1 X105.953 Y88.142 E0.45565
G1 X106.223 Y88.04 E0.46525
G1 X107.555 Y87.562 E0.51232
G1 X108.024 Y87.411 E0.52871
G1 X109.439 Y87.002 E0.5777
G1 X109.898 Y86.884 E0.59346
G1 X111.343 Y86.56 E0.64271
G1 X111.826 Y86.468 E0.65907
G1 X113.299 Y86.234 E0.70867
G1 X113.792 Y86.171 E0.7252
G1 X115.279 Y86.031 E0.77488
G1 X115.765 Y86.001 E0.79108
G1 X117.263 Y85.954 E0.84092
G1 X117.75 Y85.954 E0.85712
G1 X119.134 Y85.997 E0.90318
G1 X119.414 Y86.01 E0.9125
G1 X119.811 Y86.04 E0.92574
G1 X121.16 Y86.166 E0.9708
G1 X121.501 Y86.205 E0.98222
G1 X121.747 Y86.241 E0.99049
G1 X123.175 Y86.468 E1.03858
G1 X123.655 Y86.56 E1.05484
G1 X125.128 Y86.89 E1.10504
G1 X125.598 Y87.01 E1.12118
G1 X126.938 Y87.399 E1.16759
G1 X127.257 Y87.499 E1.1787
G1 X127.657 Y87.636 E1.19277
G1 X128.901 Y88.085 E1.23676
G1 X129.35 Y88.263 E1.25282
G1 X130.709 Y88.851 E1.30207
G1 X131.154 Y89.061 E1.31844
G1 X132.494 Y89.744 E1.36846
G1 X132.929 Y89.983 E1.38497
G1 X134.213 Y90.744 E1.43461
G1 X134.621 Y91.003 E1.45068
G1 X135.845 Y91.835 E1.49991
G1 X136.239 Y92.121 E1.5161
G1 X137.418 Y93.035 E1.56572
G1 X137.796 Y93.348 E1.58204
G1 X138.915 Y94.334 E1.63165
G1 X139.276 Y94.673 E1.64812
G1 X140.34 Y95.738 E1.69819
G1 X140.675 Y96.095 E1.71447
G1 X141.652 Y97.204 E1.76363
G1 X141.966 Y97.585 E1.78005
G1 X142.889 Y98.777 E1.83019
G1 X143.172 Y99.166 E1.84619
G1 X144.003 Y100.388 E1.89535
G1 X144.269 Y100.808 E1.91188
G1 X145.016 Y102.073 E1.96074
G1 X145.182 Y102.368 E1.972
G1 X145.308 Y102.607 E1.98099
G1 X145.946 Y103.861 E2.02778
G1 X146.153 Y104.301 E2.04396
G1 X146.741 Y105.66 E2.09321
G1 X146.922 Y106.119 E2.10962
G1 X147.432 Y107.538 E2.15977
G1 X147.585 Y108.009 E2.17624
G1 X148 Y109.444 E2.22592
G1 X148.119 Y109.907 E2.24182
G1 X148.441 Y111.345 E2.29084
G1 X148.533 Y111.831 E2.30729
G1 X148.751 Y113.21 E2.35372
G1 X148.8 Y113.557 E2.36538
G1 X148.837 Y113.874 E2.37599
G1 X148.965 Y115.233 E2.42139
G1 X148.986 Y115.512 E2.4307
G1 X149 Y115.793 E2.44006
G1 X149.046 Y117.254 E2.48868
G1 X149.046 Y117.745 E2.50501
G1 X148.999 Y119.236 E2.55462
G1 X148.969 Y119.721 E2.57078
G1 X148.829 Y121.208 E2.62046
G1 X148.766 Y121.701 E2.63699
G1 X148.532 Y123.174 E2.6866
G1 X148.441 Y123.653 E2.70281
G1 X148.115 Y125.11 E2.75247
G1 X147.994 Y125.58 E2.76861
G1 X147.576 Y127.021 E2.81852
G1 X147.421 Y127.499 E2.83523
G1 X146.913 Y128.905 E2.88495
G1 X146.737 Y129.348 E2.90081
G1 X146.148 Y130.711 E2.95019
G1 X145.937 Y131.16 E2.96669
G1 X145.26 Y132.488 E3.01627
G1 X145.022 Y132.921 E3.03271
G1 X144.256 Y134.214 E3.08269
G1 X143.992 Y134.628 E3.09902
G1 X143.153 Y135.86 E3.1486
G1 X142.868 Y136.252 E3.16472
G1 X141.95 Y137.435 E3.21452
G1 X141.638 Y137.812 E3.2308
G1 X140.66 Y138.921 E3.27998
G1 X140.325 Y139.277 E3.29624
G1 X139.274 Y140.328 E3.34567
G1 X138.911 Y140.67 E3.36226
G1 X137.773 Y141.671 E3.41267
G1 X137.399 Y141.979 E3.42878
G1 X136.239 Y142.878 E3.4776
G1 X135.848 Y143.163 E3.49369
G1 X134.613 Y144.003 E3.54337
G1 X134.197 Y144.266 E3.55973
G1 X132.914 Y145.025 E3.60932
G1 X132.481 Y145.263 E3.62575
G1 X131.143 Y145.944 E3.67568
G1 X130.697 Y146.154 E3.69208
G1 X129.349 Y146.736 E3.74091
G1 X128.984 Y146.883 E3.754
G1 X128.767 Y146.963 E3.76169
G1 X127.482 Y147.426 E3.80712
G1 X127.011 Y147.579 E3.82359
G1 X125.58 Y147.994 E3.87315
G1 X125.105 Y148.116 E3.88946
G1 X123.634 Y148.444 E3.93959
G1 X123.155 Y148.535 E3.95581
G1 X121.683 Y148.768 E4.00537
G1 X121.186 Y148.831 E4.02204
G1 X119.679 Y148.971 E4.07238
G1 X119.203 Y149 E4.08824
G1 X117.746 Y149.046 E4.13672
G1 X117.254 Y149.046 E4.15309
G1 X115.764 Y148.999 E4.20267
G1 X115.284 Y148.969 E4.21866
G1 X113.851 Y148.835 E4.26653
G1 X113.559 Y148.802 E4.27631
G1 X113.236 Y148.757 E4.28715
G1 X111.823 Y148.532 E4.33474
G1 X111.349 Y148.441 E4.3508
G1 X109.89 Y148.115 E4.40052
G1 X109.416 Y147.994 E4.41679
G1 X107.987 Y147.579 E4.46628
G1 X107.516 Y147.426 E4.48275
G1 X106.096 Y146.914 E4.53296
G1 X105.643 Y146.734 E4.54917
G1 X104.28 Y146.144 E4.59857
G1 X103.835 Y145.934 E4.61494
G1 X102.502 Y145.254 E4.66471
G1 X102.067 Y145.015 E4.68122
G1 X100.777 Y144.25 E4.7311
G1 X100.368 Y143.99 E4.74722
G1 X99.151 Y143.162 E4.79618
G1 X98.758 Y142.876 E4.81234
G1 X97.576 Y141.959 E4.8621
G1 X97.201 Y141.649 E4.87828
G1 X96.085 Y140.666 E4.92775
G1 X95.726 Y140.328 E4.94415
G1 X94.671 Y139.273 E4.99377
G1 X94.334 Y138.915 E5.01012
G1 X93.348 Y137.796 E5.05973
G1 X93.035 Y137.418 E5.07605
G1 X92.121 Y136.239 E5.12567
G1 X91.836 Y135.846 E5.14181
G1 X90.997 Y134.612 E5.19144
G1 X90.73 Y134.191 E5.20803
G1 X89.955 Y132.878 E5.25874
G1 X89.72 Y132.45 E5.27498
G1 X89.087 Y131.206 E5.3214
G1 X88.949 Y130.92 E5.33196
G1 X88.806 Y130.605 E5.34347
G1 X88.251 Y129.32 E5.39002
G1 X88.072 Y128.867 E5.40622
G1 X87.572 Y127.477 E5.45536
G1 X87.421 Y127.009 E5.47171
G1 X86.986 Y125.503 E5.52385
G1 X86.937 Y125.317 E5.53025
G1 X86.867 Y125.028 E5.54014
G1 X86.555 Y123.629 E5.58781
G1 X86.464 Y123.149 E5.60406
G1 X86.222 Y121.608 E5.65594
G1 X86.198 Y121.428 E5.66198
G1 X86.164 Y121.127 E5.67206
G1 X86.038 Y119.786 E5.71686
G1 X86.014 Y119.475 E5.72723
G1 X85.999 Y119.174 E5.73725
G1 X85.954 Y117.747 E5.78474
G1 X85.954 Y117.255 E5.8011
G1 X86.001 Y115.764 E5.85072
G1 X86.031 Y115.279 E5.86688
G1 X86.171 Y113.792 E5.91656
G1 X86.234 Y113.299 E5.93309
G1 X86.468 Y111.826 E5.98269
G1 X86.559 Y111.347 E5.99891
G1 X86.885 Y109.89 E6.04857
G1 X87.006 Y109.419 E6.06474
G1 X87.425 Y107.975 E6.11475
G1 X87.579 Y107.503 E6.13127
G1 X88.081 Y106.111 E6.18048
G1 X88.258 Y105.662 E6.19653
G1 X88.852 Y104.288 E6.24632
G1 X89.062 Y103.842 E6.26272
G1 X89.737 Y102.517 E6.31218
G1 X89.975 Y102.085 E6.32858
G1 X90.735 Y100.801 E6.37821
G1 X90.997 Y100.388 E6.39447
G1 X91.836 Y99.154 E6.44411
G1 X92.121 Y98.761 E6.46025
G1 X93.035 Y97.582 E6.50987
G1 X93.348 Y97.204 E6.52619
G1 X94.335 Y96.084 E6.57584
G1 X94.672 Y95.726 E6.5922
G0 F6000 X94.954 Y96.008
G1 F1200 X96.008 Y94.954 E6.64177
G1 X96.354 Y94.63 E6.65754
G1 X97.491 Y93.63 E6.7079
G1 X97.844 Y93.338 E6.72314
G1 X99.005 Y92.438 E6.772
G1 X99.385 Y92.163 E6.7876
G1 X100.641 Y91.311 E6.83808
G1 X101.026 Y91.067 E6.85324
G1 X102.288 Y90.32 E6.90201
G1 X102.703 Y90.092 E6.91776
G1 X104.05 Y89.407 E6.96803
G1 X104.469 Y89.21 E6.98342
G1 X105.786 Y88.641 E7.03114
G1 X106.095 Y88.516 E7.04223
G1 X106.359 Y88.417 E7.05161
G1 X107.691 Y87.939 E7.09867
G1 X108.135 Y87.795 E7.1142
G1 X109.55 Y87.386 E7.16319
G1 X109.986 Y87.274 E7.17816
G1 X111.431 Y86.95 E7.22742
G1 X111.889 Y86.863 E7.24292
G1 X113.362 Y86.629 E7.29253
G1 X113.829 Y86.57 E7.30818
G1 X115.316 Y86.43 E7.35786
G1 X115.778 Y86.401 E7.37326
G1 X117.276 Y86.354 E7.4231
G1 X117.738 Y86.354 E7.43847
G1 X119.122 Y86.397 E7.48453
G1 X119.387 Y86.41 E7.49335
G1 X119.774 Y86.438 E7.50626
G1 X121.123 Y86.564 E7.55132
G1 X121.446 Y86.601 E7.56213
G1 X121.684 Y86.636 E7.57013
G1 X123.112 Y86.863 E7.61822
G1 X123.568 Y86.95 E7.63366
G1 X125.041 Y87.28 E7.68387
G1 X125.486 Y87.394 E7.69915
G1 X126.826 Y87.783 E7.74556
G1 X127.129 Y87.878 E7.75612
G1 X127.375 Y87.961 E7.76476
G1 X128.765 Y88.462 E7.8139
G1 X129.192 Y88.63 E7.82916
G1 X130.551 Y89.218 E7.87841
G1 X130.972 Y89.417 E7.8939
G1 X132.312 Y90.1 E7.94392
G1 X132.725 Y90.327 E7.9596
G1 X134.009 Y91.088 E8.00924
G1 X134.396 Y91.334 E8.02449
G1 X135.62 Y92.166 E8.07372
G1 X135.994 Y92.438 E8.0891
G1 X137.173 Y93.352 E8.13872
G1 X137.531 Y93.648 E8.15417
G1 X138.65 Y94.634 E8.20377
G1 X138.993 Y94.956 E8.21942
G1 X140.057 Y96.021 E8.26949
G1 X140.375 Y96.359 E8.28492
G1 X141.352 Y97.468 E8.33408
G1 X141.65 Y97.829 E8.34965
G1 X142.573 Y99.021 E8.39979
G1 X142.841 Y99.391 E8.41499
G1 X143.672 Y100.613 E8.46414
G1 X143.925 Y101.011 E8.47983
G1 X144.672 Y102.276 E8.52869
G1 X144.829 Y102.557 E8.53939
G1 X144.951 Y102.788 E8.54808
G1 X145.589 Y104.042 E8.59488
G1 X145.786 Y104.459 E8.61022
G1 X146.374 Y105.818 E8.65947
G1 X146.546 Y106.254 E8.67506
G1 X147.056 Y107.673 E8.72521
G1 X147.201 Y108.12 E8.74084
G1 X147.616 Y109.555 E8.79052
G1 X147.728 Y109.994 E8.80559
G1 X148.05 Y111.432 E8.8546
G1 X148.138 Y111.894 E8.87025
G1 X148.38 Y113.434 E8.9221
G1 X148.404 Y113.611 E8.92804
G1 X148.438 Y113.911 E8.93808
G1 X148.566 Y115.27 E8.98348
G1 X148.587 Y115.539 E8.99245
G1 X148.6 Y115.805 E9.00131
G1 X148.646 Y117.266 E9.04993
G1 X148.646 Y117.732 E9.06543
G1 X148.599 Y119.223 E9.11504
G1 X148.57 Y119.684 E9.13041
G1 X148.43 Y121.171 E9.18008
G1 X148.371 Y121.638 E9.19574
G1 X148.137 Y123.111 E9.24535
G1 X148.05 Y123.566 E9.26075
G1 X147.724 Y125.023 E9.31041
G1 X147.61 Y125.469 E9.32572
G1 X147.192 Y126.91 E9.37563
G1 X147.045 Y127.363 E9.39147
G1 X146.537 Y128.769 E9.44119
G1 X146.37 Y129.189 E9.45622
G1 X145.781 Y130.552 E9.50561
G1 X145.581 Y130.978 E9.52126
G1 X144.904 Y132.306 E9.57084
G1 X144.678 Y132.717 E9.58644
G1 X143.912 Y134.01 E9.63642
G1 X143.661 Y134.403 E9.65193
G1 X142.822 Y135.635 E9.70151
G1 X142.552 Y136.007 E9.7168
G1 X141.634 Y137.19 E9.7666
G1 X141.338 Y137.548 E9.78205
G1 X140.36 Y138.657 E9.83123
G1 X140.043 Y138.995 E9.84664
G1 X138.992 Y140.046 E9.89608
G1 X138.646 Y140.369 E9.91182
G1 X137.508 Y141.37 E9.96223
G1 X137.154 Y141.663 E9.97751
G1 X135.994 Y142.562 E10.02633
G1 X135.623 Y142.832 E10.04159
G1 X134.388 Y143.672 E10.09127
G1 X133.994 Y143.922 E10.10679
G1 X132.711 Y144.681 E10.15637
G1 X132.3 Y144.907 E10.17197
G1 X130.962 Y145.588 E10.2219
G1 X130.538 Y145.787 E10.23748
G1 X129.19 Y146.369 E10.28631
G1 X128.844 Y146.508 E10.29872
G1 X128.631 Y146.587 E10.30627
G1 X127.346 Y147.05 E10.3517
G1 X126.899 Y147.195 E10.36733
G1 X125.468 Y147.61 E10.41689
G1 X125.017 Y147.726 E10.43238
G1 X123.546 Y148.054 E10.4825
G1 X123.093 Y148.14 E10.49784
G1 X121.621 Y148.373 E10.54741
G1 X121.149 Y148.432 E10.56323
G1 X119.642 Y148.572 E10.61357
G1 X119.191 Y148.6 E10.6286
G1 X117.734 Y148.646 E10.67708
G1 X117.267 Y148.646 E10.69261
G1 X115.777 Y148.599 E10.7422
G1 X115.321 Y148.571 E10.75739
G1 X113.888 Y148.437 E10.80526
G1 X113.612 Y148.406 E10.8145
G1 X113.299 Y148.362 E10.82501
G1 X111.886 Y148.137 E10.8726
G1 X111.436 Y148.051 E10.88784
G1 X109.977 Y147.725 E10.93756
G1 X109.527 Y147.609 E10.95302
G1 X108.098 Y147.194 E11.00251
G1 X107.652 Y147.049 E11.01811
G1 X106.232 Y146.537 E11.06831
G1 X105.802 Y146.367 E11.08369
G1 X104.439 Y145.777 E11.13309
G1 X104.016 Y145.578 E11.14864
G1 X102.683 Y144.898 E11.19841
G1 X102.271 Y144.671 E11.21406
G1 X100.981 Y143.906 E11.26394
G1 X100.593 Y143.659 E11.27924
G1 X99.376 Y142.831 E11.32819
G1 X99.003 Y142.56 E11.34353
G1 X97.821 Y141.643 E11.39329
G1 X97.466 Y141.349 E11.40862
G1 X96.35 Y140.366 E11.45808
G1 X96.008 Y140.046 E11.47366
G1 X94.953 Y138.991 E11.52328
G1 X94.634 Y138.65 E11.53881
G1 X93.648 Y137.531 E11.58842
G1 X93.352 Y137.173 E11.60387
G1 X92.438 Y135.994 E11.65349
G1 X92.166 Y135.621 E11.66884
G1 X91.327 Y134.387 E11.71847
G1 X91.074 Y133.987 E11.73421
G1 X90.299 Y132.674 E11.78492
G1 X90.077 Y132.269 E11.80028
G1 X89.444 Y131.025 E11.84671
G1 X89.313 Y130.754 E11.85672
G1 X89.174 Y130.446 E11.86796
G1 X88.619 Y129.161 E11.91451
G1 X88.449 Y128.732 E11.92986
G1 X87.949 Y127.342 E11.97899
G1 X87.805 Y126.898 E11.99452
G1 X87.422 Y125.577 E12.04026
G1 X87.324 Y125.215 E12.05274
G1 X87.257 Y124.941 E12.06212
G1 X86.945 Y123.542 E12.10979
G1 X86.859 Y123.086 E12.12523
G1 X86.645 Y121.732 E12.17082
G1 X86.595 Y121.375 E12.18281
G1 X86.562 Y121.089 E12.19239
G1 X86.436 Y119.748 E12.23718
G1 X86.413 Y119.447 E12.24723
G1 X86.399 Y119.161 E12.25675
G1 X86.354 Y117.734 E12.30423
G1 X86.354 Y117.268 E12.31973
G1 X86.401 Y115.777 E12.36935
G1 X86.43 Y115.316 E12.38471
G1 X86.57 Y113.829 E12.43439
G1 X86.629 Y113.362 E12.45005
G1 X86.863 Y111.889 E12.49965
G1 X86.95 Y111.434 E12.51506
G1 X87.276 Y109.977 E12.56472
G1 X87.39 Y109.531 E12.58003
G1 X87.809 Y108.087 E12.63004
G1 X87.955 Y107.639 E12.64571
G1 X88.457 Y106.247 E12.69493
G1 X88.626 Y105.821 E12.71017
G1 X89.22 Y104.447 E12.75996
G1 X89.418 Y104.024 E12.77549
G1 X90.093 Y102.699 E12.82495
G1 X90.319 Y102.289 E12.84052
G1 X91.079 Y101.005 E12.89015
G1 X91.327 Y100.613 E12.90557
G1 X92.166 Y99.379 E12.9552
G1 X92.438 Y99.006 E12.97056
G1 X93.352 Y97.827 E13.02018
G1 X93.648 Y97.468 E13.03565
G1 X94.635 Y96.348 E13.0853
G1 X94.954 Y96.008 E13.10081
G0 F6000 X95.237 Y96.291
G1 F1200 X96.291 Y95.237 E13.15039
G1 X96.618 Y94.931 E13.16528
G1 X97.755 Y93.931 E13.21565
G1 X98.089 Y93.655 E13.23006
G1 X99.25 Y92.755 E13.27891
G1 X99.609 Y92.494 E13.29368
G1 X100.865 Y91.642 E13.34416
G1 X101.229 Y91.411 E13.3585
G1 X102.491 Y90.664 E13.40727
G1 X102.884 Y90.448 E13.42219
G1 X104.231 Y89.763 E13.47245
G1 X104.628 Y89.577 E13.48703
G1 X105.945 Y89.008 E13.53475
G1 X106.237 Y88.89 E13.54522
G1 X106.494 Y88.793 E13.55436
G1 X107.826 Y88.315 E13.60143
G1 X108.246 Y88.179 E13.61611
G1 X109.661 Y87.77 E13.6651
G1 X110.073 Y87.665 E13.67924
G1 X111.518 Y87.341 E13.7285
G1 X111.952 Y87.258 E13.74319
G1 X113.425 Y87.024 E13.7928
G1 X113.867 Y86.968 E13.80762
G1 X115.354 Y86.828 E13.85729
G1 X115.79 Y86.8 E13.87183
G1 X117.288 Y86.753 E13.92167
G1 X117.725 Y86.753 E13.93621
G1 X119.109 Y86.796 E13.98226
G1 X119.36 Y86.809 E13.99062
G1 X119.737 Y86.836 E14.00319
G1 X121.086 Y86.962 E14.04826
G1 X121.478 Y87.01 E14.06139
G1 X121.621 Y87.031 E14.0662
G1 X123.049 Y87.258 E14.11429
G1 X123.48 Y87.34 E14.12888
G1 X124.953 Y87.67 E14.17909
G1 X125.375 Y87.779 E14.19359
G1 X126.715 Y88.168 E14.23999
G1 X127.001 Y88.257 E14.24996
G1 X127.247 Y88.34 E14.25859
G1 X128.629 Y88.838 E14.30745
G1 X129.033 Y88.998 E14.3219
G1 X130.392 Y89.586 E14.37115
G1 X130.791 Y89.773 E14.38581
G1 X132.131 Y90.456 E14.43583
G1 X132.521 Y90.671 E14.45065
G1 X133.805 Y91.432 E14.50029
G1 X134.171 Y91.665 E14.51472
G1 X135.395 Y92.497 E14.56394
G1 X135.749 Y92.754 E14.57849
G1 X136.928 Y93.668 E14.62811
G1 X137.267 Y93.948 E14.64273
G1 X138.386 Y94.934 E14.69234
G1 X138.71 Y95.239 E14.70714
G1 X139.774 Y96.304 E14.75721
G1 X140.074 Y96.624 E14.7718
G1 X141.051 Y97.733 E14.82096
G1 X141.334 Y98.074 E14.8357
G1 X142.257 Y99.266 E14.88584
G1 X142.51 Y99.616 E14.9002
G1 X143.341 Y100.838 E14.94935
G1 X143.581 Y101.215 E14.96422
G1 X144.328 Y102.48 E15.01308
G1 X144.476 Y102.745 E15.02318
G1 X144.595 Y102.97 E15.03164
G1 X145.233 Y104.224 E15.07844
G1 X145.418 Y104.618 E15.09291
G1 X146.006 Y105.977 E15.14216
G1 X146.169 Y106.389 E15.1569
G1 X146.679 Y107.808 E15.20705
G1 X146.816 Y108.231 E15.22184
G1 X147.231 Y109.666 E15.27153
G1 X147.338 Y110.081 E15.28578
G1 X147.66 Y111.519 E15.33479
G1 X147.743 Y111.956 E15.34959
G1 X147.984 Y113.487 E15.40114
G1 X148.008 Y113.664 E15.40708
G1 X148.04 Y113.949 E15.41661
G1 X148.168 Y115.308 E15.46202
G1 X148.188 Y115.566 E15.47062
G1 X148.201 Y115.818 E15.47901
G1 X148.247 Y117.279 E15.52763
G1 X148.247 Y117.72 E15.5423
G1 X148.2 Y119.211 E15.59192
G1 X148.172 Y119.646 E15.60641
