;FLAVOR:Marlin
;TIME:3710
;Filament used: 1.80386m
;Layer height: 0.2
;MINX:86.954
;MINY:86.954
;MINZ:0.2
;MAXX:148.049
;MAXY:148.046
;MAXZ:4.4
;Generated with Cura_SteamEngine 4.8.0
M140 S60
M105
M190 S60
M104 S200
M105
M109 S200
M82 ;absolute extrusion mode
; Ender 3 Custom Start G-code
G92 E0 ; Reset Extruder
G28 ; Home all axes
G1 Z2.0 F3000 ; Move Z Axis up little to prevent scratching of Heat Bed
G1 X0.1 Y20 Z0.3 F5000.0 ; Move to start position
G1 X0.1 Y200.0 Z0.3 F1500.0 E15 ; Draw the first line
G1 X0.4 Y200.0 Z0.3 F5000.0 ; Move to side a little
G1 X0.4 Y20 Z0.3 F1500.0 E30 ; Draw the second line
G92 E0 ; Reset Extruder
G1 Z2.0 F3000 ; Move Z Axis up little to prevent scratching of Heat Bed
G1 X5 Y20 Z0.3 F5000.0 ; Move over to prevent blob squish
G92 E0
G92 E0
G1 F2700 E-5
;LAYER_COUNT:22
;LAYER:0
M107
G0 F6000 X95.411 Y96.401 Z0.2
;TYPE:SKIRT
G1 F2700 E0
G1 F1200 X96.411 Y95.401 E0.04704
G1 X96.771 Y95.062 E0.06348
G1 X97.843 Y94.118 E0.11099
G1 X98.218 Y93.808 E0.12717
G1 X99.354 Y92.927 E0.17499
G1 X99.751 Y92.639 E0.1913
G1 X100.927 Y91.84 E0.23859
G1 X101.337 Y91.58 E0.25474
G1 X102.572 Y90.849 E0.30247
G1 X103.006 Y90.61 E0.31895
G1 X104.275 Y89.964 E0.36631
G1 X104.718 Y89.756 E0.38259
G1 X106.029 Y89.189 E0.43009
G1 X106.486 Y89.008 E0.44644
G1 X107.832 Y88.524 E0.49402
G1 X108.295 Y88.374 E0.51021
G1 X109.665 Y87.976 E0.55766
G1 X110.135 Y87.855 E0.5738
G1 X111.531 Y87.542 E0.62138
G1 X112.016 Y87.449 E0.63781
G1 X113.429 Y87.225 E0.68539
G1 X113.925 Y87.163 E0.70202
G1 X115.371 Y87.028 E0.75032
G1 X115.855 Y86.998 E0.76645
G1 X117.085 Y86.96 E0.80738
G1 X117.499 Y86.954 E0.82115
G1 X117.836 Y86.957 E0.83236
G1 X119.186 Y87 E0.87728
G1 X119.669 Y87.03 E0.89338
G1 X121.061 Y87.161 E0.93988
G1 X121.542 Y87.222 E0.95601
G1 X122.96 Y87.445 E1.00375
G1 X123.453 Y87.539 E1.02044
G1 X124.864 Y87.855 E1.06853
G1 X125.34 Y87.977 E1.08488
G1 X126.741 Y88.385 E1.13341
G1 X127.205 Y88.536 E1.14964
G1 X128.52 Y89.01 E1.19613
G1 X128.971 Y89.189 E1.21227
G1 X130.282 Y89.756 E1.25978
G1 X130.724 Y89.964 E1.27602
G1 X131.999 Y90.613 E1.32361
G1 X132.436 Y90.853 E1.34019
G1 X133.665 Y91.581 E1.3877
G1 X134.081 Y91.845 E1.40409
G1 X135.288 Y92.667 E1.45266
G1 X135.68 Y92.953 E1.4688
G1 X136.784 Y93.81 E1.51528
G1 X137.156 Y94.117 E1.53132
G1 X138.228 Y95.061 E1.57883
G1 X138.588 Y95.4 E1.59528
G1 X139.599 Y96.411 E1.64283
G1 X139.938 Y96.771 E1.65928
G1 X140.882 Y97.843 E1.70679
G1 X141.191 Y98.216 E1.7229
G1 X142.067 Y99.345 E1.77043
G1 X142.359 Y99.748 E1.78698
G1 X143.171 Y100.945 E1.83509
G1 X143.426 Y101.348 E1.85095
G1 X144.146 Y102.563 E1.89792
G1 X144.391 Y103.008 E1.91482
G1 X145.049 Y104.304 E1.96316
G1 X145.255 Y104.742 E1.97926
G1 X145.816 Y106.041 E2.02632
G1 X145.994 Y106.492 E2.04245
G1 X146.475 Y107.828 E2.08968
G1 X146.628 Y108.3 E2.10618
G1 X147.028 Y109.681 E2.154
G1 X147.147 Y110.144 E2.1699
G1 X147.458 Y111.531 E2.21718
G1 X147.55 Y112.014 E2.23353
G1 X147.774 Y113.424 E2.28102
G1 X147.837 Y113.917 E2.29755
G1 X147.971 Y115.341 E2.34512
G1 X148.001 Y115.825 E2.36125
G1 X148.045 Y117.213 E2.40744
G1 X148.049 Y117.536 E2.41818
G1 X148.044 Y117.807 E2.42719
G1 X148.001 Y119.177 E2.47278
G1 X147.97 Y119.665 E2.48905
G1 X147.836 Y121.084 E2.53645
G1 X147.775 Y121.573 E2.55284
G1 X147.551 Y122.985 E2.60039
G1 X147.458 Y123.469 E2.61679
G1 X147.145 Y124.865 E2.66437
G1 X147.025 Y125.334 E2.68047
G1 X146.626 Y126.708 E2.72806
G1 X146.474 Y127.174 E2.74436
G1 X145.991 Y128.516 E2.7918
G1 X145.811 Y128.971 E2.80807
G1 X145.244 Y130.282 E2.85558
G1 X145.037 Y130.722 E2.87176
G1 X144.389 Y131.996 E2.91929
G1 X144.147 Y132.437 E2.93603
G1 X143.415 Y133.672 E2.98378
G1 X143.154 Y134.083 E2.99997
G1 X142.347 Y135.269 E3.04768
G1 X142.06 Y135.663 E3.06389
G1 X141.187 Y136.788 E3.11126
G1 X140.878 Y137.162 E3.12739
G1 X139.938 Y138.229 E3.17469
G1 X139.6 Y138.588 E3.19109
G1 X138.589 Y139.599 E3.23864
G1 X138.229 Y139.938 E3.25509
G1 X137.157 Y140.882 E3.3026
G1 X136.784 Y141.191 E3.31871
G1 X135.655 Y142.067 E3.36624
G1 X135.253 Y142.358 E3.38274
G1 X134.058 Y143.169 E3.43078
G1 X133.653 Y143.426 E3.44673
G1 X132.434 Y144.148 E3.49385
G1 X131.997 Y144.388 E3.51043
G1 X130.724 Y145.036 E3.55794
G1 X130.279 Y145.246 E3.57431
G1 X128.964 Y145.814 E3.62195
G1 X128.507 Y145.994 E3.63829
G1 X127.145 Y146.483 E3.68642
G1 X126.676 Y146.635 E3.70282
G1 X125.31 Y147.03 E3.75011
G1 X124.842 Y147.15 E3.76618
G1 X123.431 Y147.465 E3.81427
G1 X122.95 Y147.556 E3.83055
G1 X121.558 Y147.776 E3.87742
G1 X121.07 Y147.838 E3.89378
G1 X119.677 Y147.969 E3.94032
G1 X119.266 Y147.996 E3.95402
G1 X119.018 Y148.006 E3.96227
G1 X117.73 Y148.046 E4.00513
G1 X117.24 Y148.046 E4.02143
G1 X115.825 Y148.001 E4.06852
G1 X115.34 Y147.97 E4.08468
G1 X113.91 Y147.835 E4.13246
G1 X113.427 Y147.775 E4.14864
G1 X112.134 Y147.571 E4.19218
G1 X111.876 Y147.525 E4.2009
G1 X111.428 Y147.436 E4.21609
G1 X110.132 Y147.145 E4.26027
G1 X109.664 Y147.024 E4.27635
G1 X108.281 Y146.622 E4.32425
G1 X107.813 Y146.47 E4.34061
G1 X106.465 Y145.984 E4.38827
G1 X106.011 Y145.804 E4.40452
G1 X104.715 Y145.243 E4.45149
G1 X104.274 Y145.035 E4.46771
G1 X102.984 Y144.378 E4.51586
G1 X102.545 Y144.137 E4.53251
G1 X101.331 Y143.417 E4.57946
G1 X100.926 Y143.159 E4.59543
G1 X99.743 Y142.355 E4.643
G1 X99.345 Y142.067 E4.65934
G1 X98.216 Y141.191 E4.70687
G1 X97.843 Y140.882 E4.72298
G1 X96.771 Y139.938 E4.77049
G1 X96.405 Y139.594 E4.7872
G1 X95.379 Y138.566 E4.8355
G1 X95.046 Y138.211 E4.85169
G1 X94.117 Y137.156 E4.89845
G1 X93.804 Y136.776 E4.91482
G1 X92.919 Y135.633 E4.9629
G1 X92.633 Y135.24 E4.97907
G1 X91.831 Y134.059 E5.02655
G1 X91.571 Y133.649 E5.04269
G1 X90.845 Y132.422 E5.09011
G1 X90.606 Y131.987 E5.10662
G1 X89.963 Y130.723 E5.15379
G1 X89.756 Y130.282 E5.16999
G1 X89.189 Y128.971 E5.2175
G1 X89.006 Y128.51 E5.234
G1 X88.519 Y127.153 E5.28195
G1 X88.371 Y126.695 E5.29796
G1 X87.976 Y125.336 E5.34503
G1 X87.852 Y124.854 E5.36158
G1 X87.535 Y123.43 E5.4101
G1 X87.446 Y122.96 E5.42601
G1 X87.226 Y121.576 E5.47262
G1 X87.163 Y121.082 E5.48919
G1 X87.029 Y119.658 E5.53676
G1 X86.999 Y119.173 E5.55292
G1 X86.954 Y117.744 E5.60047
G1 X86.954 Y117.258 E5.61664
G1 X86.998 Y115.845 E5.66366
G1 X87.005 Y115.691 E5.66879
G1 X87.032 Y115.311 E5.68146
G1 X87.164 Y113.915 E5.72809
G1 X87.225 Y113.427 E5.74445
G1 X87.437 Y112.091 E5.78944
G1 X87.483 Y111.832 E5.79819
G1 X87.566 Y111.422 E5.81211
G1 X87.856 Y110.131 E5.85611
G1 X87.976 Y109.665 E5.87212
G1 X88.374 Y108.295 E5.91957
G1 X88.524 Y107.833 E5.93572
G1 X89.011 Y106.478 E5.98361
G1 X89.194 Y106.016 E6.00014
G1 X89.758 Y104.714 E6.04734
G1 X89.963 Y104.278 E6.06336
G1 X90.611 Y103.004 E6.1109
G1 X90.853 Y102.563 E6.12763
G1 X91.582 Y101.333 E6.17519
G1 X91.841 Y100.925 E6.19126
G1 X92.652 Y99.732 E6.23924
G1 X92.942 Y99.334 E6.25562
G1 X93.81 Y98.216 E6.30269
G1 X94.121 Y97.84 E6.31892
G1 X95.076 Y96.757 E6.36695
G1 X95.411 Y96.401 E6.38321
G0 F6000 X95.693 Y96.683
G1 F1200 X96.693 Y95.683 E6.43024
G1 X97.035 Y95.362 E6.44585
G1 X98.107 Y94.418 E6.49335
G1 X98.463 Y94.124 E6.50871
G1 X99.599 Y93.243 E6.55652
G1 X99.975 Y92.97 E6.57198
G1 X101.151 Y92.171 E6.61927
G1 X101.541 Y91.924 E6.63462
G1 X102.776 Y91.193 E6.68235
G1 X103.188 Y90.966 E6.698
G1 X104.457 Y90.32 E6.74536
G1 X104.877 Y90.123 E6.76079
G1 X106.188 Y89.556 E6.8083
G1 X106.621 Y89.385 E6.82378
G1 X107.967 Y88.901 E6.87136
G1 X108.407 Y88.758 E6.88674
G1 X109.777 Y88.36 E6.93419
G1 X110.222 Y88.245 E6.94948
G1 X111.618 Y87.932 E6.99706
G1 X112.078 Y87.844 E7.01264
G1 X113.491 Y87.62 E7.06023
G1 X113.962 Y87.561 E7.07601
G1 X115.408 Y87.426 E7.12432
G1 X115.867 Y87.398 E7.13961
G1 X117.241 Y87.356 E7.18533
G1 X117.503 Y87.353 E7.19405
G1 X117.824 Y87.357 E7.20472
G1 X119.174 Y87.4 E7.24965
G1 X119.631 Y87.429 E7.26488
G1 X121.023 Y87.56 E7.31138
G1 X121.48 Y87.617 E7.3267
G1 X122.898 Y87.84 E7.37444
G1 X123.365 Y87.929 E7.39025
G1 X124.776 Y88.245 E7.43835
G1 X125.228 Y88.361 E7.45387
G1 X126.629 Y88.769 E7.5024
G1 X127.069 Y88.912 E7.51779
G1 X128.384 Y89.386 E7.56428
G1 X128.812 Y89.556 E7.5796
G1 X130.123 Y90.123 E7.6271
G1 X130.543 Y90.32 E7.64253
G1 X131.818 Y90.969 E7.69012
G1 X132.232 Y91.197 E7.70584
G1 X133.461 Y91.925 E7.75335
G1 X133.855 Y92.176 E7.76889
G1 X135.062 Y92.998 E7.81746
G1 X135.435 Y93.269 E7.83279
G1 X136.539 Y94.126 E7.87927
G1 X136.892 Y94.417 E7.89449
G1 X137.964 Y95.361 E7.942
G1 X138.306 Y95.682 E7.9576
G1 X139.317 Y96.693 E8.00515
G1 X139.638 Y97.035 E8.02075
G1 X140.582 Y98.107 E8.06826
G1 X140.875 Y98.462 E8.08357
G1 X141.751 Y99.591 E8.1311
G1 X142.028 Y99.973 E8.1468
G1 X142.84 Y101.17 E8.1949
G1 X143.082 Y101.551 E8.20992
G1 X143.802 Y102.766 E8.25689
G1 X144.034 Y103.189 E8.27294
G1 X144.692 Y104.485 E8.32128
G1 X144.888 Y104.901 E8.33657
G1 X145.449 Y106.2 E8.38364
G1 X145.618 Y106.627 E8.39891
G1 X146.099 Y107.963 E8.44614
G1 X146.244 Y108.411 E8.4618
G1 X146.644 Y109.792 E8.50962
G1 X146.757 Y110.232 E8.52473
G1 X147.068 Y111.619 E8.57201
G1 X147.155 Y112.077 E8.58751
G1 X147.379 Y113.487 E8.635
G1 X147.438 Y113.955 E8.65069
G1 X147.572 Y115.379 E8.69826
G1 X147.601 Y115.838 E8.71355
G1 X147.645 Y117.226 E8.75974
G1 X147.649 Y117.533 E8.76995
G1 X147.644 Y117.794 E8.77864
G1 X147.601 Y119.164 E8.82423
G1 X147.572 Y119.628 E8.83969
G1 X147.438 Y121.047 E8.88709
G1 X147.38 Y121.51 E8.90261
G1 X147.156 Y122.922 E8.95016
G1 X147.068 Y123.382 E8.96574
G1 X146.755 Y124.778 E9.01333
G1 X146.64 Y125.223 E9.02861
G1 X146.241 Y126.597 E9.0762
G1 X146.098 Y127.039 E9.09165
G1 X145.615 Y128.381 E9.13909
G1 X145.444 Y128.812 E9.15451
G1 X144.877 Y130.123 E9.20202
G1 X144.681 Y130.541 E9.21737
G1 X144.033 Y131.815 E9.26491
G1 X143.803 Y132.233 E9.28078
G1 X143.071 Y133.468 E9.32853
G1 X142.823 Y133.858 E9.3439
G1 X142.016 Y135.044 E9.39162
G1 X141.744 Y135.418 E9.407
G1 X140.871 Y136.543 E9.45436
G1 X140.578 Y136.898 E9.46967
G1 X139.638 Y137.965 E9.51696
G1 X139.318 Y138.306 E9.53252
G1 X138.307 Y139.317 E9.58007
G1 X137.965 Y139.638 E9.59567
G1 X136.893 Y140.582 E9.64318
G1 X136.538 Y140.875 E9.65849
G1 X135.409 Y141.751 E9.70602
G1 X135.028 Y142.027 E9.72167
G1 X133.833 Y142.838 E9.7697
G1 X133.449 Y143.082 E9.78483
G1 X132.23 Y143.804 E9.83196
G1 X131.816 Y144.032 E9.84768
G1 X130.543 Y144.68 E9.89519
G1 X130.12 Y144.878 E9.91072
G1 X128.805 Y145.446 E9.95836
G1 X128.372 Y145.618 E9.97386
G1 X127.01 Y146.107 E10.02199
G1 X126.565 Y146.251 E10.03755
G1 X125.199 Y146.646 E10.08484
G1 X124.755 Y146.759 E10.10008
G1 X123.344 Y147.074 E10.14817
G1 X122.887 Y147.161 E10.16364
G1 X121.495 Y147.381 E10.21051
G1 X121.033 Y147.439 E10.226
G1 X119.64 Y147.57 E10.27253
G1 X119.25 Y147.597 E10.28554
G1 X117.718 Y147.646 E10.33652
G1 X117.253 Y147.646 E10.35198
G1 X115.838 Y147.601 E10.39907
G1 X115.377 Y147.572 E10.41443
G1 X113.947 Y147.437 E10.46221
G1 X113.49 Y147.38 E10.47752
G1 X112.197 Y147.176 E10.52106
G1 X111.738 Y147.092 E10.53658
G1 X111.516 Y147.045 E10.54413
G1 X110.22 Y146.754 E10.58831
G1 X109.776 Y146.64 E10.60355
G1 X108.393 Y146.238 E10.65146
G1 X107.948 Y146.093 E10.66702
G1 X106.6 Y145.607 E10.71468
G1 X106.17 Y145.437 E10.73006
G1 X104.874 Y144.876 E10.77703
G1 X104.456 Y144.679 E10.7924
G1 X103.166 Y144.022 E10.84055
G1 X102.749 Y143.793 E10.85637
G1 X101.535 Y143.073 E10.90332
G1 X101.15 Y142.828 E10.9185
G1 X99.967 Y142.024 E10.96607
G1 X99.591 Y141.751 E10.98152
G1 X98.462 Y140.875 E11.02905
G1 X98.107 Y140.582 E11.04436
G1 X97.035 Y139.638 E11.09187
G1 X96.688 Y139.311 E11.10773
G1 X95.662 Y138.283 E11.15604
G1 X95.346 Y137.946 E11.1714
G1 X94.417 Y136.891 E11.21816
G1 X94.12 Y136.531 E11.23368
G1 X93.235 Y135.388 E11.28176
G1 X92.964 Y135.015 E11.29709
G1 X92.162 Y133.834 E11.34458
G1 X91.915 Y133.445 E11.3599
G1 X91.189 Y132.218 E11.40732
G1 X90.962 Y131.805 E11.42299
G1 X90.319 Y130.541 E11.47016
G1 X90.123 Y130.123 E11.48552
G1 X89.556 Y128.812 E11.53303
G1 X89.383 Y128.375 E11.54866
G1 X88.896 Y127.018 E11.59661
G1 X88.755 Y126.583 E11.61182
G1 X88.36 Y125.224 E11.65889
G1 X88.243 Y124.767 E11.67458
G1 X87.926 Y123.343 E11.7231
G1 X87.841 Y122.897 E11.7382
G1 X87.621 Y121.513 E11.78481
G1 X87.562 Y121.044 E11.80054
G1 X87.428 Y119.62 E11.84811
G1 X87.399 Y119.16 E11.86344
G1 X87.354 Y117.731 E11.91099
G1 X87.354 Y117.27 E11.92632
G1 X87.398 Y115.863 E11.97314
G1 X87.405 Y115.709 E11.97827
G1 X87.43 Y115.348 E11.99031
G1 X87.562 Y113.952 E12.03694
G1 X87.62 Y113.489 E12.05246
G1 X87.832 Y112.153 E12.09745
G1 X87.911 Y111.727 E12.11187
G1 X87.956 Y111.51 E12.11924
G1 X88.246 Y110.219 E12.16324
G1 X88.36 Y109.777 E12.17843
G1 X88.758 Y108.407 E12.22588
G1 X88.9 Y107.968 E12.24122
G1 X89.387 Y106.613 E12.28911
G1 X89.561 Y106.175 E12.30479
G1 X90.125 Y104.873 E12.35198
G1 X90.319 Y104.459 E12.36719
G1 X90.967 Y103.185 E12.41473
G1 X91.197 Y102.767 E12.4306
G1 X91.926 Y101.537 E12.47815
G1 X92.172 Y101.15 E12.4934
G1 X92.983 Y99.957 E12.54138
G1 X93.258 Y99.579 E12.55693
G1 X94.126 Y98.461 E12.60401
G1 X94.421 Y98.105 E12.61938
G1 X95.376 Y97.022 E12.66741
G1 X95.693 Y96.683 E12.68285
G0 F6000 X95.976 Y96.966
G1 F1200 X96.976 Y95.966 E12.72988
G1 X97.3 Y95.663 E12.74464
G1 X98.372 Y94.719 E12.79215
G1 X98.708 Y94.441 E12.80665
G1 X99.844 Y93.56 E12.85447
G1 X100.2 Y93.301 E12.86911
G1 X101.376 Y92.502 E12.9164
G1 X101.744 Y92.268 E12.9309
G1 X102.979 Y91.537 E12.97863
G1 X103.369 Y91.323 E12.99343
G1 X104.638 Y90.677 E13.04079
G1 X105.035 Y90.49 E13.05539
G1 X106.346 Y89.923 E13.10289
G1 X106.756 Y89.761 E13.11756
G1 X108.102 Y89.277 E13.16513
G1 X108.518 Y89.142 E13.17968
G1 X109.888 Y88.744 E13.22713
G1 X110.31 Y88.636 E13.24162
G1 X111.706 Y88.323 E13.2892
G1 X112.141 Y88.239 E13.30393
G1 X113.554 Y88.015 E13.35152
G1 X113.999 Y87.959 E13.36644
G1 X115.445 Y87.824 E13.41474
G1 X115.88 Y87.797 E13.42923
G1 X117.246 Y87.756 E13.47469
G1 X117.508 Y87.753 E13.4834
G1 X117.811 Y87.757 E13.49348
G1 X119.161 Y87.8 E13.53841
G1 X119.594 Y87.827 E13.55284
G1 X120.986 Y87.958 E13.59934
G1 X121.417 Y88.012 E13.61379
G1 X122.835 Y88.235 E13.66153
G1 X123.278 Y88.319 E13.67652
G1 X124.689 Y88.635 E13.72462
G1 X125.116 Y88.745 E13.73928
G1 X126.517 Y89.153 E13.78782
G1 X126.934 Y89.289 E13.8024
G1 X128.249 Y89.763 E13.8489
G1 X128.654 Y89.923 E13.86338
G1 X129.965 Y90.49 E13.91089
G1 X130.361 Y90.677 E13.92545
G1 X131.636 Y91.326 E13.97304
G1 X132.029 Y91.541 E13.98794
G1 X133.258 Y92.269 E14.03545
G1 X133.63 Y92.506 E14.05012
G1 X134.837 Y93.328 E14.09869
G1 X135.189 Y93.584 E14.11316
G1 X136.293 Y94.441 E14.15965
G1 X136.627 Y94.718 E14.17408
G1 X137.699 Y95.662 E14.22159
G1 X138.023 Y95.965 E14.23634
G1 X139.034 Y96.976 E14.2839
G1 X139.337 Y97.3 E14.29865
G1 X140.281 Y98.372 E14.34616
G1 X140.558 Y98.707 E14.36062
G1 X141.434 Y99.836 E14.40815
G1 X141.697 Y100.197 E14.423
G1 X142.509 Y101.394 E14.47111
G1 X142.738 Y101.755 E14.48533
G1 X143.458 Y102.97 E14.5323
G1 X143.678 Y103.37 E14.54749
G1 X144.336 Y104.666 E14.59583
G1 X144.52 Y105.06 E14.61029
G1 X145.081 Y106.359 E14.65735
G1 X145.241 Y106.763 E14.67181
G1 X145.722 Y108.099 E14.71903
G1 X145.86 Y108.523 E14.73387
G1 X146.26 Y109.904 E14.78169
G1 X146.366 Y110.319 E14.79593
G1 X146.677 Y111.706 E14.84321
G1 X146.76 Y112.14 E14.85791
G1 X146.984 Y113.55 E14.90539
G1 X147.04 Y113.992 E14.92021
G1 X147.174 Y115.416 E14.96778
G1 X147.201 Y115.85 E14.98224
G1 X147.245 Y117.238 E15.02843
G1 X147.249 Y117.529 E15.03811
G1 X147.245 Y117.782 E15.04653
G1 X147.202 Y119.152 E15.09212
G1 X147.174 Y119.59 E15.10671
G1 X147.04 Y121.009 E15.15412
G1 X146.985 Y121.448 E15.16883
G1 X146.761 Y122.86 E15.21639
G1 X146.677 Y123.294 E15.23109
G1 X146.364 Y124.69 E15.27867
G1 X146.256 Y125.111 E15.29313
G1 X145.857 Y126.485 E15.34072
G1 X145.721 Y126.904 E15.35537
G1 X145.238 Y128.246 E15.40281
G1 X145.077 Y128.654 E15.41739
G1 X144.51 Y129.965 E15.4649
G1 X144.324 Y130.36 E15.47942
G1 X143.676 Y131.634 E15.52696
G1 X143.459 Y132.029 E15.54195
G1 X142.727 Y133.264 E15.5897
G1 X142.492 Y133.633 E15.60425
G1 X141.685 Y134.819 E15.65196
G1 X141.428 Y135.172 E15.66649
G1 X140.555 Y136.297 E15.71385
G1 X140.277 Y136.633 E15.72835
G1 X139.337 Y137.7 E15.77565
