;FLAVOR:Marlin
;TIME:3739
;Filament used: 1.81623m
;Layer height: 0.2
;MINX:86.954
;MINY:86.954
;MINZ:0.2
;MAXX:148.046
;MAXY:148.045
;MAXZ:4.4
;Generated with Cura_SteamEngine 4.8.0
M140 S60
M105
M190 S60
M104 S200
M105
M109 S200
M82 ;absolute extrusion mode
; Ender 3 Custom Start G-code
G92 E0 ; Reset Extruder
G28 ; Home all axes
G1 Z2.0 F3000 ; Move Z Axis up little to prevent scratching of Heat Bed
G1 X0.1 Y20 Z0.3 F5000.0 ; Move to start position
G1 X0.1 Y200.0 Z0.3 F1500.0 E15 ; Draw the first line
G1 X0.4 Y200.0 Z0.3 F5000.0 ; Move to side a little
G1 X0.4 Y20 Z0.3 F1500.0 E30 ; Draw the second line
G92 E0 ; Reset Extruder
G1 Z2.0 F3000 ; Move Z Axis up little to prevent scratching of Heat Bed
G1 X5 Y20 Z0.3 F5000.0 ; Move over to prevent blob squish
G92 E0
G92 E0
G1 F2700 E-5
;LAYER_COUNT:22
;LAYER:0
M107
G0 F6000 X95.413 Y96.399 Z0.2
;TYPE:SKIRT
G1 F2700 E0
G1 F1200 X96.416 Y95.396 E0.04718
G1 X96.784 Y95.05 E0.06398
G1 X97.875 Y94.092 E0.11227
G1 X98.243 Y93.788 E0.12814
G1 X99.355 Y92.926 E0.17494
G1 X99.751 Y92.639 E0.19121
G1 X100.927 Y91.84 E0.2385
G1 X101.338 Y91.579 E0.25469
G1 X102.57 Y90.85 E0.3023
G1 X103.001 Y90.613 E0.31866
G1 X104.273 Y89.965 E0.36614
G1 X104.72 Y89.755 E0.38257
G1 X106.023 Y89.192 E0.42978
G1 X106.472 Y89.014 E0.44584
G1 X107.826 Y88.526 E0.49371
G1 X108.305 Y88.371 E0.51046
G1 X109.706 Y87.966 E0.55896
G1 X110.166 Y87.848 E0.57476
G1 X111.531 Y87.542 E0.62128
G1 X112.021 Y87.448 E0.63788
G1 X113.44 Y87.224 E0.68566
G1 X113.927 Y87.163 E0.70198
G1 X115.354 Y87.029 E0.74965
G1 X115.835 Y86.999 E0.76568
G1 X117.252 Y86.954 E0.81284
G1 X117.746 Y86.954 E0.82927
G1 X119.173 Y86.999 E0.87675
G1 X119.658 Y87.029 E0.89292
G1 X121.082 Y87.163 E0.94049
G1 X121.575 Y87.226 E0.95702
G1 X122.997 Y87.452 E1.00491
G1 X123.481 Y87.544 E1.02129
G1 X124.867 Y87.855 E1.06854
G1 X125.334 Y87.975 E1.08458
G1 X126.708 Y88.374 E1.13216
G1 X127.042 Y88.479 E1.14381
G1 X127.779 Y88.763 E1.17008
G1 X127.802 Y88.775 E1.17094
G1 X128.079 Y88.852 E1.1805
G1 X128.537 Y89.017 E1.19669
G1 X128.996 Y89.199 E1.21312
G1 X130.299 Y89.764 E1.26035
G1 X130.737 Y89.97 E1.27645
G1 X132.007 Y90.617 E1.32386
G1 X132.441 Y90.856 E1.34034
G1 X133.665 Y91.581 E1.38765
G1 X134.081 Y91.845 E1.40404
G1 X135.288 Y92.667 E1.45261
G1 X135.68 Y92.953 E1.46875
G1 X136.784 Y93.81 E1.51523
G1 X137.156 Y94.117 E1.53128
G1 X138.228 Y95.061 E1.57879
G1 X138.588 Y95.4 E1.59523
G1 X139.599 Y96.411 E1.64279
G1 X139.941 Y96.775 E1.6594
G1 X140.896 Y97.861 E1.7075
G1 X141.202 Y98.231 E1.72347
G1 X142.067 Y99.346 E1.7704
G1 X142.359 Y99.748 E1.78693
G1 X143.171 Y100.945 E1.83504
G1 X143.431 Y101.355 E1.85119
G1 X144.161 Y102.59 E1.8989
G1 X144.4 Y103.027 E1.91547
G1 X145.043 Y104.293 E1.96269
G1 X145.247 Y104.725 E1.97858
G1 X145.81 Y106.025 E2.0257
G1 X145.992 Y106.486 E2.04219
G1 X146.446 Y107.749 E2.08683
G1 X146.53 Y107.995 E2.09547
G1 X146.655 Y108.395 E2.10941
G1 X147.024 Y109.665 E2.1534
G1 X147.146 Y110.139 E2.16968
G1 X147.445 Y111.476 E2.21524
G1 X147.496 Y111.723 E2.22363
G1 X147.568 Y112.12 E2.23705
G1 X147.777 Y113.444 E2.28163
G1 X147.838 Y113.934 E2.29806
G1 X147.961 Y115.25 E2.34202
G1 X147.991 Y115.663 E2.35579
G1 X148.004 Y115.927 E2.36458
G1 X148.046 Y117.252 E2.40868
G1 X148.046 Y117.743 E2.42501
G1 X148.003 Y119.115 E2.47066
G1 X147.989 Y119.394 E2.47995
G1 X147.965 Y119.72 E2.49082
G1 X147.837 Y121.081 E2.53629
G1 X147.775 Y121.573 E2.55278
G1 X147.551 Y122.985 E2.60034
G1 X147.458 Y123.469 E2.61673
G1 X147.145 Y124.865 E2.66431
G1 X147.027 Y125.327 E2.68017
G1 X146.652 Y126.623 E2.72504
G1 X146.544 Y126.968 E2.73707
G1 X146.463 Y127.203 E2.74534
G1 X145.991 Y128.515 E2.79171
G1 X145.813 Y128.966 E2.80784
G1 X145.257 Y130.254 E2.8545
G1 X145.05 Y130.697 E2.87076
G1 X144.427 Y131.923 E2.9165
G1 X144.303 Y132.156 E2.92528
G1 X144.09 Y132.534 E2.93971
G1 X143.416 Y133.67 E2.98364
G1 X143.16 Y134.073 E2.99952
G1 X142.357 Y135.255 E3.04705
G1 X142.066 Y135.655 E3.0635
G1 X141.188 Y136.786 E3.11112
G1 X140.881 Y137.157 E3.12714
G1 X139.939 Y138.227 E3.17456
G1 X139.6 Y138.588 E3.19103
G1 X138.589 Y139.599 E3.23858
G1 X138.229 Y139.938 E3.25503
G1 X137.157 Y140.882 E3.30254
G1 X136.784 Y141.191 E3.31865
G1 X135.655 Y142.067 E3.36618
G1 X135.257 Y142.355 E3.38251
G1 X134.074 Y143.159 E3.43009
G1 X133.665 Y143.419 E3.44621
G1 X132.436 Y144.147 E3.49372
G1 X131.997 Y144.388 E3.51037
G1 X130.721 Y145.037 E3.55799
G1 X130.283 Y145.243 E3.57409
G1 X128.973 Y145.81 E3.62156
G1 X128.514 Y145.992 E3.63799
G1 X127.168 Y146.476 E3.68556
G1 X126.705 Y146.626 E3.70175
G1 X125.335 Y147.024 E3.7492
G1 X124.854 Y147.148 E3.76572
G1 X123.426 Y147.466 E3.81438
G1 X122.948 Y147.557 E3.83056
G1 X121.555 Y147.777 E3.87747
G1 X121.062 Y147.838 E3.89399
G1 X119.636 Y147.971 E3.94163
G1 X119.15 Y148.001 E3.95782
G1 X117.711 Y148.045 E4.0057
G1 X117.228 Y148.045 E4.02177
G1 X115.924 Y148.004 E4.06516
G1 X115.496 Y147.981 E4.07942
G1 X115.239 Y147.961 E4.08799
G1 X113.906 Y147.835 E4.13252
G1 X113.416 Y147.773 E4.14895
G1 X112.013 Y147.55 E4.1962
G1 X111.529 Y147.458 E4.21259
G1 X110.13 Y147.144 E4.26028
G1 X109.663 Y147.024 E4.27631
G1 X108.289 Y146.625 E4.3239
G1 X107.818 Y146.471 E4.34038
G1 X106.462 Y145.982 E4.38833
G1 X106.004 Y145.801 E4.40471
G1 X104.69 Y145.231 E4.45234
G1 X104.251 Y145.024 E4.46849
G1 X102.982 Y144.377 E4.51586
G1 X102.542 Y144.135 E4.53257
G1 X101.306 Y143.401 E4.58038
G1 X100.904 Y143.144 E4.59625
G1 X99.742 Y142.354 E4.64298
G1 X99.345 Y142.067 E4.65927
G1 X98.216 Y141.191 E4.7068
G1 X97.843 Y140.882 E4.72291
G1 X96.771 Y139.938 E4.77042
G1 X96.411 Y139.599 E4.78687
G1 X95.4 Y138.588 E4.83442
G1 X95.061 Y138.228 E4.85087
G1 X94.117 Y137.156 E4.89838
G1 X93.804 Y136.777 E4.91473
G1 X92.915 Y135.629 E4.96302
G1 X92.628 Y135.233 E4.97929
G1 X91.838 Y134.069 E5.02608
G1 X91.58 Y133.663 E5.04208
G1 X90.844 Y132.42 E5.09012
G1 X90.603 Y131.98 E5.10681
G1 X89.957 Y130.709 E5.15423
G1 X89.75 Y130.27 E5.17037
G1 X89.224 Y129.053 E5.21447
G1 X89.121 Y128.803 E5.22346
G1 X88.968 Y128.403 E5.2377
G1 X88.524 Y127.168 E5.28135
G1 X88.374 Y126.705 E5.29754
G1 X87.976 Y125.335 E5.34499
G1 X87.854 Y124.861 E5.36127
G1 X87.54 Y123.457 E5.40912
G1 X87.449 Y122.98 E5.42527
G1 X87.232 Y121.615 E5.47124
G1 X87.18 Y121.223 E5.4844
G1 X87.15 Y120.939 E5.49389
G1 X87.029 Y119.645 E5.53712
G1 X86.999 Y119.166 E5.55308
G1 X86.954 Y117.748 E5.60027
G1 X86.954 Y117.255 E5.61667
G1 X86.999 Y115.827 E5.66419
G1 X87.029 Y115.342 E5.68035
G1 X87.163 Y113.918 E5.72792
G1 X87.225 Y113.427 E5.74438
G1 X87.449 Y112.015 E5.79193
G1 X87.542 Y111.531 E5.80832
G1 X87.855 Y110.135 E5.85591
G1 X87.976 Y109.665 E5.87205
G1 X88.374 Y108.295 E5.9195
G1 X88.523 Y107.834 E5.93561
G1 X88.883 Y106.832 E5.97103
G1 X89.007 Y106.502 E5.98275
G1 X89.215 Y105.969 E6.00178
G1 X89.756 Y104.718 E6.04711
G1 X89.963 Y104.278 E6.06329
G1 X90.611 Y103.004 E6.11083
G1 X90.853 Y102.563 E6.12756
G1 X91.582 Y101.333 E6.17511
G1 X91.844 Y100.921 E6.19135
G1 X92.66 Y99.722 E6.23959
G1 X92.951 Y99.322 E6.25604
G1 X93.826 Y98.197 E6.30345
G1 X94.132 Y97.828 E6.31939
G1 X95.077 Y96.756 E6.36692
G1 X95.413 Y96.399 E6.38323
G0 F6000 X95.695 Y96.681
G1 F1200 X96.698 Y95.678 E6.4304
G1 X97.048 Y95.35 E6.44636
G1 X98.139 Y94.392 E6.49465
G1 X98.488 Y94.104 E6.5097
G1 X99.6 Y93.242 E6.55649
G1 X99.975 Y92.97 E6.5719
G1 X101.151 Y92.171 E6.61919
G1 X101.542 Y91.923 E6.63459
G1 X102.774 Y91.194 E6.6822
G1 X103.183 Y90.969 E6.69773
G1 X104.455 Y90.321 E6.74521
G1 X104.879 Y90.122 E6.76079
G1 X106.182 Y89.559 E6.808
G1 X106.608 Y89.39 E6.82324
G1 X107.962 Y88.902 E6.87111
G1 X108.416 Y88.755 E6.88698
G1 X109.817 Y88.35 E6.93549
G1 X110.253 Y88.238 E6.95046
G1 X111.618 Y87.932 E6.99699
G1 X112.083 Y87.844 E7.01273
G1 X113.502 Y87.62 E7.06051
G1 X113.964 Y87.561 E7.076
G1 X115.391 Y87.427 E7.12367
G1 X115.848 Y87.399 E7.1389
G1 X117.265 Y87.354 E7.18605
G1 X117.733 Y87.354 E7.20162
G1 X119.16 Y87.399 E7.2491
G1 X119.62 Y87.428 E7.26443
G1 X121.044 Y87.562 E7.31201
G1 X121.513 Y87.621 E7.32773
G1 X122.935 Y87.847 E7.37562
G1 X123.393 Y87.935 E7.39113
G1 X124.779 Y88.246 E7.43837
G1 X125.223 Y88.36 E7.45362
G1 X126.597 Y88.759 E7.50121
G1 X126.917 Y88.859 E7.51236
G1 X127.616 Y89.13 E7.53729
G1 X127.943 Y89.228 E7.54865
G1 X128.401 Y89.393 E7.56484
G1 X128.837 Y89.566 E7.58044
G1 X130.14 Y90.131 E7.62768
G1 X130.555 Y90.326 E7.64293
G1 X131.825 Y90.973 E7.69033
G1 X132.237 Y91.2 E7.70598
G1 X133.461 Y91.925 E7.75329
G1 X133.855 Y92.176 E7.76883
G1 X135.062 Y92.998 E7.8174
G1 X135.435 Y93.269 E7.83274
G1 X136.539 Y94.126 E7.87922
G1 X136.892 Y94.417 E7.89444
G1 X137.964 Y95.361 E7.94195
G1 X138.306 Y95.682 E7.95755
G1 X139.317 Y96.693 E8.0051
G1 X139.641 Y97.039 E8.02087
G1 X140.596 Y98.125 E8.06897
G1 X140.886 Y98.476 E8.08411
G1 X141.751 Y99.591 E8.13105
G1 X142.028 Y99.973 E8.14674
G1 X142.84 Y101.17 E8.19485
G1 X143.086 Y101.559 E8.21016
G1 X143.816 Y102.794 E8.25787
G1 X144.044 Y103.208 E8.27359
G1 X144.687 Y104.474 E8.32082
G1 X144.88 Y104.884 E8.33589
G1 X145.443 Y106.184 E8.38301
G1 X145.616 Y106.622 E8.39867
G1 X146.07 Y107.885 E8.44331
G1 X146.208 Y108.3 E8.45786
G1 X146.271 Y108.506 E8.46502
G1 X146.64 Y109.776 E8.50901
G1 X146.756 Y110.226 E8.52447
G1 X147.055 Y111.563 E8.57003
G1 X147.133 Y111.956 E8.58336
G1 X147.172 Y112.182 E8.59099
G1 X147.381 Y113.506 E8.63557
G1 X147.44 Y113.971 E8.65116
G1 X147.563 Y115.287 E8.69512
G1 X147.592 Y115.689 E8.70853
G1 X147.604 Y115.94 E8.71688
G1 X147.646 Y117.265 E8.76098
G1 X147.646 Y117.731 E8.77648
G1 X147.603 Y119.103 E8.82213
G1 X147.59 Y119.367 E8.83092
G1 X147.566 Y119.683 E8.84146
G1 X147.438 Y121.044 E8.88693
G1 X147.38 Y121.51 E8.90255
G1 X147.156 Y122.922 E8.9501
G1 X147.068 Y123.382 E8.96568
G1 X146.755 Y124.778 E9.01326
G1 X146.642 Y125.216 E9.02831
G1 X146.267 Y126.512 E9.07318
G1 X146.164 Y126.844 E9.08474
G1 X146.087 Y127.068 E9.09262
G1 X145.615 Y128.38 E9.13899
G1 X145.446 Y128.808 E9.1543
G1 X144.89 Y130.096 E9.20096
G1 X144.693 Y130.515 E9.21636
G1 X144.07 Y131.741 E9.2621
G1 X143.953 Y131.963 E9.27044
G1 X143.746 Y132.33 E9.28446
G1 X143.072 Y133.466 E9.32839
G1 X142.829 Y133.848 E9.34345
G1 X142.026 Y135.03 E9.39098
G1 X141.75 Y135.41 E9.4066
G1 X140.872 Y136.541 E9.45422
G1 X140.581 Y136.893 E9.46941
G1 X139.639 Y137.963 E9.51682
G1 X139.318 Y138.306 E9.53245
G1 X138.307 Y139.317 E9.58
G1 X137.965 Y139.638 E9.5956
G1 X136.893 Y140.582 E9.64311
G1 X136.538 Y140.875 E9.65842
G1 X135.409 Y141.751 E9.70595
G1 X135.033 Y142.024 E9.72141
G1 X133.85 Y142.828 E9.76898
G1 X133.461 Y143.075 E9.78431
G1 X132.232 Y143.803 E9.83182
G1 X131.816 Y144.032 E9.84761
G1 X130.54 Y144.681 E9.89522
G1 X130.124 Y144.876 E9.9105
G1 X128.814 Y145.443 E9.95798
G1 X128.379 Y145.615 E9.97354
G1 X127.033 Y146.099 E10.02111
G1 X126.593 Y146.242 E10.0365
G1 X125.223 Y146.64 E10.08395
G1 X124.767 Y146.757 E10.09961
G1 X123.339 Y147.075 E10.14827
G1 X122.885 Y147.161 E10.16364
G1 X121.492 Y147.381 E10.21054
G1 X121.025 Y147.44 E10.2262
G1 X119.599 Y147.573 E10.27383
G1 X119.138 Y147.602 E10.2892
G1 X117.699 Y147.646 E10.33708
G1 X117.24 Y147.645 E10.35235
G1 X115.936 Y147.604 E10.39574
G1 X115.521 Y147.582 E10.40956
G1 X115.277 Y147.563 E10.4177
G1 X113.944 Y147.437 E10.46224
G1 X113.478 Y147.378 E10.47786
G1 X112.075 Y147.155 E10.52511
G1 X111.616 Y147.067 E10.54065
G1 X110.217 Y146.753 E10.58834
G1 X109.774 Y146.639 E10.60356
G1 X108.4 Y146.24 E10.65114
G1 X107.954 Y146.095 E10.66674
G1 X106.598 Y145.606 E10.71469
G1 X106.163 Y145.434 E10.73024
G1 X104.849 Y144.864 E10.77788
G1 X104.433 Y144.668 E10.79318
G1 X103.164 Y144.021 E10.84055
G1 X102.747 Y143.791 E10.85639
G1 X101.511 Y143.057 E10.9042
G1 X101.128 Y142.814 E10.91929
G1 X99.966 Y142.024 E10.96603
G1 X99.591 Y141.751 E10.98145
G1 X98.462 Y140.875 E11.02898
G1 X98.107 Y140.582 E11.04429
G1 X97.035 Y139.638 E11.0918
G1 X96.693 Y139.317 E11.1074
G1 X95.682 Y138.306 E11.15495
G1 X95.361 Y137.964 E11.17055
G1 X94.417 Y136.892 E11.21806
G1 X94.12 Y136.532 E11.23359
G1 X93.231 Y135.384 E11.28188
G1 X92.959 Y135.009 E11.29729
G1 X92.169 Y133.845 E11.34408
G1 X91.925 Y133.459 E11.35926
G1 X91.189 Y132.216 E11.40731
G1 X90.959 Y131.799 E11.42315
G1 X90.313 Y130.528 E11.47057
G1 X90.117 Y130.111 E11.4859
G1 X89.591 Y128.894 E11.52999
G1 X89.494 Y128.657 E11.53851
G1 X89.344 Y128.268 E11.55238
G1 X88.9 Y127.033 E11.59603
G1 X88.758 Y126.593 E11.6114
G1 X88.36 Y125.223 E11.65885
G1 X88.244 Y124.774 E11.67428
G1 X87.93 Y123.37 E11.72213
G1 X87.844 Y122.917 E11.73747
G1 X87.627 Y121.552 E11.78344
G1 X87.577 Y121.18 E11.79592
G1 X87.548 Y120.902 E11.80522
G1 X87.427 Y119.608 E11.84844
G1 X87.399 Y119.154 E11.86357
G1 X87.354 Y117.736 E11.91076
G1 X87.354 Y117.268 E11.92632
G1 X87.399 Y115.84 E11.97384
G1 X87.428 Y115.38 E11.98917
G1 X87.562 Y113.956 E12.03674
G1 X87.62 Y113.49 E12.05236
G1 X87.844 Y112.078 E12.09991
G1 X87.932 Y111.618 E12.11549
G1 X88.245 Y110.222 E12.16307
G1 X88.36 Y109.777 E12.17836
G1 X88.758 Y108.407 E12.22581
G1 X88.9 Y107.969 E12.24113
G1 X89.26 Y106.967 E12.27654
G1 X89.423 Y106.577 E12.2906
G1 X89.582 Y106.128 E12.30644
G1 X90.123 Y104.877 E12.35177
G1 X90.319 Y104.459 E12.36713
G1 X90.967 Y103.185 E12.41467
G1 X91.197 Y102.767 E12.43054
G1 X91.926 Y101.537 E12.47809
G1 X92.174 Y101.147 E12.49346
G1 X92.99 Y99.948 E12.5417
G1 X93.267 Y99.568 E12.55734
G1 X94.142 Y98.443 E12.60474
G1 X94.432 Y98.093 E12.61986
G1 X95.377 Y97.021 E12.66739
G1 X95.695 Y96.681 E12.68288
G0 F6000 X95.978 Y96.964
G1 F1200 X96.981 Y95.961 E12.73006
G1 X97.312 Y95.651 E12.74514
G1 X98.403 Y94.693 E12.79343
G1 X98.733 Y94.421 E12.80765
G1 X99.845 Y93.559 E12.85445
G1 X100.2 Y93.301 E12.86905
G1 X101.376 Y92.502 E12.91633
G1 X101.745 Y92.268 E12.93087
G1 X102.977 Y91.539 E12.97848
G1 X103.365 Y91.326 E12.9932
G1 X104.637 Y90.678 E13.04068
G1 X105.038 Y90.489 E13.05543
G1 X106.341 Y89.926 E13.10264
G1 X106.744 Y89.767 E13.11704
G1 X108.098 Y89.279 E13.16491
G1 X108.527 Y89.139 E13.17992
G1 X109.928 Y88.734 E13.22843
G1 X110.341 Y88.629 E13.2426
G1 X111.706 Y88.323 E13.28913
G1 X112.146 Y88.239 E13.30403
G1 X113.565 Y88.015 E13.35181
G1 X114.002 Y87.96 E13.36646
G1 X115.429 Y87.826 E13.41413
G1 X115.861 Y87.799 E13.42853
G1 X117.278 Y87.754 E13.47568
G1 X117.721 Y87.753 E13.49041
G1 X119.148 Y87.798 E13.5379
G1 X119.583 Y87.826 E13.5524
G1 X121.007 Y87.96 E13.59997
G1 X121.45 Y88.016 E13.61482
G1 X122.872 Y88.242 E13.66271
G1 X123.306 Y88.325 E13.67741
G1 X124.692 Y88.636 E13.72465
G1 X125.111 Y88.744 E13.73904
G1 X126.485 Y89.143 E13.78663
G1 X126.792 Y89.239 E13.79733
G1 X127.365 Y89.462 E13.81778
G1 X127.808 Y89.604 E13.83325
G1 X128.266 Y89.769 E13.84944
G1 X128.678 Y89.933 E13.86419
G1 X129.981 Y90.498 E13.91143
G1 X130.374 Y90.683 E13.92588
G1 X131.644 Y91.33 E13.97328
G1 X132.033 Y91.544 E13.98805
G1 X133.257 Y92.269 E14.03536
G1 X133.63 Y92.506 E14.05006
G1 X134.837 Y93.328 E14.09863
G1 X135.189 Y93.584 E14.11311
G1 X136.293 Y94.441 E14.15959
G1 X136.627 Y94.718 E14.17403
G1 X137.699 Y95.662 E14.22154
G1 X138.023 Y95.965 E14.23629
G1 X139.034 Y96.976 E14.28384
G1 X139.341 Y97.303 E14.29876
G1 X140.296 Y98.389 E14.34686
G1 X140.57 Y98.721 E14.36118
G1 X141.435 Y99.836 E14.40812
G1 X141.697 Y100.197 E14.42295
G1 X142.509 Y101.394 E14.47106
G1 X142.742 Y101.762 E14.48555
G1 X143.472 Y102.997 E14.53326
G1 X143.687 Y103.389 E14.54813
G1 X144.33 Y104.655 E14.59536
G1 X144.512 Y105.043 E14.60961
G1 X145.075 Y106.343 E14.65673
G1 X145.239 Y106.757 E14.67154
G1 X145.693 Y108.02 E14.71618
G1 X145.827 Y108.423 E14.73031
G1 X145.887 Y108.618 E14.73709
G1 X146.256 Y109.888 E14.78108
G1 X146.365 Y110.313 E14.79567
G1 X146.664 Y111.65 E14.84124
G1 X146.74 Y112.03 E14.85413
G1 X146.777 Y112.245 E14.86139
G1 X146.986 Y113.569 E14.90597
G1 X147.042 Y114.009 E14.92072
G1 X147.165 Y115.325 E14.96468
G1 X147.193 Y115.715 E14.97769
G1 X147.204 Y115.952 E14.98558
G1 X147.246 Y117.277 E15.02967
G1 X147.247 Y117.718 E15.04434
G1 X147.204 Y119.09 E15.08999
G1 X147.183 Y119.46 E15.10232
G1 X147.168 Y119.645 E15.10849
G1 X147.04 Y121.006 E15.15396
G1 X146.985 Y121.448 E15.16877
G1 X146.761 Y122.86 E15.21632
